;FLAVOR:Marlin
;TIME:576
;Filament used: 0.706935m
;Layer height: 0.6
;MINX:0.4
;MINY:-16.825
;MINZ:0.6
;MAXX:29.6
;MAXY:16.836
;MAXZ:19.8
;TARGET_MACHINE.NAME:Unknown
;Generated with Cura_SteamEngine 5.10.1
M104 S210
M105
M109 S210
G92 E0
G28 ;Home
;Prime the extruder
G0 F1200 X20 Y60 Z50
G1 F200 E3
G92 E0
;Set feedrate percentage
M220 S62.5
M82 ;absolute extrusion mode
G92 E0
G92 E0
G1 F900 E-3
;LAYER_COUNT:33
;LAYER:0
M107
M204 S3000
;MESH:test_hex_D30H20.obj
G0 F600 X15.14 Y16.776 Z0.6
;TYPE:WALL-OUTER
G1 F900 E0
G1 F352.9 X29.46 Y8.507 E3.50618
G1 F351.3 X29.571 Y8.412 E3.5373
G1 X29.598 Y8.265 E3.56914
G1 F352.9 X29.6 Y-8.196 E7.05943
G1 F351.3 X29.571 Y-8.412 E7.10585
G1 X29.4 Y-8.543 E7.15174
G1 F352.9 X15.2 Y-16.742 E10.62847
G1 F351.7 X15 Y-16.825 E10.67454
G1 X14.8 Y-16.742 E10.72062
G1 F352.9 X0.54 Y-8.507 E14.21218
G1 F351.3 X0.429 Y-8.412 E14.2433
G1 X0.4 Y-8.196 E14.28973
G1 F352.9 X0.402 Y8.265 E17.78001
G1 F351.3 X0.429 Y8.412 E17.81185
G1 X0.6 Y8.543 E17.85774
G1 F352.1 X14.967 Y16.836 E21.38337
G1 X15.14 Y16.776 E21.42228
;TIME_ELAPSED:21.928224
;LAYER:1
M106 S255
;MESH:test_hex_D30H20.obj
G0 F600 X15.14 Y16.776 Z1.2
;TYPE:WALL-OUTER
G1 F352.9 X29.46 Y8.507 E24.92847
G1 F351.3 X29.571 Y8.412 E24.95959
G1 X29.598 Y8.265 E24.99143
G1 F352.9 X29.6 Y-8.196 E28.48171
G1 F351.3 X29.571 Y-8.412 E28.52814
G1 X29.4 Y-8.543 E28.57403
G1 F352.9 X15.2 Y-16.742 E32.05075
G1 F351.7 X15 Y-16.825 E32.09683
G1 X14.8 Y-16.742 E32.1429
G1 F352.9 X0.54 Y-8.507 E35.63446
G1 F351.3 X0.429 Y-8.412 E35.66558
G1 X0.4 Y-8.196 E35.71201
G1 F352.9 X0.402 Y8.265 E39.20229
G1 F351.3 X0.429 Y8.412 E39.23413
G1 X0.6 Y8.543 E39.28002
G1 F352.1 X14.967 Y16.836 E42.80565
G1 X15.14 Y16.776 E42.84457
;TIME_ELAPSED:39.256261
;LAYER:2
;MESH:test_hex_D30H20.obj
G0 F600 X15.14 Y16.776 Z1.8
;TYPE:WALL-OUTER
G1 F352.9 X29.46 Y8.507 E46.35075
G1 F351.3 X29.571 Y8.412 E46.38187
G1 X29.598 Y8.265 E46.41371
G1 F352.9 X29.6 Y-8.196 E49.904
G1 F351.3 X29.571 Y-8.412 E49.95042
G1 X29.4 Y-8.543 E49.99631
G1 F352.9 X15.2 Y-16.742 E53.47304
G1 F351.7 X15 Y-16.825 E53.51911
G1 X14.8 Y-16.742 E53.56519
G1 F352.9 X0.54 Y-8.507 E57.05674
G1 F351.3 X0.429 Y-8.412 E57.08787
G1 X0.4 Y-8.196 E57.1343
G1 F352.9 X0.402 Y8.265 E60.62458
G1 F351.3 X0.429 Y8.412 E60.65642
G1 X0.6 Y8.543 E60.70231
G1 F352.1 X14.967 Y16.836 E64.22794
G1 X15.14 Y16.776 E64.26685
;TIME_ELAPSED:56.584299
;LAYER:3
;MESH:test_hex_D30H20.obj
G0 F600 X15.14 Y16.776 Z2.4
;TYPE:WALL-OUTER
G1 F352.9 X29.46 Y8.507 E67.77303
G1 F351.3 X29.571 Y8.412 E67.80416
G1 X29.598 Y8.265 E67.836
G1 F352.9 X29.6 Y-8.196 E71.32628
G1 F351.3 X29.571 Y-8.412 E71.37271
G1 X29.4 Y-8.543 E71.4186
G1 F352.9 X15.2 Y-16.742 E74.89532
G1 F351.7 X15 Y-16.825 E74.9414
G1 X14.8 Y-16.742 E74.98747
G1 F352.9 X0.54 Y-8.507 E78.47903
G1 F351.3 X0.429 Y-8.412 E78.51015
G1 X0.4 Y-8.196 E78.55658
G1 F352.9 X0.402 Y8.265 E82.04686
G1 F351.3 X0.429 Y8.412 E82.0787
G1 X0.6 Y8.543 E82.12459
G1 F352.1 X14.967 Y16.836 E85.65022
G1 X15.14 Y16.776 E85.68914
;TIME_ELAPSED:73.912337
;LAYER:4
;MESH:test_hex_D30H20.obj
G0 F600 X15.14 Y16.776 Z3
;TYPE:WALL-OUTER
G1 F352.9 X29.46 Y8.507 E89.19532
G1 F351.3 X29.571 Y8.412 E89.22644
G1 X29.598 Y8.265 E89.25828
G1 F352.9 X29.6 Y-8.196 E92.74856
G1 F351.3 X29.571 Y-8.412 E92.79499
G1 X29.4 Y-8.543 E92.84088
G1 F352.9 X15.2 Y-16.742 E96.31761
G1 F351.7 X15 Y-16.825 E96.36368
G1 X14.8 Y-16.742 E96.40976
G1 F352.9 X0.54 Y-8.507 E99.90131
G1 F351.3 X0.429 Y-8.412 E99.93244
G1 X0.4 Y-8.196 E99.97887
G1 F352.9 X0.402 Y8.265 E103.46915
G1 F351.3 X0.429 Y8.412 E103.50099
G1 X0.6 Y8.543 E103.54688
G1 F352.1 X14.967 Y16.836 E107.07251
G1 X15.14 Y16.776 E107.11142
;TIME_ELAPSED:91.240375
;LAYER:5
;MESH:test_hex_D30H20.obj
G0 F600 X15.14 Y16.776 Z3.6
;TYPE:WALL-OUTER
G1 F352.9 X29.46 Y8.507 E110.6176
G1 F351.3 X29.571 Y8.412 E110.64873
G1 X29.598 Y8.265 E110.68057
G1 F352.9 X29.6 Y-8.196 E114.17085
G1 F351.3 X29.571 Y-8.412 E114.21728
G1 X29.4 Y-8.543 E114.26317
G1 F352.9 X15.2 Y-16.742 E117.73989
G1 F351.7 X15 Y-16.825 E117.78597
G1 X14.8 Y-16.742 E117.83204
G1 F352.9 X0.54 Y-8.507 E121.3236
G1 F351.3 X0.429 Y-8.412 E121.35472
G1 X0.4 Y-8.196 E121.40115
G1 F352.9 X0.402 Y8.265 E124.89143
G1 F351.3 X0.429 Y8.412 E124.92327
G1 X0.6 Y8.543 E124.96916
G1 F352.1 X14.967 Y16.836 E128.49479
G1 X15.14 Y16.776 E128.53371
;TIME_ELAPSED:108.568413
;LAYER:6
;MESH:test_hex_D30H20.obj
G0 F600 X15.14 Y16.776 Z4.2
;TYPE:WALL-OUTER
G1 F352.9 X29.46 Y8.507 E132.03989
G1 F351.3 X29.571 Y8.412 E132.07101
G1 X29.598 Y8.265 E132.10285
G1 F352.9 X29.6 Y-8.196 E135.59313
G1 F351.3 X29.571 Y-8.412 E135.63956
G1 X29.4 Y-8.543 E135.68545
G1 F352.9 X15.2 Y-16.742 E139.16218
G1 F351.7 X15 Y-16.825 E139.20825
G1 X14.8 Y-16.742 E139.25433
G1 F352.9 X0.54 Y-8.507 E142.74588
G1 F351.3 X0.429 Y-8.412 E142.77701
G1 X0.4 Y-8.196 E142.82344
G1 F352.9 X0.402 Y8.265 E146.31372
G1 F351.3 X0.429 Y8.412 E146.34556
G1 X0.6 Y8.543 E146.39145
G1 F352.1 X14.967 Y16.836 E149.91708
G1 X15.14 Y16.776 E149.95599
;TIME_ELAPSED:125.896450
;LAYER:7
;MESH:test_hex_D30H20.obj
G0 F600 X15.14 Y16.776 Z4.8
;TYPE:WALL-OUTER
G1 F352.9 X29.46 Y8.507 E153.46217
G1 F351.3 X29.571 Y8.412 E153.4933
G1 X29.598 Y8.265 E153.52514
G1 F352.9 X29.6 Y-8.196 E157.01542
G1 F351.3 X29.571 Y-8.412 E157.06185
G1 X29.4 Y-8.543 E157.10774
G1 F352.9 X15.2 Y-16.742 E160.58446
G1 F351.7 X15 Y-16.825 E160.63054
G1 X14.8 Y-16.742 E160.67661
G1 F352.9 X0.54 Y-8.507 E164.16817
G1 F351.3 X0.429 Y-8.412 E164.19929
G1 X0.4 Y-8.196 E164.24572
G1 F352.9 X0.402 Y8.265 E167.736
G1 F351.3 X0.429 Y8.412 E167.76784
G1 X0.6 Y8.543 E167.81373
G1 F352.1 X14.967 Y16.836 E171.33936
G1 X15.14 Y16.776 E171.37828
;TIME_ELAPSED:143.224488
;LAYER:8
;MESH:test_hex_D30H20.obj
G0 F600 X15.14 Y16.776 Z5.4
;TYPE:WALL-OUTER
G1 F352.9 X29.46 Y8.507 E174.88446
G1 F351.3 X29.571 Y8.412 E174.91558
G1 X29.598 Y8.265 E174.94742
G1 F352.9 X29.6 Y-8.196 E178.4377
G1 F351.3 X29.571 Y-8.412 E178.48413
G1 X29.4 Y-8.543 E178.53002
G1 F352.9 X15.2 Y-16.742 E182.00675
G1 F351.7 X15 Y-16.825 E182.05282
G1 X14.8 Y-16.742 E182.0989
G1 F352.9 X0.54 Y-8.507 E185.59045
G1 F351.3 X0.429 Y-8.412 E185.62158
G1 X0.4 Y-8.196 E185.66801
G1 F352.9 X0.402 Y8.265 E189.15829
G1 F351.3 X0.429 Y8.412 E189.19013
G1 X0.6 Y8.543 E189.23602
G1 F352.1 X14.967 Y16.836 E192.76165
G1 X15.14 Y16.776 E192.80056
;TIME_ELAPSED:160.552526
;LAYER:9
;MESH:test_hex_D30H20.obj
G0 F600 X15.14 Y16.776 Z6
;TYPE:WALL-OUTER
G1 F352.9 X29.46 Y8.507 E196.30674
G1 F351.3 X29.571 Y8.412 E196.33787
G1 X29.598 Y8.265 E196.36971
G1 F352.9 X29.6 Y-8.196 E199.85999
G1 F351.3 X29.571 Y-8.412 E199.90642
G1 X29.4 Y-8.543 E199.95231
G1 F352.9 X15.2 Y-16.742 E203.42903
G1 F351.7 X15 Y-16.825 E203.47511
G1 X14.8 Y-16.742 E203.52118
G1 F352.9 X0.54 Y-8.507 E207.01274
G1 F351.3 X0.429 Y-8.412 E207.04386
G1 X0.4 Y-8.196 E207.09029
G1 F352.9 X0.402 Y8.265 E210.58057
G1 F351.3 X0.429 Y8.412 E210.61241
G1 X0.6 Y8.543 E210.6583
G1 F352.1 X14.967 Y16.836 E214.18393
G1 X15.14 Y16.776 E214.22285
;TIME_ELAPSED:177.880564
;LAYER:10
;MESH:test_hex_D30H20.obj
G0 F600 X15.14 Y16.776 Z6.6
;TYPE:WALL-OUTER
G1 F352.9 X29.46 Y8.507 E217.72903
G1 F351.3 X29.571 Y8.412 E217.76015
G1 X29.598 Y8.265 E217.79199
G1 F352.9 X29.6 Y-8.196 E221.28227
G1 F351.3 X29.571 Y-8.412 E221.3287
G1 X29.4 Y-8.543 E221.37459
G1 F352.9 X15.2 Y-16.742 E224.85131
G1 F351.7 X15 Y-16.825 E224.89739
G1 X14.8 Y-16.742 E224.94347
G1 F352.9 X0.54 Y-8.507 E228.43502
G1 F351.3 X0.429 Y-8.412 E228.46615
G1 X0.4 Y-8.196 E228.51258
G1 F352.9 X0.402 Y8.265 E232.00286
G1 F351.3 X0.429 Y8.412 E232.0347
G1 X0.6 Y8.543 E232.08059
G1 F352.1 X14.967 Y16.836 E235.60622
G1 X15.14 Y16.776 E235.64513
;TIME_ELAPSED:195.208602
;LAYER:11
;MESH:test_hex_D30H20.obj
G0 F600 X15.14 Y16.776 Z7.2
;TYPE:WALL-OUTER
G1 F352.9 X29.46 Y8.507 E239.15131
G1 F351.3 X29.571 Y8.412 E239.18244
G1 X29.598 Y8.265 E239.21428
G1 F352.9 X29.6 Y-8.196 E242.70456
G1 F351.3 X29.571 Y-8.412 E242.75099
G1 X29.4 Y-8.543 E242.79688
G1 F352.9 X15.2 Y-16.742 E246.2736
G1 F351.7 X15 Y-16.825 E246.31968
G1 X14.8 Y-16.742 E246.36575
G1 F352.9 X0.54 Y-8.507 E249.85731
G1 F351.3 X0.429 Y-8.412 E249.88843
G1 X0.4 Y-8.196 E249.93486
G1 F352.9 X0.402 Y8.265 E253.42514
G1 F351.3 X0.429 Y8.412 E253.45698
G1 X0.6 Y8.543 E253.50287
G1 F352.1 X14.967 Y16.836 E257.0285
G1 X15.14 Y16.776 E257.06742
;TIME_ELAPSED:212.536639
;LAYER:12
;MESH:test_hex_D30H20.obj
G0 F600 X15.14 Y16.776 Z7.8
;TYPE:WALL-OUTER
G1 F352.9 X29.46 Y8.507 E260.5736
G1 F351.3 X29.571 Y8.412 E260.60472
G1 X29.598 Y8.265 E260.63656
G1 F352.9 X29.6 Y-8.196 E264.12684
G1 F351.3 X29.571 Y-8.412 E264.17327
G1 X29.4 Y-8.543 E264.21916
G1 F352.9 X15.2 Y-16.742 E267.69588
G1 F351.7 X15 Y-16.825 E267.74196
G1 X14.8 Y-16.742 E267.78804
G1 F352.9 X0.54 Y-8.507 E271.27959
G1 F351.3 X0.429 Y-8.412 E271.31072
G1 X0.4 Y-8.196 E271.35715
G1 F352.9 X0.402 Y8.265 E274.84743
G1 F351.3 X0.429 Y8.412 E274.87927
G1 X0.6 Y8.543 E274.92516
G1 F352.1 X14.967 Y16.836 E278.45079
G1 X15.14 Y16.776 E278.4897
;TIME_ELAPSED:229.864677
;LAYER:13
;MESH:test_hex_D30H20.obj
G0 F600 X15.14 Y16.776 Z8.4
;TYPE:WALL-OUTER
G1 F352.9 X29.46 Y8.507 E281.99588
G1 F351.3 X29.571 Y8.412 E282.02701
G1 X29.598 Y8.265 E282.05885
G1 F352.9 X29.6 Y-8.196 E285.54913
G1 F351.3 X29.571 Y-8.412 E285.59556
G1 X29.4 Y-8.543 E285.64145
G1 F352.9 X15.2 Y-16.742 E289.11817
G1 F351.7 X15 Y-16.825 E289.16424
G1 X14.8 Y-16.742 E289.21032
G1 F352.9 X0.54 Y-8.507 E292.70188
G1 F351.3 X0.429 Y-8.412 E292.733
G1 X0.4 Y-8.196 E292.77943
G1 F352.9 X0.402 Y8.265 E296.26971
G1 F351.3 X0.429 Y8.412 E296.30155
G1 X0.6 Y8.543 E296.34744
G1 F352.1 X14.967 Y16.836 E299.87307
G1 X15.14 Y16.776 E299.91199
;TIME_ELAPSED:247.192715
;LAYER:14
;MESH:test_hex_D30H20.obj
G0 F600 X15.14 Y16.776 Z9
;TYPE:WALL-OUTER
G1 F352.9 X29.46 Y8.507 E303.41817
G1 F351.3 X29.571 Y8.412 E303.44929
G1 X29.598 Y8.265 E303.48113
G1 F352.9 X29.6 Y-8.196 E306.97141
G1 F351.3 X29.571 Y-8.412 E307.01784
G1 X29.4 Y-8.543 E307.06373
G1 F352.9 X15.2 Y-16.742 E310.54045
G1 F351.7 X15 Y-16.825 E310.58653
G1 X14.8 Y-16.742 E310.63261
G1 F352.9 X0.54 Y-8.507 E314.12416
G1 F351.3 X0.429 Y-8.412 E314.15529
G1 X0.4 Y-8.196 E314.20172
G1 F352.9 X0.402 Y8.265 E317.692
G1 F351.3 X0.429 Y8.412 E317.72384
G1 X0.6 Y8.543 E317.76973
G1 F352.1 X14.967 Y16.836 E321.29536
G1 X15.14 Y16.776 E321.33427
;TIME_ELAPSED:264.520753
;LAYER:15
;MESH:test_hex_D30H20.obj
G0 F600 X15.14 Y16.776 Z9.6
;TYPE:WALL-OUTER
G1 F352.9 X29.46 Y8.507 E324.84045
G1 F351.3 X29.571 Y8.412 E324.87158
G1 X29.598 Y8.265 E324.90342
G1 F352.9 X29.6 Y-8.196 E328.3937
G1 F351.3 X29.571 Y-8.412 E328.44013
G1 X29.4 Y-8.543 E328.48602
G1 F352.9 X15.2 Y-16.742 E331.96274
G1 F351.7 X15 Y-16.825 E332.00881
G1 X14.8 Y-16.742 E332.05489
G1 F352.9 X0.54 Y-8.507 E335.54645
G1 F351.3 X0.429 Y-8.412 E335.57757
G1 X0.4 Y-8.196 E335.624
G1 F352.9 X0.402 Y8.265 E339.11428
G1 F351.3 X0.429 Y8.412 E339.14612
G1 X0.6 Y8.543 E339.19201
G1 F352.1 X14.967 Y16.836 E342.71764
G1 X15.14 Y16.776 E342.75656
;TIME_ELAPSED:281.848791
;LAYER:16
;MESH:test_hex_D30H20.obj
G0 F600 X15.14 Y16.776 Z10.2
;TYPE:WALL-OUTER
G1 F352.9 X29.46 Y8.507 E346.26274
G1 F351.3 X29.571 Y8.412 E346.29386
G1 X29.598 Y8.265 E346.3257
G1 F352.9 X29.6 Y-8.196 E349.81598
G1 F351.3 X29.571 Y-8.412 E349.86241
G1 X29.4 Y-8.543 E349.9083
G1 F352.9 X15.2 Y-16.742 E353.38502
G1 F351.7 X15 Y-16.825 E353.4311
G1 X14.8 Y-16.742 E353.47717
G1 F352.9 X0.54 Y-8.507 E356.96873
G1 F351.3 X0.429 Y-8.412 E356.99986
G1 X0.4 Y-8.196 E357.04629
G1 F352.9 X0.402 Y8.265 E360.53657
G1 F351.3 X0.429 Y8.412 E360.56841
G1 X0.6 Y8.543 E360.6143
G1 F352.1 X14.967 Y16.836 E364.13993
G1 X15.14 Y16.776 E364.17884
;TIME_ELAPSED:299.176829
;LAYER:17
;MESH:test_hex_D30H20.obj
G0 F600 X15.14 Y16.776 Z10.8
;TYPE:WALL-OUTER
G1 F352.9 X29.46 Y8.507 E367.68502
G1 F351.3 X29.571 Y8.412 E367.71615
G1 X29.598 Y8.265 E367.74799
G1 F352.9 X29.6 Y-8.196 E371.23827
G1 F351.3 X29.571 Y-8.412 E371.2847
G1 X29.4 Y-8.543 E371.33059
G1 F352.9 X15.2 Y-16.742 E374.80731
G1 F351.7 X15 Y-16.825 E374.85338
G1 X14.8 Y-16.742 E374.89946
G1 F352.9 X0.54 Y-8.507 E378.39102
G1 F351.3 X0.429 Y-8.412 E378.42214
G1 X0.4 Y-8.196 E378.46857
G1 F352.9 X0.402 Y8.265 E381.95885
G1 F351.3 X0.429 Y8.412 E381.99069
G1 X0.6 Y8.543 E382.03658
G1 F352.1 X14.967 Y16.836 E385.56221
G1 X15.14 Y16.776 E385.60113
;TIME_ELAPSED:316.504866
;LAYER:18
;MESH:test_hex_D30H20.obj
G0 F600 X15.14 Y16.776 Z11.4
;TYPE:WALL-OUTER
G1 F352.9 X29.46 Y8.507 E389.10731
G1 F351.3 X29.571 Y8.412 E389.13843
G1 X29.598 Y8.265 E389.17027
G1 F352.9 X29.6 Y-8.196 E392.66055
G1 F351.3 X29.571 Y-8.412 E392.70698
G1 X29.4 Y-8.543 E392.75287
G1 F352.9 X15.2 Y-16.742 E396.22959
G1 F351.7 X15 Y-16.825 E396.27567
G1 X14.8 Y-16.742 E396.32174
G1 F352.9 X0.54 Y-8.507 E399.8133
G1 F351.3 X0.429 Y-8.412 E399.84443
G1 X0.4 Y-8.196 E399.89085
G1 F352.9 X0.402 Y8.265 E403.38114
G1 F351.3 X0.429 Y8.412 E403.41298
G1 X0.6 Y8.543 E403.45886
G1 F352.1 X14.967 Y16.836 E406.9845
G1 X15.14 Y16.776 E407.02341
;TIME_ELAPSED:333.832904
;LAYER:19
;MESH:test_hex_D30H20.obj
G0 F600 X15.14 Y16.776 Z12
;TYPE:WALL-OUTER
G1 F352.9 X29.46 Y8.507 E410.52959
G1 F351.3 X29.571 Y8.412 E410.56072
G1 X29.598 Y8.265 E410.59256
G1 F352.9 X29.6 Y-8.196 E414.08284
G1 F351.3 X29.571 Y-8.412 E414.12927
G1 X29.4 Y-8.543 E414.17515
G1 F352.9 X15.2 Y-16.742 E417.65188
G1 F351.7 X15 Y-16.825 E417.69795
G1 X14.8 Y-16.742 E417.74403
G1 F352.9 X0.54 Y-8.507 E421.23559
G1 F351.3 X0.429 Y-8.412 E421.26671
G1 X0.4 Y-8.196 E421.31314
G1 F352.9 X0.402 Y8.265 E424.80342
G1 F351.3 X0.429 Y8.412 E424.83526
G1 X0.6 Y8.543 E424.88115
G1 F352.1 X14.967 Y16.836 E428.40678
G1 X15.14 Y16.776 E428.4457
;TIME_ELAPSED:351.160942
;LAYER:20
;MESH:test_hex_D30H20.obj
G0 F600 X15.14 Y16.776 Z12.6
;TYPE:WALL-OUTER
G1 F352.9 X29.46 Y8.507 E431.95188
G1 F351.3 X29.571 Y8.412 E431.983
G1 X29.598 Y8.265 E432.01484
G1 F352.9 X29.6 Y-8.196 E435.50512
G1 F351.3 X29.571 Y-8.412 E435.55155
G1 X29.4 Y-8.543 E435.59744
G1 F352.9 X15.2 Y-16.742 E439.07416
G1 F351.7 X15 Y-16.825 E439.12024
G1 X14.8 Y-16.742 E439.16631
G1 F352.9 X0.54 Y-8.507 E442.65787
G1 F351.3 X0.429 Y-8.412 E442.689
G1 X0.4 Y-8.196 E442.73542
G1 F352.9 X0.402 Y8.265 E446.22571
G1 F351.3 X0.429 Y8.412 E446.25755
G1 X0.6 Y8.543 E446.30343
G1 F352.1 X14.967 Y16.836 E449.82907
G1 X15.14 Y16.776 E449.86798
;TIME_ELAPSED:368.488980
;LAYER:21
;MESH:test_hex_D30H20.obj
G0 F600 X15.14 Y16.776 Z13.2
;TYPE:WALL-OUTER
G1 F352.9 X29.46 Y8.507 E453.37416
G1 F351.3 X29.571 Y8.412 E453.40529
G1 X29.598 Y8.265 E453.43713
G1 F352.9 X29.6 Y-8.196 E456.92741
G1 F351.3 X29.571 Y-8.412 E456.97384
G1 X29.4 Y-8.543 E457.01972
G1 F352.9 X15.2 Y-16.742 E460.49645
G1 F351.7 X15 Y-16.825 E460.54252
G1 X14.8 Y-16.742 E460.5886
G1 F352.9 X0.54 Y-8.507 E464.08016
G1 F351.3 X0.429 Y-8.412 E464.11128
G1 X0.4 Y-8.196 E464.15771
G1 F352.9 X0.402 Y8.265 E467.64799
G1 F351.3 X0.429 Y8.412 E467.67983
G1 X0.6 Y8.543 E467.72572
G1 F352.1 X14.967 Y16.836 E471.25135
G1 X15.14 Y16.776 E471.29027
;TIME_ELAPSED:385.817018
;LAYER:22
;MESH:test_hex_D30H20.obj
G0 F600 X15.14 Y16.776 Z13.8
;TYPE:WALL-OUTER
G1 F352.9 X29.46 Y8.507 E474.79645
G1 F351.3 X29.571 Y8.412 E474.82757
G1 X29.598 Y8.265 E474.85941
G1 F352.9 X29.6 Y-8.196 E478.34969
G1 F351.3 X29.571 Y-8.412 E478.39612
G1 X29.4 Y-8.543 E478.44201
G1 F352.9 X15.2 Y-16.742 E481.91873
G1 F351.7 X15 Y-16.825 E481.96481
G1 X14.8 Y-16.742 E482.01088
G1 F352.9 X0.54 Y-8.507 E485.50244
G1 F351.3 X0.429 Y-8.412 E485.53357
G1 X0.4 Y-8.196 E485.57999
G1 F352.9 X0.402 Y8.265 E489.07028
G1 F351.3 X0.429 Y8.412 E489.10211
G1 X0.6 Y8.543 E489.148
G1 F352.1 X14.967 Y16.836 E492.67364
G1 X15.14 Y16.776 E492.71255
;TIME_ELAPSED:403.145055
;LAYER:23
;MESH:test_hex_D30H20.obj
G0 F600 X15.14 Y16.776 Z14.4
;TYPE:WALL-OUTER
G1 F352.9 X29.46 Y8.507 E496.21873
G1 F351.3 X29.571 Y8.412 E496.24986
G1 X29.598 Y8.265 E496.2817
G1 F352.9 X29.6 Y-8.196 E499.77198
G1 F351.3 X29.571 Y-8.412 E499.8184
G1 X29.4 Y-8.543 E499.86429
G1 F352.9 X15.2 Y-16.742 E503.34102
G1 F351.7 X15 Y-16.825 E503.38709
G1 X14.8 Y-16.742 E503.43317
