; generated by Slic3r 1.3.0 on 2025-01-17 at 16:04:35

; external perimeters extrusion width = 0.55mm (4.37mm^3/s)
; perimeters extrusion width = 0.70mm (11.44mm^3/s)
; infill extrusion width = 0.63mm (13.45mm^3/s)
; solid infill extrusion width = 0.70mm (3.81mm^3/s)
; top infill extrusion width = 0.70mm (2.86mm^3/s)

M107
M104 S200 ; set temperature
G28 ; home all axes
G1 Z5 F5000 ; lift nozzle

; Filament gcode

M109 S200 ; set temperature and wait for it to be reached
G21 ; set units to millimeters
G90 ; use absolute coordinates
M82 ; use absolute distances for extrusion
G92 E0
G1 Z0.350 F7800.000
G1 E-2.00000 F2400.00000
G92 E0
G1 X95.021 Y94.911 F7800.000
G1 E2.00000 F2400.00000
G1 F600
G1 X96.685 Y93.699 E2.06370
G1 X96.832 Y93.624 E2.06878
G1 X98.829 Y92.978 E2.13373
G1 X98.986 Y92.953 E2.13867
G1 X101.014 Y92.953 E2.20140
G1 X101.169 Y92.977 E2.20625
G1 X103.168 Y93.624 E2.27129
G1 X103.315 Y93.699 E2.27637
G1 X104.972 Y94.904 E2.33979
G1 X105.090 Y95.022 E2.34491
G1 X106.305 Y96.692 E2.40884
G1 X106.377 Y96.834 E2.41376
G1 X107.023 Y98.831 E2.47871
G1 X107.047 Y98.986 E2.48356
G1 X107.047 Y101.014 E2.54630
G1 X107.023 Y101.169 E2.55115
G1 X106.377 Y103.166 E2.61610
G1 X106.305 Y103.308 E2.62101
G1 X105.090 Y104.979 E2.68494
G1 X104.972 Y105.096 E2.69006
G1 X103.308 Y106.305 E2.75373
G1 X103.166 Y106.377 E2.75865
G1 X101.170 Y107.023 E2.82357
G1 X101.014 Y107.047 E2.82845
G1 X98.986 Y107.047 E2.89119
G1 X98.831 Y107.023 E2.89604
G1 X96.834 Y106.377 E2.96099
G1 X96.692 Y106.305 E2.96590
G1 X95.028 Y105.096 E3.02957
G1 X94.910 Y104.978 E3.03470
G1 X93.695 Y103.308 E3.09862
G1 X93.618 Y103.157 E3.10387
G1 X92.977 Y101.169 E3.16849
G1 X92.952 Y101.005 E3.17363
G1 X92.951 Y98.999 E3.23569
G1 X92.977 Y98.831 E3.24094
G1 X93.624 Y96.831 E3.30598
G1 X93.701 Y96.680 E3.31122
G1 X94.968 Y94.964 E3.37723
G1 E1.37723 F2400.00000
G92 E0
G1 X99.999 Y99.999 F7800.000
G1 E2.00000 F2400.00000
G1 F1800
G1 X100.001 Y99.999 E2.00006
G1 X100.001 Y100.001 F7800.000
G1 F1800
G1 X99.999 Y100.001 E2.00012
G1 Z0.650 F7800.000
G1 X100.180 Y100.130 F7800.000
G1 F600
G1 X100.069 Y100.211 E2.00294
G1 X99.931 Y100.211 E2.00580
G1 X99.820 Y100.130 E2.00862
G1 X99.789 Y100.069 E2.01003
G1 X99.789 Y99.931 E2.01288
G1 X99.820 Y99.870 E2.01430
G1 X99.930 Y99.789 E2.01711
G1 X100.069 Y99.789 E2.01997
G1 X100.180 Y99.870 E2.02279
G1 X100.211 Y99.931 E2.02421
G1 X100.212 Y100.063 E2.02693
G1 X100.180 Y100.130 F7800.000
G1 Z0.950 F7800.000
G1 X100.180 Y100.130 F7800.000
G1 F600
G1 X100.069 Y100.211 E2.02975
G1 X99.931 Y100.211 E2.03260
G1 X99.820 Y100.130 E2.03543
G1 X99.789 Y100.069 E2.03684
G1 X99.789 Y99.931 E2.03969
G1 X99.820 Y99.870 E2.04110
G1 X99.930 Y99.789 E2.04391
G1 X100.069 Y99.789 E2.04678
G1 X100.180 Y99.870 E2.04962
G1 X100.211 Y99.931 E2.05101
G1 X100.212 Y100.063 E2.05373
G1 X100.180 Y100.130 F7800.000
M106 S255
G1 Z1.250 F7800.000
G1 X100.180 Y100.130 F7800.000
G1 F600
G1 X100.069 Y100.211 E2.05656
G1 X99.931 Y100.211 E2.05941
G1 X99.820 Y100.130 E2.06223
G1 X99.789 Y100.069 E2.06365
G1 X99.789 Y99.931 E2.06650
G1 X99.820 Y99.870 E2.06791
G1 X99.930 Y99.789 E2.07072
G1 X100.069 Y99.789 E2.07359
G1 X100.180 Y99.870 E2.07641
G1 X100.211 Y99.931 E2.07782
G1 X100.212 Y100.063 E2.08054
G1 X100.180 Y100.130 F7800.000
G1 Z1.550 F7800.000
G1 X100.180 Y100.130 F7800.000
G1 F600
G1 X100.069 Y100.211 E2.08337
G1 X99.931 Y100.211 E2.08622
G1 X99.870 Y100.180 E2.08763
G1 X99.789 Y100.069 E2.09045
G1 X99.789 Y99.931 E2.09331
G1 X99.820 Y99.870 E2.09472
G1 X99.930 Y99.790 E2.09752
G1 X100.069 Y99.789 E2.10039
G1 X100.180 Y99.870 E2.10322
G1 X100.211 Y99.931 E2.10463
G1 X100.212 Y100.063 E2.10735
G1 X100.180 Y100.130 F7800.000
G1 Z1.850 F7800.000
G1 X100.180 Y100.130 F7800.000
G1 F600
G1 X100.069 Y100.211 E2.11017
G1 X99.931 Y100.211 E2.11303
G1 X99.870 Y100.180 E2.11444
G1 X99.789 Y100.069 E2.11726
G1 X99.789 Y99.931 E2.12012
G1 X99.820 Y99.870 E2.12153
G1 X99.929 Y99.790 E2.12432
G1 X100.069 Y99.789 E2.12720
G1 X100.180 Y99.870 E2.13002
G1 X100.211 Y99.931 E2.13144
G1 X100.212 Y100.063 E2.13416
G1 X100.180 Y100.130 F7800.000
G1 Z2.150 F7800.000
G1 X100.180 Y100.130 F7800.000
G1 F600
G1 X100.069 Y100.211 E2.13698
G1 X99.931 Y100.211 E2.13984
G1 X99.870 Y100.180 E2.14125
G1 X99.789 Y100.069 E2.14407
G1 X99.789 Y99.931 E2.14692
G1 X99.820 Y99.870 E2.14834
G1 X99.929 Y99.790 E2.15112
G1 X100.069 Y99.789 E2.15401
G1 X100.180 Y99.870 E2.15683
G1 X100.211 Y99.931 E2.15824
G1 X100.212 Y100.063 E2.16097
G1 X100.180 Y100.130 F7800.000
G1 Z2.450 F7800.000
G1 X100.180 Y100.130 F7800.000
G1 F600
G1 X100.069 Y100.211 E2.16379
G1 X99.931 Y100.211 E2.16664
G1 X99.820 Y100.130 E2.16946
G1 X99.789 Y100.069 E2.17088
G1 X99.789 Y99.931 E2.17373
G1 X99.820 Y99.870 E2.17514
G1 X99.929 Y99.790 E2.17793
G1 X100.069 Y99.789 E2.18082
G1 X100.180 Y99.870 E2.18364
G1 X100.211 Y99.931 E2.18505
G1 X100.212 Y100.063 E2.18777
G1 X100.180 Y100.130 F7800.000
G1 Z2.750 F7800.000
G1 X100.180 Y100.130 F7800.000
G1 F600
G1 X100.069 Y100.211 E2.19059
G1 X99.931 Y100.211 E2.19345
G1 X99.820 Y100.130 E2.19627
G1 X99.789 Y100.069 E2.19768
G1 X99.789 Y99.931 E2.20054
G1 X99.820 Y99.870 E2.20195
G1 X99.929 Y99.790 E2.20473
G1 X100.069 Y99.789 E2.20762
G1 X100.180 Y99.870 E2.21044
G1 X100.211 Y99.931 E2.21186
G1 X100.212 Y100.063 E2.21458
G1 X100.180 Y100.130 F7800.000
G1 Z3.050 F7800.000
G1 X100.180 Y100.130 F7800.000
G1 F600
G1 X100.069 Y100.211 E2.21740
G1 X99.931 Y100.211 E2.22025
G1 X99.870 Y100.180 E2.22167
G1 X99.789 Y100.069 E2.22449
G1 X99.789 Y99.931 E2.22734
G1 X99.820 Y99.870 E2.22875
G1 X99.929 Y99.790 E2.23153
G1 X100.069 Y99.789 E2.23443
G1 X100.180 Y99.870 E2.23725
G1 X100.211 Y99.931 E2.23866
G1 X100.212 Y100.063 E2.24138
G1 X100.180 Y100.130 F7800.000
G1 Z3.350 F7800.000
G1 X100.180 Y100.130 F7800.000
G1 F600
G1 X100.069 Y100.211 E2.24421
G1 X99.931 Y100.211 E2.24706
G1 X99.870 Y100.180 E2.24847
G1 X99.789 Y100.069 E2.25129
G1 X99.789 Y99.931 E2.25415
G1 X99.820 Y99.870 E2.25556
G1 X99.928 Y99.790 E2.25833
G1 X100.069 Y99.789 E2.26123
G1 X100.180 Y99.870 E2.26405
G1 X100.211 Y99.931 E2.26547
G1 X100.212 Y100.063 E2.26819
G1 X100.180 Y100.130 F7800.000
G1 Z3.650 F7800.000
G1 X100.180 Y100.130 F7800.000
G1 F600
G1 X100.069 Y100.211 E2.27101
G1 X99.931 Y100.211 E2.27387
G1 X99.870 Y100.180 E2.27528
G1 X99.789 Y100.069 E2.27810
G1 X99.789 Y99.931 E2.28095
G1 X99.820 Y99.870 E2.28237
G1 X99.928 Y99.790 E2.28513
G1 X100.069 Y99.789 E2.28804
G1 X100.180 Y99.870 E2.29086
G1 X100.211 Y99.931 E2.29227
G1 X100.212 Y100.063 E2.29499
G1 X100.180 Y100.130 F7800.000
G1 Z3.950 F7800.000
G1 X100.180 Y100.130 F7800.000
G1 F600
G1 X100.069 Y100.211 E2.29782
G1 X99.931 Y100.211 E2.30067
G1 X99.870 Y100.180 E2.30208
G1 X99.789 Y100.069 E2.30490
G1 X99.789 Y99.931 E2.30776
G1 X99.820 Y99.870 E2.30917
G1 X99.928 Y99.790 E2.31193
G1 X100.069 Y99.789 E2.31484
G1 X100.180 Y99.870 E2.31766
G1 X100.211 Y99.931 E2.31907
G1 X100.212 Y100.063 E2.32180
G1 X100.180 Y100.130 F7800.000
G1 Z4.250 F7800.000
G1 X100.180 Y100.130 F7800.000
G1 F600
G1 X100.069 Y100.211 E2.32462
G1 X99.931 Y100.211 E2.32747
G1 X99.870 Y100.180 E2.32889
G1 X99.789 Y100.069 E2.33171
G1 X99.789 Y99.931 E2.33456
G1 X99.820 Y99.870 E2.33597
G1 X99.928 Y99.790 E2.33873
G1 X100.069 Y99.789 E2.34164
G1 X100.180 Y99.870 E2.34447
G1 X100.211 Y99.931 E2.34588
G1 X100.212 Y100.063 E2.34860
G1 X100.180 Y100.130 F7800.000
G1 Z4.550 F7800.000
G1 X100.180 Y100.130 F7800.000
G1 F600
G1 X100.069 Y100.211 E2.35142
G1 X99.931 Y100.211 E2.35428
G1 X99.820 Y100.130 E2.35710
G1 X99.789 Y100.069 E2.35851
G1 X99.789 Y99.931 E2.36137
G1 X99.820 Y99.870 E2.36278
G1 X99.928 Y99.791 E2.36553
G1 X100.069 Y99.789 E2.36845
G1 X100.180 Y99.870 E2.37127
G1 X100.211 Y99.931 E2.37268
G1 X100.212 Y100.063 E2.37540
G1 X100.180 Y100.130 F7800.000
G1 Z4.850 F7800.000
G1 X100.180 Y100.130 F7800.000
G1 F600
G1 X100.069 Y100.211 E2.37823
G1 X99.931 Y100.211 E2.38108
G1 X99.820 Y100.130 E2.38390
G1 X99.789 Y100.069 E2.38531
G1 X99.789 Y99.931 E2.38817
G1 X99.820 Y99.870 E2.38958
G1 X99.927 Y99.791 E2.39233
G1 X100.069 Y99.789 E2.39525
G1 X100.180 Y99.870 E2.39807
G1 X100.211 Y99.931 E2.39949
G1 X100.212 Y100.063 E2.40221
G1 X100.180 Y100.130 F7800.000
G1 Z5.150 F7800.000
G1 X100.180 Y100.130 F7800.000
G1 F600
G1 X100.069 Y100.211 E2.40503
G1 X99.931 Y100.211 E2.40788
G1 X99.820 Y100.130 E2.41071
G1 X99.789 Y100.069 E2.41212
G1 X99.789 Y99.931 E2.41497
G1 X99.820 Y99.870 E2.41638
G1 X99.927 Y99.791 E2.41913
G1 X100.069 Y99.789 E2.42205
G1 X100.180 Y99.870 E2.42488
G1 X100.211 Y99.931 E2.42629
G1 X100.212 Y100.063 E2.42901
G1 X100.180 Y100.130 F7800.000
G1 Z5.450 F7800.000
G1 X100.180 Y100.130 F7800.000
G1 F600
G1 X100.069 Y100.211 E2.43183
G1 X99.931 Y100.211 E2.43469
G1 X99.820 Y100.130 E2.43751
G1 X99.789 Y100.069 E2.43892
G1 X99.789 Y99.931 E2.44178
G1 X99.820 Y99.870 E2.44319
G1 X99.927 Y99.791 E2.44593
G1 X100.069 Y99.789 E2.44886
G1 X100.180 Y99.870 E2.45168
G1 X100.211 Y99.931 E2.45309
G1 X100.212 Y100.063 E2.45581
G1 X100.180 Y100.130 F7800.000
G1 Z5.750 F7800.000
G1 X100.180 Y100.130 F7800.000
G1 F600
G1 X100.069 Y100.211 E2.45863
G1 X99.931 Y100.211 E2.46149
G1 X99.870 Y100.180 E2.46290
G1 X99.789 Y100.069 E2.46572
G1 X99.789 Y99.931 E2.46858
G1 X99.820 Y99.870 E2.46999
G1 X99.927 Y99.791 E2.47272
G1 X100.069 Y99.789 E2.47566
G1 X100.180 Y99.870 E2.47848
G1 X100.211 Y99.931 E2.47989
G1 X100.212 Y100.063 E2.48261
G1 X100.180 Y100.130 F7800.000
G1 Z6.050 F7800.000
G1 X100.180 Y100.130 F7800.000
G1 F600
G1 X100.069 Y100.211 E2.48544
G1 X99.931 Y100.211 E2.48829
G1 X99.870 Y100.180 E2.48970
G1 X99.789 Y100.069 E2.49252
G1 X99.789 Y99.931 E2.49538
G1 X99.820 Y99.870 E2.49679
G1 X99.927 Y99.791 E2.49952
G1 X100.069 Y99.789 E2.50246
G1 X100.180 Y99.870 E2.50528
G1 X100.211 Y99.931 E2.50669
G1 X100.212 Y100.063 E2.50942
G1 X100.180 Y100.130 F7800.000
G1 Z6.350 F7800.000
G1 X100.180 Y100.130 F7800.000
G1 F600
G1 X100.069 Y100.211 E2.51224
G1 X99.931 Y100.211 E2.51509
G1 X99.820 Y100.130 E2.51791
G1 X99.789 Y100.069 E2.51933
G1 X99.789 Y99.931 E2.52218
G1 X99.820 Y99.870 E2.52359
G1 X99.927 Y99.791 E2.52632
G1 X100.069 Y99.789 E2.52926
G1 X100.180 Y99.870 E2.53208
G1 X100.211 Y99.931 E2.53349
G1 X100.212 Y100.063 E2.53622
G1 X100.180 Y100.130 F7800.000
G1 Z6.650 F7800.000
G1 X100.180 Y100.130 F7800.000
G1 F600
G1 X100.069 Y100.211 E2.53904
G1 X99.931 Y100.211 E2.54189
G1 X99.820 Y100.130 E2.54472
G1 X99.789 Y100.069 E2.54613
G1 X99.789 Y99.931 E2.54898
G1 X99.820 Y99.870 E2.55039
G1 X99.926 Y99.791 E2.55311
G1 X100.069 Y99.789 E2.55606
G1 X100.180 Y99.870 E2.55888
G1 X100.211 Y99.931 E2.56029
G1 X100.212 Y100.063 E2.56302
G1 X100.180 Y100.130 F7800.000
G1 Z6.950 F7800.000
G1 X100.180 Y100.130 F7800.000
G1 F600
G1 X100.069 Y100.211 E2.56584
G1 X99.931 Y100.211 E2.56869
G1 X99.820 Y100.130 E2.57152
G1 X99.789 Y100.069 E2.57293
G1 X99.789 Y99.931 E2.57578
G1 X99.820 Y99.870 E2.57719
G1 X99.926 Y99.791 E2.57991
G1 X100.069 Y99.789 E2.58286
G1 X100.180 Y99.870 E2.58568
G1 X100.211 Y99.931 E2.58709
G1 X100.212 Y100.063 E2.58982
G1 X100.180 Y100.130 F7800.000
G1 Z7.250 F7800.000
G1 X100.180 Y100.130 F7800.000
G1 F600
G1 X100.069 Y100.211 E2.59264
G1 X99.931 Y100.211 E2.59549
G1 X99.820 Y100.130 E2.59832
G1 X99.789 Y100.069 E2.59973
G1 X99.789 Y99.931 E2.60258
G1 X99.820 Y99.870 E2.60399
G1 X99.926 Y99.791 E2.60671
G1 X100.069 Y99.789 E2.60966
G1 X100.180 Y99.870 E2.61248
G1 X100.211 Y99.931 E2.61389
G1 X100.212 Y100.063 E2.61662
G1 X100.180 Y100.130 F7800.000
G1 Z7.550 F7800.000
G1 X100.180 Y100.130 F7800.000
G1 F600
G1 X100.069 Y100.211 E2.61944
G1 X99.931 Y100.211 E2.62229
G1 X99.870 Y100.180 E2.62371
G1 X99.789 Y100.069 E2.62653
G1 X99.789 Y99.931 E2.62938
G1 X99.820 Y99.870 E2.63079
G1 X99.926 Y99.792 E2.63350
G1 X100.069 Y99.789 E2.63646
G1 X100.180 Y99.870 E2.63928
G1 X100.211 Y99.931 E2.64069
G1 X100.212 Y100.063 E2.64342
G1 X100.180 Y100.130 F7800.000
G1 Z7.850 F7800.000
G1 X100.180 Y100.130 F7800.000
G1 F600
G1 X100.069 Y100.211 E2.64624
G1 X99.931 Y100.211 E2.64909
G1 X99.820 Y100.130 E2.65192
G1 X99.789 Y100.069 E2.65333
G1 X99.789 Y99.931 E2.65618
G1 X99.820 Y99.870 E2.65759
G1 X99.926 Y99.792 E2.66030
G1 X100.069 Y99.789 E2.66326
G1 X100.180 Y99.870 E2.66608
G1 X100.211 Y99.931 E2.66749
G1 X100.212 Y100.063 E2.67022
G1 X100.180 Y100.130 F7800.000
G1 Z8.150 F7800.000
G1 X100.180 Y100.130 F7800.000
G1 F600
G1 X100.069 Y100.211 E2.67304
G1 X99.931 Y100.211 E2.67589
G1 X99.870 Y100.180 E2.67730
G1 X99.789 Y100.069 E2.68013
G1 X99.789 Y99.931 E2.68298
G1 X99.820 Y99.870 E2.68439
G1 X99.925 Y99.792 E2.68709
G1 X100.069 Y99.789 E2.69006
G1 X100.180 Y99.870 E2.69288
G1 X100.211 Y99.931 E2.69429
G1 X100.212 Y100.063 E2.69701
G1 X100.180 Y100.130 F7800.000
G1 Z8.450 F7800.000
G1 X100.180 Y100.130 F7800.000
G1 F600
G1 X100.069 Y100.211 E2.69984
G1 X99.931 Y100.211 E2.70269
G1 X99.870 Y100.180 E2.70410
G1 X99.789 Y100.069 E2.70693
G1 X99.789 Y99.931 E2.70978
G1 X99.820 Y99.870 E2.71119
G1 X99.925 Y99.792 E2.71389
G1 X100.069 Y99.789 E2.71686
G1 X100.180 Y99.870 E2.71968
G1 X100.211 Y99.931 E2.72109
G1 X100.212 Y100.063 E2.72381
G1 X100.180 Y100.130 F7800.000
G1 Z8.750 F7800.000
G1 X100.180 Y100.130 F7800.000
G1 F600
G1 X100.069 Y100.211 E2.72664
G1 X99.931 Y100.211 E2.72949
G1 X99.870 Y100.180 E2.73090
G1 X99.789 Y100.069 E2.73372
G1 X99.789 Y99.931 E2.73658
G1 X99.820 Y99.870 E2.73799
G1 X99.925 Y99.792 E2.74068
G1 X100.069 Y99.789 E2.74366
G1 X100.180 Y99.870 E2.74648
G1 X100.211 Y99.931 E2.74789
G1 X100.212 Y100.063 E2.75061
G1 X100.180 Y100.130 F7800.000
G1 Z9.050 F7800.000
G1 X100.180 Y100.130 F7800.000
G1 F600
G1 X100.069 Y100.211 E2.75343
G1 X99.931 Y100.211 E2.75629
G1 X99.820 Y100.130 E2.75911
G1 X99.789 Y100.069 E2.76052
G1 X99.789 Y99.931 E2.76338
G1 X99.820 Y99.870 E2.76479
G1 X99.925 Y99.792 E2.76748
G1 X100.069 Y99.789 E2.77045
G1 X100.180 Y99.870 E2.77328
G1 X100.211 Y99.931 E2.77469
G1 X100.212 Y100.063 E2.77741
G1 X100.180 Y100.130 F7800.000
G1 Z9.350 F7800.000
G1 X100.180 Y100.130 F7800.000
G1 F600
G1 X100.069 Y100.211 E2.78023
G1 X99.931 Y100.211 E2.78309
G1 X99.820 Y100.130 E2.78591
G1 X99.789 Y100.069 E2.78732
G1 X99.789 Y99.931 E2.79017
G1 X99.820 Y99.870 E2.79159
G1 X99.925 Y99.792 E2.79427
G1 X100.069 Y99.789 E2.79725
G1 X100.180 Y99.870 E2.80007
G1 X100.211 Y99.931 E2.80148
G1 X100.212 Y100.063 E2.80421
G1 X100.180 Y100.130 F7800.000
G1 Z9.650 F7800.000
G1 X100.180 Y100.130 F7800.000
G1 F600
G1 X100.069 Y100.211 E2.80703
G1 X99.931 Y100.211 E2.80988
G1 X99.870 Y100.180 E2.81129
G1 X99.789 Y100.069 E2.81412
G1 X99.789 Y99.931 E2.81697
G1 X99.820 Y99.870 E2.81838
G1 X99.925 Y99.792 E2.82107
G1 X100.069 Y99.789 E2.82405
G1 X100.180 Y99.870 E2.82687
G1 X100.211 Y99.931 E2.82828
G1 X100.212 Y100.063 E2.83100
G1 X100.180 Y100.130 F7800.000
G1 Z9.950 F7800.000
G1 X100.180 Y100.130 F7800.000
G1 F600
G1 X100.069 Y100.211 E2.83383
G1 X99.931 Y100.211 E2.83668
G1 X99.870 Y100.180 E2.83809
G1 X99.789 Y100.069 E2.84091
G1 X99.789 Y99.931 E2.84377
G1 X99.820 Y99.870 E2.84518
G1 X99.924 Y99.792 E2.84786
G1 X100.069 Y99.789 E2.85084
G1 X100.180 Y99.870 E2.85367
G1 X100.211 Y99.931 E2.85508
G1 X100.212 Y100.063 E2.85780
G1 X100.180 Y100.130 F7800.000
G1 Z10.250 F7800.000
G1 X100.180 Y100.130 F7800.000
G1 F600
G1 X100.069 Y100.211 E2.86062
G1 X99.931 Y100.211 E2.86348
G1 X99.820 Y100.130 E2.86630
G1 X99.789 Y100.069 E2.86771
G1 X99.789 Y99.931 E2.87057
G1 X99.820 Y99.870 E2.87198
G1 X99.924 Y99.792 E2.87465
G1 X100.069 Y99.789 E2.87764
G1 X100.180 Y99.870 E2.88046
G1 X100.211 Y99.931 E2.88187
G1 X100.212 Y100.063 E2.88460
G1 X100.180 Y100.130 F7800.000
G1 Z10.550 F7800.000
G1 X100.180 Y100.130 F7800.000
G1 F600
G1 X100.069 Y100.211 E2.88742
G1 X99.931 Y100.211 E2.89027
G1 X99.820 Y100.130 E2.89310
G1 X99.789 Y100.069 E2.89451
G1 X99.789 Y99.931 E2.89736
G1 X99.820 Y99.870 E2.89877
G1 X99.924 Y99.792 E2.90145
G1 X100.069 Y99.789 E2.90444
G1 X100.180 Y99.870 E2.90726
G1 X100.211 Y99.931 E2.90867
G1 X100.212 Y100.063 E2.91139
G1 X100.180 Y100.130 F7800.000
G1 Z10.850 F7800.000
G1 X100.180 Y100.130 F7800.000
G1 F600
G1 X100.069 Y100.211 E2.91422
