;FLAVOR:Marlin
;TIME:3048
;Filament used: 3.77057m
;Layer height: 0.6
;MINX:2.06
;MINY:-41.5
;MINZ:0.6
;MAXX:35.06
;MAXY:41.5
;MAXZ:19.8
;TARGET_MACHINE.NAME:Unknown
;Generated with Cura_SteamEngine 5.10.1
M104 S210
M105
M109 S210
G28 ;Home
;Prime the extruder
G0 F1200 X20 Y60 Z50
G1 F200 E3
G92 E0
;Set feedrate percentage
M220 S70
M82 ;absolute extrusion mode
G1 F900 E-3
;LAYER_COUNT:33
;LAYER:0
M107
;MESH:square_tube.obj
G0 F600 X33.734 Y41.496 Z0.6
;TYPE:WALL-OUTER
G1 F900 E0
G1 F298.2 X18.647 Y41.498 E3.78605
G1 F299.4 X3.56 Y41.5 E7.55704
G1 F276.2 X2.732 Y41.414 E7.78256
G1 F256.2 X2.146 Y41.414 E7.95373
G1 X2.146 Y40.828 E8.12491
G1 F275.2 X2.064 Y40.174 E8.30412
G1 F297.9 X2.063 Y20.13 E13.33912
G1 F298.5 X2.062 Y0.086 E18.36412
G1 F299.1 X2.061 Y-19.958 E23.37911
G1 F299.7 X2.06 Y-40.002 E28.38411
G1 F276.2 X2.146 Y-40.828 E28.60908
G1 F256.2 X2.146 Y-41.414 E28.78026
G1 X2.732 Y-41.414 E28.95143
G1 F275.2 X3.386 Y-41.496 E29.13065
G1 F298.2 X18.473 Y-41.498 E32.9167
G1 F299.4 X33.56 Y-41.5 E36.68769
G1 F276.2 X34.388 Y-41.414 E36.91321
G1 F256 X34.974 Y-41.414 E37.08453
G1 X34.974 Y-40.828 E37.25585
G1 F276.2 X35.06 Y-40 E37.48136
G1 F299.7 X35.059 Y-13.275 E44.15461
G1 F298.8 X35.058 Y13.45 E50.84785
G1 F298.2 X35.057 Y40.175 E57.55443
G1 F275.2 X34.974 Y40.828 E57.73341
G1 F256 X34.974 Y41.414 E57.90473
G1 X34.388 Y41.414 E58.07605
G1 F275.2 X33.734 Y41.496 E58.25527
G0 F600 X33.234 Y41.496
G0 X33.974 Y40.414
G1 F275.2 X34.057 Y40.087 E58.347
G1 F298.2 X34.058 Y13.391 E65.0463
G1 F298.8 X34.059 Y-13.305 E71.73228
G1 F299.7 X34.06 Y-40.001 E78.39829
G1 F276.2 X33.974 Y-40.414 E78.51257
G1 X33.56 Y-40.5 E78.62712
G1 F299.4 X18.516 Y-40.498 E82.38736
G1 F298.2 X3.472 Y-40.497 E86.16262
G1 F275.2 X3.146 Y-40.414 E86.25409
G1 F276.2 X3.06 Y-40 E86.36864
G1 F299.7 X3.061 Y-19.978 E91.36814
G1 F299.1 X3.062 Y0.044 E96.37763
G1 F298.5 X3.062 Y20.066 E101.39711
G1 F297.9 X3.063 Y40.088 E106.42658
G1 F275.2 X3.146 Y40.414 E106.51805
G1 F276.2 X3.56 Y40.5 E106.6326
G1 F299.4 X18.604 Y40.498 E110.39285
G1 F298.2 X33.648 Y40.497 E114.1681
G1 F275.2 X33.974 Y40.414 E114.25957
G0 F600 X34.057 Y40.087
G0 X34.057 Y39.924
;MESH:NONMESH
G0 F360 X34.057 Y39.924 Z1.2
G0 F600 X33.734 Y41.496
;TIME_ELAPSED:99.607997
;LAYER:1
M106 S255
;TYPE:WALL-OUTER
;MESH:square_tube.obj
G1 F298.2 X18.647 Y41.498 E118.04562
G1 F299.4 X3.56 Y41.5 E121.81661
G1 F276.2 X2.732 Y41.414 E122.04213
G1 F256.2 X2.146 Y41.414 E122.2133
G1 X2.146 Y40.828 E122.38448
G1 F275.2 X2.064 Y40.174 E122.56369
G1 F297.9 X2.063 Y20.13 E127.59869
G1 F298.5 X2.062 Y0.086 E132.62369
G1 F299.1 X2.061 Y-19.958 E137.63868
G1 F299.7 X2.06 Y-40.002 E142.64368
G1 F276.2 X2.146 Y-40.828 E142.86865
G1 F256.2 X2.146 Y-41.414 E143.03983
G1 X2.732 Y-41.414 E143.211
G1 F275.2 X3.386 Y-41.496 E143.39022
G1 F298.2 X18.473 Y-41.498 E147.17627
G1 F299.4 X33.56 Y-41.5 E150.94726
G1 F276.2 X34.388 Y-41.414 E151.17278
G1 F256 X34.974 Y-41.414 E151.3441
G1 X34.974 Y-40.828 E151.51542
G1 F276.2 X35.06 Y-40 E151.74093
G1 F299.7 X35.059 Y-13.275 E158.41418
G1 F298.8 X35.058 Y13.45 E165.10742
G1 F298.2 X35.057 Y40.175 E171.814
G1 F275.2 X34.974 Y40.828 E171.99298
G1 F256 X34.974 Y41.414 E172.1643
G1 X34.388 Y41.414 E172.33562
G1 F275.2 X33.734 Y41.496 E172.51484
G0 F600 X33.234 Y41.496
G0 X33.974 Y40.414
G1 F275.2 X34.057 Y40.087 E172.60657
G1 F298.2 X34.058 Y13.391 E179.30587
G1 F298.8 X34.059 Y-13.305 E185.99185
G1 F299.7 X34.06 Y-40.001 E192.65786
G1 F276.2 X33.974 Y-40.414 E192.77214
G1 X33.56 Y-40.5 E192.88669
G1 F299.4 X18.516 Y-40.498 E196.64693
G1 F298.2 X3.472 Y-40.497 E200.42219
G1 F275.2 X3.146 Y-40.414 E200.51366
G1 F276.2 X3.06 Y-40 E200.62821
G1 F299.7 X3.061 Y-19.978 E205.62771
G1 F299.1 X3.062 Y0.044 E210.6372
G1 F298.5 X3.062 Y20.066 E215.65668
G1 F297.9 X3.063 Y40.088 E220.68615
G1 F275.2 X3.146 Y40.414 E220.77762
G1 F276.2 X3.56 Y40.5 E220.89217
G1 F299.4 X18.604 Y40.498 E224.65242
G1 F298.2 X33.648 Y40.497 E228.42767
G1 F275.2 X33.974 Y40.414 E228.51914
G0 F600 X34.057 Y40.087
G0 X34.057 Y39.924
;MESH:NONMESH
G0 F360 X34.057 Y39.924 Z1.8
G0 F600 X33.734 Y41.496
;TIME_ELAPSED:191.762920
;LAYER:2
;TYPE:WALL-OUTER
;MESH:square_tube.obj
G1 F298.2 X18.647 Y41.498 E232.30519
G1 F299.4 X3.56 Y41.5 E236.07618
G1 F276.2 X2.732 Y41.414 E236.3017
G1 F256.2 X2.146 Y41.414 E236.47287
G1 X2.146 Y40.828 E236.64405
G1 F275.2 X2.064 Y40.174 E236.82326
G1 F297.9 X2.063 Y20.13 E241.85826
G1 F298.5 X2.062 Y0.086 E246.88326
G1 F299.1 X2.061 Y-19.958 E251.89825
G1 F299.7 X2.06 Y-40.002 E256.90325
G1 F276.2 X2.146 Y-40.828 E257.12822
G1 F256.2 X2.146 Y-41.414 E257.2994
G1 X2.732 Y-41.414 E257.47057
G1 F275.2 X3.386 Y-41.496 E257.64979
G1 F298.2 X18.473 Y-41.498 E261.43584
G1 F299.4 X33.56 Y-41.5 E265.20683
G1 F276.2 X34.388 Y-41.414 E265.43235
G1 F256 X34.974 Y-41.414 E265.60367
G1 X34.974 Y-40.828 E265.77499
G1 F276.2 X35.06 Y-40 E266.0005
G1 F299.7 X35.059 Y-13.275 E272.67375
G1 F298.8 X35.058 Y13.45 E279.36699
G1 F298.2 X35.057 Y40.175 E286.07357
G1 F275.2 X34.974 Y40.828 E286.25255
G1 F256 X34.974 Y41.414 E286.42387
G1 X34.388 Y41.414 E286.59519
G1 F275.2 X33.734 Y41.496 E286.77441
G0 F600 X33.234 Y41.496
G0 X33.974 Y40.414
G1 F275.2 X34.057 Y40.087 E286.86614
G1 F298.2 X34.058 Y13.391 E293.56544
G1 F298.8 X34.059 Y-13.305 E300.25142
G1 F299.7 X34.06 Y-40.001 E306.91743
G1 F276.2 X33.974 Y-40.414 E307.03171
G1 X33.56 Y-40.5 E307.14626
G1 F299.4 X18.516 Y-40.498 E310.90651
G1 F298.2 X3.472 Y-40.497 E314.68176
G1 F275.2 X3.146 Y-40.414 E314.77323
G1 F276.2 X3.06 Y-40 E314.88778
G1 F299.7 X3.061 Y-19.978 E319.88728
G1 F299.1 X3.062 Y0.044 E324.89677
G1 F298.5 X3.062 Y20.066 E329.91625
G1 F297.9 X3.063 Y40.088 E334.94572
G1 F275.2 X3.146 Y40.414 E335.03719
G1 F276.2 X3.56 Y40.5 E335.15174
G1 F299.4 X18.604 Y40.498 E338.91199
G1 F298.2 X33.648 Y40.497 E342.68724
G1 F275.2 X33.974 Y40.414 E342.77871
G0 F600 X34.057 Y40.087
G0 X34.057 Y39.924
;MESH:NONMESH
G0 F360 X34.057 Y39.924 Z2.4
G0 F600 X33.734 Y41.496
;TIME_ELAPSED:283.917844
;LAYER:3
;TYPE:WALL-OUTER
;MESH:square_tube.obj
G1 F298.2 X18.647 Y41.498 E346.56476
G1 F299.4 X3.56 Y41.5 E350.33575
G1 F276.2 X2.732 Y41.414 E350.56127
G1 F256.2 X2.146 Y41.414 E350.73244
G1 X2.146 Y40.828 E350.90362
G1 F275.2 X2.064 Y40.174 E351.08283
G1 F297.9 X2.063 Y20.13 E356.11783
G1 F298.5 X2.062 Y0.086 E361.14283
G1 F299.1 X2.061 Y-19.958 E366.15782
G1 F299.7 X2.06 Y-40.002 E371.16282
G1 F276.2 X2.146 Y-40.828 E371.3878
G1 F256.2 X2.146 Y-41.414 E371.55897
G1 X2.732 Y-41.414 E371.73014
G1 F275.2 X3.386 Y-41.496 E371.90936
G1 F298.2 X18.473 Y-41.498 E375.69541
G1 F299.4 X33.56 Y-41.5 E379.4664
G1 F276.2 X34.388 Y-41.414 E379.69192
G1 F256 X34.974 Y-41.414 E379.86324
G1 X34.974 Y-40.828 E380.03456
G1 F276.2 X35.06 Y-40 E380.26008
G1 F299.7 X35.059 Y-13.275 E386.93332
G1 F298.8 X35.058 Y13.45 E393.62657
G1 F298.2 X35.057 Y40.175 E400.33314
G1 F275.2 X34.974 Y40.828 E400.51212
G1 F256 X34.974 Y41.414 E400.68344
G1 X34.388 Y41.414 E400.85477
G1 F275.2 X33.734 Y41.496 E401.03398
G0 F600 X33.234 Y41.496
G0 X33.974 Y40.414
G1 F275.2 X34.057 Y40.087 E401.12571
G1 F298.2 X34.058 Y13.391 E407.82501
G1 F298.8 X34.059 Y-13.305 E414.51099
G1 F299.7 X34.06 Y-40.001 E421.177
G1 F276.2 X33.974 Y-40.414 E421.29128
G1 X33.56 Y-40.5 E421.40583
G1 F299.4 X18.516 Y-40.498 E425.16608
G1 F298.2 X3.472 Y-40.497 E428.94133
G1 F275.2 X3.146 Y-40.414 E429.0328
G1 F276.2 X3.06 Y-40 E429.14735
G1 F299.7 X3.061 Y-19.978 E434.14685
G1 F299.1 X3.062 Y0.044 E439.15634
G1 F298.5 X3.062 Y20.066 E444.17582
G1 F297.9 X3.063 Y40.088 E449.20529
G1 F275.2 X3.146 Y40.414 E449.29676
G1 F276.2 X3.56 Y40.5 E449.41131
G1 F299.4 X18.604 Y40.498 E453.17156
G1 F298.2 X33.648 Y40.497 E456.94681
G1 F275.2 X33.974 Y40.414 E457.03828
G0 F600 X34.057 Y40.087
G0 X34.057 Y39.924
;MESH:NONMESH
G0 F360 X34.057 Y39.924 Z3
G0 F600 X33.734 Y41.496
;TIME_ELAPSED:376.072767
;LAYER:4
;TYPE:WALL-OUTER
;MESH:square_tube.obj
G1 F298.2 X18.647 Y41.498 E460.82433
G1 F299.4 X3.56 Y41.5 E464.59533
G1 F276.2 X2.732 Y41.414 E464.82084
G1 F256.2 X2.146 Y41.414 E464.99201
G1 X2.146 Y40.828 E465.16319
G1 F275.2 X2.064 Y40.174 E465.34241
G1 F297.9 X2.063 Y20.13 E470.3774
G1 F298.5 X2.062 Y0.086 E475.4024
G1 F299.1 X2.061 Y-19.958 E480.41739
G1 F299.7 X2.06 Y-40.002 E485.42239
G1 F276.2 X2.146 Y-40.828 E485.64737
G1 F256.2 X2.146 Y-41.414 E485.81854
G1 X2.732 Y-41.414 E485.98972
G1 F275.2 X3.386 Y-41.496 E486.16893
G1 F298.2 X18.473 Y-41.498 E489.95498
G1 F299.4 X33.56 Y-41.5 E493.72597
G1 F276.2 X34.388 Y-41.414 E493.95149
G1 F256 X34.974 Y-41.414 E494.12281
G1 X34.974 Y-40.828 E494.29413
G1 F276.2 X35.06 Y-40 E494.51965
G1 F299.7 X35.059 Y-13.275 E501.19289
G1 F298.8 X35.058 Y13.45 E507.88614
G1 F298.2 X35.057 Y40.175 E514.59271
G1 F275.2 X34.974 Y40.828 E514.77169
G1 F256 X34.974 Y41.414 E514.94301
G1 X34.388 Y41.414 E515.11434
G1 F275.2 X33.734 Y41.496 E515.29355
G0 F600 X33.234 Y41.496
G0 X33.974 Y40.414
G1 F275.2 X34.057 Y40.087 E515.38528
G1 F298.2 X34.058 Y13.391 E522.08458
G1 F298.8 X34.059 Y-13.305 E528.77056
G1 F299.7 X34.06 Y-40.001 E535.43657
G1 F276.2 X33.974 Y-40.414 E535.55085
G1 X33.56 Y-40.5 E535.6654
G1 F299.4 X18.516 Y-40.498 E539.42565
G1 F298.2 X3.472 Y-40.497 E543.2009
G1 F275.2 X3.146 Y-40.414 E543.29237
G1 F276.2 X3.06 Y-40 E543.40692
G1 F299.7 X3.061 Y-19.978 E548.40642
G1 F299.1 X3.062 Y0.044 E553.41591
G1 F298.5 X3.062 Y20.066 E558.4354
G1 F297.9 X3.063 Y40.088 E563.46487
G1 F275.2 X3.146 Y40.414 E563.55633
G1 F276.2 X3.56 Y40.5 E563.67088
G1 F299.4 X18.604 Y40.498 E567.43113
G1 F298.2 X33.648 Y40.497 E571.20639
G1 F275.2 X33.974 Y40.414 E571.29785
G0 F600 X34.057 Y40.087
G0 X34.057 Y39.924
;MESH:NONMESH
G0 F360 X34.057 Y39.924 Z3.6
G0 F600 X33.734 Y41.496
;TIME_ELAPSED:468.227691
;LAYER:5
;TYPE:WALL-OUTER
;MESH:square_tube.obj
G1 F298.2 X18.647 Y41.498 E575.0839
G1 F299.4 X3.56 Y41.5 E578.8549
G1 F276.2 X2.732 Y41.414 E579.08041
G1 F256.2 X2.146 Y41.414 E579.25159
G1 X2.146 Y40.828 E579.42276
G1 F275.2 X2.064 Y40.174 E579.60198
G1 F297.9 X2.063 Y20.13 E584.63697
G1 F298.5 X2.062 Y0.086 E589.66197
G1 F299.1 X2.061 Y-19.958 E594.67696
G1 F299.7 X2.06 Y-40.002 E599.68196
G1 F276.2 X2.146 Y-40.828 E599.90694
G1 F256.2 X2.146 Y-41.414 E600.07811
G1 X2.732 Y-41.414 E600.24929
G1 F275.2 X3.386 Y-41.496 E600.4285
G1 F298.2 X18.473 Y-41.498 E604.21455
G1 F299.4 X33.56 Y-41.5 E607.98554
G1 F276.2 X34.388 Y-41.414 E608.21106
G1 F256 X34.974 Y-41.414 E608.38238
G1 X34.974 Y-40.828 E608.5537
G1 F276.2 X35.06 Y-40 E608.77922
G1 F299.7 X35.059 Y-13.275 E615.45246
G1 F298.8 X35.058 Y13.45 E622.14571
G1 F298.2 X35.057 Y40.175 E628.85228
G1 F275.2 X34.974 Y40.828 E629.03126
G1 F256 X34.974 Y41.414 E629.20259
G1 X34.388 Y41.414 E629.37391
G1 F275.2 X33.734 Y41.496 E629.55312
G0 F600 X33.234 Y41.496
G0 X33.974 Y40.414
G1 F275.2 X34.057 Y40.087 E629.64485
G1 F298.2 X34.058 Y13.391 E636.34415
G1 F298.8 X34.059 Y-13.305 E643.03014
G1 F299.7 X34.06 Y-40.001 E649.69614
G1 F276.2 X33.974 Y-40.414 E649.81042
G1 X33.56 Y-40.5 E649.92497
G1 F299.4 X18.516 Y-40.498 E653.68522
G1 F298.2 X3.472 Y-40.497 E657.46047
G1 F275.2 X3.146 Y-40.414 E657.55194
G1 F276.2 X3.06 Y-40 E657.66649
G1 F299.7 X3.061 Y-19.978 E662.66599
G1 F299.1 X3.062 Y0.044 E667.67549
G1 F298.5 X3.062 Y20.066 E672.69497
G1 F297.9 X3.063 Y40.088 E677.72444
G1 F275.2 X3.146 Y40.414 E677.8159
G1 F276.2 X3.56 Y40.5 E677.93045
G1 F299.4 X18.604 Y40.498 E681.6907
G1 F298.2 X33.648 Y40.497 E685.46596
G1 F275.2 X33.974 Y40.414 E685.55742
G0 F600 X34.057 Y40.087
G0 X34.057 Y39.924
;MESH:NONMESH
G0 F360 X34.057 Y39.924 Z4.2
G0 F600 X33.734 Y41.496
;TIME_ELAPSED:560.382615
;LAYER:6
;TYPE:WALL-OUTER
;MESH:square_tube.obj
G1 F298.2 X18.647 Y41.498 E689.34347
G1 F299.4 X3.56 Y41.5 E693.11447
G1 F276.2 X2.732 Y41.414 E693.33998
G1 F256.2 X2.146 Y41.414 E693.51116
G1 X2.146 Y40.828 E693.68233
G1 F275.2 X2.064 Y40.174 E693.86155
G1 F297.9 X2.063 Y20.13 E698.89654
G1 F298.5 X2.062 Y0.086 E703.92154
G1 F299.1 X2.061 Y-19.958 E708.93653
G1 F299.7 X2.06 Y-40.002 E713.94153
G1 F276.2 X2.146 Y-40.828 E714.16651
G1 F256.2 X2.146 Y-41.414 E714.33768
G1 X2.732 Y-41.414 E714.50886
G1 F275.2 X3.386 Y-41.496 E714.68807
G1 F298.2 X18.473 Y-41.498 E718.47412
G1 F299.4 X33.56 Y-41.5 E722.24512
G1 F276.2 X34.388 Y-41.414 E722.47063
G1 F256 X34.974 Y-41.414 E722.64195
G1 X34.974 Y-40.828 E722.81327
G1 F276.2 X35.06 Y-40 E723.03879
G1 F299.7 X35.059 Y-13.275 E729.71203
G1 F298.8 X35.058 Y13.45 E736.40528
G1 F298.2 X35.057 Y40.175 E743.11185
G1 F275.2 X34.974 Y40.828 E743.29083
G1 F256 X34.974 Y41.414 E743.46216
G1 X34.388 Y41.414 E743.63348
G1 F275.2 X33.734 Y41.496 E743.81269
G0 F600 X33.234 Y41.496
G0 X33.974 Y40.414
G1 F275.2 X34.057 Y40.087 E743.90442
G1 F298.2 X34.058 Y13.391 E750.60372
G1 F298.8 X34.059 Y-13.305 E757.28971
G1 F299.7 X34.06 Y-40.001 E763.95571
G1 F276.2 X33.974 Y-40.414 E764.06999
G1 X33.56 Y-40.5 E764.18454
G1 F299.4 X18.516 Y-40.498 E767.94479
G1 F298.2 X3.472 Y-40.497 E771.72005
G1 F275.2 X3.146 Y-40.414 E771.81151
G1 F276.2 X3.06 Y-40 E771.92606
G1 F299.7 X3.061 Y-19.978 E776.92556
G1 F299.1 X3.062 Y0.044 E781.93506
G1 F298.5 X3.062 Y20.066 E786.95454
G1 F297.9 X3.063 Y40.088 E791.98401
G1 F275.2 X3.146 Y40.414 E792.07547
G1 F276.2 X3.56 Y40.5 E792.19002
G1 F299.4 X18.604 Y40.498 E795.95027
G1 F298.2 X33.648 Y40.497 E799.72553
G1 F275.2 X33.974 Y40.414 E799.81699
G0 F600 X34.057 Y40.087
G0 X34.057 Y39.924
;MESH:NONMESH
G0 F360 X34.057 Y39.924 Z4.8
G0 F600 X33.734 Y41.496
;TIME_ELAPSED:652.537538
;LAYER:7
;TYPE:WALL-OUTER
;MESH:square_tube.obj
G1 F298.2 X18.647 Y41.498 E803.60304
G1 F299.4 X3.56 Y41.5 E807.37404
G1 F276.2 X2.732 Y41.414 E807.59955
G1 F256.2 X2.146 Y41.414 E807.77073
G1 X2.146 Y40.828 E807.9419
G1 F275.2 X2.064 Y40.174 E808.12112
G1 F297.9 X2.063 Y20.13 E813.15611
G1 F298.5 X2.062 Y0.086 E818.18111
G1 F299.1 X2.061 Y-19.958 E823.19611
G1 F299.7 X2.06 Y-40.002 E828.2011
G1 F276.2 X2.146 Y-40.828 E828.42608
G1 F256.2 X2.146 Y-41.414 E828.59725
G1 X2.732 Y-41.414 E828.76843
G1 F275.2 X3.386 Y-41.496 E828.94764
G1 F298.2 X18.473 Y-41.498 E832.73369
G1 F299.4 X33.56 Y-41.5 E836.50469
G1 F276.2 X34.388 Y-41.414 E836.7302
G1 F256 X34.974 Y-41.414 E836.90152
G1 X34.974 Y-40.828 E837.07284
G1 F276.2 X35.06 Y-40 E837.29836
G1 F299.7 X35.059 Y-13.275 E843.9716
G1 F298.8 X35.058 Y13.45 E850.66485
G1 F298.2 X35.057 Y40.175 E857.37143
G1 F275.2 X34.974 Y40.828 E857.55041
G1 F256 X34.974 Y41.414 E857.72173
G1 X34.388 Y41.414 E857.89305
G1 F275.2 X33.734 Y41.496 E858.07226
G0 F600 X33.234 Y41.496
G0 X33.974 Y40.414
G1 F275.2 X34.057 Y40.087 E858.16399
G1 F298.2 X34.058 Y13.391 E864.86329
G1 F298.8 X34.059 Y-13.305 E871.54928
G1 F299.7 X34.06 Y-40.001 E878.21528
G1 F276.2 X33.974 Y-40.414 E878.32956
G1 X33.56 Y-40.5 E878.44411
G1 F299.4 X18.516 Y-40.498 E882.20436
G1 F298.2 X3.472 Y-40.497 E885.97962
G1 F275.2 X3.146 Y-40.414 E886.07108
G1 F276.2 X3.06 Y-40 E886.18563
G1 F299.7 X3.061 Y-19.978 E891.18513
G1 F299.1 X3.062 Y0.044 E896.19463
G1 F298.5 X3.062 Y20.066 E901.21411
G1 F297.9 X3.063 Y40.088 E906.24358
G1 F275.2 X3.146 Y40.414 E906.33504
G1 F276.2 X3.56 Y40.5 E906.44959
G1 F299.4 X18.604 Y40.498 E910.20984
G1 F298.2 X33.648 Y40.497 E913.9851
G1 F275.2 X33.974 Y40.414 E914.07656
G0 F600 X34.057 Y40.087
G0 X34.057 Y39.924
;MESH:NONMESH
G0 F360 X34.057 Y39.924 Z5.4
G0 F600 X33.734 Y41.496
;TIME_ELAPSED:744.692462
;LAYER:8
;TYPE:WALL-OUTER
;MESH:square_tube.obj
G1 F298.2 X18.647 Y41.498 E917.86261
G1 F299.4 X3.56 Y41.5 E921.63361
G1 F276.2 X2.732 Y41.414 E921.85912
G1 F256.2 X2.146 Y41.414 E922.0303
G1 X2.146 Y40.828 E922.20147
G1 F275.2 X2.064 Y40.174 E922.38069
G1 F297.9 X2.063 Y20.13 E927.41568
G1 F298.5 X2.062 Y0.086 E932.44068
G1 F299.1 X2.061 Y-19.958 E937.45568
G1 F299.7 X2.06 Y-40.002 E942.46067
G1 F276.2 X2.146 Y-40.828 E942.68565
G1 F256.2 X2.146 Y-41.414 E942.85682
G1 X2.732 Y-41.414 E943.028
G1 F275.2 X3.386 Y-41.496 E943.20721
G1 F298.2 X18.473 Y-41.498 E946.99326
G1 F299.4 X33.56 Y-41.5 E950.76426
G1 F276.2 X34.388 Y-41.414 E950.98977
G1 F256 X34.974 Y-41.414 E951.16109
G1 X34.974 Y-40.828 E951.33241
G1 F276.2 X35.06 Y-40 E951.55793
