;FLAVOR:Marlin
;TIME:5243
;Filament used: 1.97755m
;Layer height: 0.12
;MINX:87.5
;MINY:83
;MINZ:0.12
;MAXX:147.5
;MAXY:152
;MAXZ:15
;Generated with Cura_SteamEngine 5.2.1
M140 S50
M105
M190 S50
M104 S200
M105
M109 S200
M82 ;absolute extrusion mode
; Ender 3 Custom Start G-code
G92 E0 ; Reset Extruder
G28 ; Home all axes
G1 Z2.0 F3000 ; Move Z Axis up little to prevent scratching of Heat Bed
G1 X0.1 Y20 Z0.3 F5000.0 ; Move to start position
G1 X0.1 Y200.0 Z0.3 F1500.0 E15 ; Draw the first line
G1 X0.4 Y200.0 Z0.3 F5000.0 ; Move to side a little
G1 X0.4 Y20 Z0.3 F1500.0 E30 ; Draw the second line
G92 E0 ; Reset Extruder
G1 Z2.0 F3000 ; Move Z Axis up little to prevent scratching of Heat Bed
G1 X5 Y20 Z0.3 F5000.0 ; Move over to prevent blob squish
G92 E0
G92 E0
G1 F2700 E-5
;LAYER_COUNT:125
;LAYER:0
M107
G0 F6000 X90.698 Y86.264 Z0.12
;TYPE:SKIRT
G1 F2700 E0
G1 F1200 X91.386 Y85.627 E0.01871
G1 X92.126 Y85.051 E0.03742
G1 X92.912 Y84.539 E0.05614
G1 X93.739 Y84.097 E0.07486
G1 X94.601 Y83.727 E0.09358
G1 X95.491 Y83.431 E0.11229
G1 X96.403 Y83.213 E0.13101
G1 X97.33 Y83.072 E0.14972
G1 X98.201 Y83.013 E0.16714
G1 X98.83 Y83 E0.1797
G1 X135.951 Y83.001 E0.92049
G1 X136.649 Y83.011 E0.93442
G1 X137.585 Y83.065 E0.95313
G1 X138.513 Y83.197 E0.97183
G1 X139.427 Y83.409 E0.99056
G1 X140.319 Y83.698 E1.00927
G1 X141.184 Y84.061 E1.02799
G1 X142.014 Y84.497 E1.0467
G1 X142.805 Y85.002 E1.06543
G1 X143.549 Y85.573 E1.08414
G1 X144.242 Y86.205 E1.10286
G1 X144.879 Y86.893 E1.12157
G1 X145.454 Y87.634 E1.14029
G1 X145.965 Y88.42 E1.159
G1 X146.407 Y89.248 E1.17773
G1 X146.776 Y90.11 E1.19644
G1 X147.071 Y91 E1.21515
G1 X147.289 Y91.912 E1.23386
G1 X147.429 Y92.84 E1.25259
G1 X147.487 Y93.701 E1.26981
G1 X147.5 Y94.33 E1.28237
G1 X147.499 Y140.4 E2.20174
G1 X147.49 Y141.127 E2.21625
G1 X147.439 Y142.064 E2.23498
G1 X147.307 Y142.992 E2.25369
G1 X147.098 Y143.906 E2.2724
G1 X146.811 Y144.799 E2.29112
G1 X146.449 Y145.665 E2.30985
G1 X146.015 Y146.496 E2.32856
G1 X145.511 Y147.287 E2.34727
G1 X144.942 Y148.032 E2.36598
G1 X144.311 Y148.727 E2.38471
G1 X143.624 Y149.365 E2.40342
G1 X142.885 Y149.942 E2.42213
G1 X142.099 Y150.454 E2.44085
G1 X141.273 Y150.897 E2.45956
G1 X140.411 Y151.269 E2.47829
G1 X139.522 Y151.565 E2.49699
G1 X138.61 Y151.785 E2.51571
G1 X137.683 Y151.926 E2.53443
G1 X136.799 Y151.987 E2.55211
G1 X136.17 Y152 E2.56466
G1 X99.065 Y151.999 E3.30513
G1 X98.367 Y151.99 E3.31907
G1 X97.431 Y151.938 E3.33777
G1 X96.502 Y151.806 E3.3565
G1 X95.588 Y151.596 E3.37521
G1 X94.695 Y151.309 E3.39393
G1 X93.83 Y150.946 E3.41265
G1 X92.999 Y150.512 E3.43136
G1 X92.208 Y150.008 E3.45008
G1 X91.463 Y149.438 E3.4688
G1 X90.769 Y148.807 E3.48752
G1 X90.132 Y148.12 E3.50621
G1 X89.555 Y147.38 E3.52494
G1 X89.043 Y146.594 E3.54366
G1 X88.6 Y145.767 E3.56238
G1 X88.229 Y144.906 E3.58109
G1 X87.933 Y144.016 E3.59981
G1 X87.714 Y143.104 E3.61853
G1 X87.573 Y142.177 E3.63724
G1 X87.513 Y141.288 E3.65502
G1 X87.5 Y140.658 E3.66759
G1 X87.501 Y94.525 E4.58823
G1 X87.51 Y93.86 E4.6015
G1 X87.563 Y92.924 E4.62021
G1 X87.695 Y91.995 E4.63893
G1 X87.906 Y91.081 E4.65765
G1 X88.194 Y90.189 E4.67636
G1 X88.557 Y89.324 E4.69508
G1 X88.992 Y88.493 E4.7138
G1 X89.496 Y87.703 E4.7325
G1 X90.066 Y86.958 E4.75122
G1 X90.698 Y86.264 E4.76995
G0 F6000 X91.089 Y86.439
G1 F1200 X91.774 Y85.823 E4.78833
G1 X92.51 Y85.27 E4.80671
G1 X93.291 Y84.782 E4.82508
G1 X94.111 Y84.364 E4.84345
G1 X94.965 Y84.019 E4.86183
G1 X95.845 Y83.749 E4.8802
G1 X96.745 Y83.557 E4.89857
G1 X97.659 Y83.443 E4.91695
G1 X98.212 Y83.413 E4.928
G1 X98.83 Y83.4 E4.94033
G1 X135.793 Y83.4 E5.67797
G1 X136.643 Y83.411 E5.69493
G1 X137.562 Y83.464 E5.71331
G1 X138.473 Y83.597 E5.73168
G1 X139.369 Y83.808 E5.75005
G1 X140.243 Y84.096 E5.76841
G1 X141.09 Y84.459 E5.7868
G1 X141.901 Y84.894 E5.80517
G1 X142.671 Y85.398 E5.82353
G1 X143.395 Y85.967 E5.84191
G1 X144.067 Y86.597 E5.86029
G1 X144.682 Y87.282 E5.87866
G1 X145.235 Y88.018 E5.89703
G1 X145.722 Y88.799 E5.9154
G1 X146.139 Y89.62 E5.93378
G1 X146.484 Y90.474 E5.95216
G1 X146.753 Y91.354 E5.97052
G1 X146.945 Y92.255 E5.98891
G1 X147.058 Y93.168 E6.00726
G1 X147.087 Y93.712 E6.01814
G1 X147.1 Y94.33 E6.03047
G1 X147.099 Y140.395 E6.94975
G1 X147.09 Y141.122 E6.96426
G1 X147.039 Y142.041 E6.98263
G1 X146.908 Y142.953 E7.00101
G1 X146.698 Y143.849 E7.01938
G1 X146.412 Y144.724 E7.03775
G1 X146.051 Y145.571 E7.05612
G1 X145.617 Y146.383 E7.0745
G1 X145.115 Y147.155 E7.09287
G1 X144.547 Y147.88 E7.11125
G1 X143.919 Y148.553 E7.12962
G1 X143.235 Y149.169 E7.14799
G1 X142.5 Y149.723 E7.16636
G1 X141.72 Y150.212 E7.18473
G1 X140.9 Y150.631 E7.20311
G1 X140.047 Y150.977 E7.22148
G1 X139.167 Y151.248 E7.23985
G1 X138.267 Y151.441 E7.25822
G1 X137.353 Y151.556 E7.2766
G1 X136.788 Y151.587 E7.2879
G1 X136.17 Y151.6 E7.30023
G1 X99.07 Y151.599 E8.0406
G1 X98.372 Y151.59 E8.05453
G1 X97.453 Y151.538 E8.0729
G1 X96.542 Y151.407 E8.09127
G1 X95.646 Y151.197 E8.10963
G1 X94.771 Y150.91 E8.12801
G1 X93.924 Y150.548 E8.14639
G1 X93.112 Y150.114 E8.16477
G1 X92.341 Y149.612 E8.18313
G1 X91.616 Y149.044 E8.20151
G1 X90.943 Y148.415 E8.21989
G1 X90.328 Y147.731 E8.23825
G1 X89.774 Y146.996 E8.25661
G1 X89.286 Y146.215 E8.27499
G1 X88.867 Y145.395 E8.29337
G1 X88.521 Y144.542 E8.31174
G1 X88.251 Y143.662 E8.33011
G1 X88.058 Y142.761 E8.34849
G1 X87.944 Y141.848 E8.36686
G1 X87.913 Y141.277 E8.37827
G1 X87.9 Y140.658 E8.39062
G1 X87.901 Y94.531 E9.31114
G1 X87.91 Y93.866 E9.32441
G1 X87.962 Y92.946 E9.3428
G1 X88.094 Y92.035 E9.36117
G1 X88.305 Y91.139 E9.37954
G1 X88.592 Y90.264 E9.39791
G1 X88.955 Y89.418 E9.41629
G1 X89.389 Y88.606 E9.43466
G1 X89.892 Y87.835 E9.45303
G1 X90.461 Y87.111 E9.47141
G1 X91.089 Y86.439 E9.48976
G0 F6000 X91.481 Y86.617
G1 F1200 X92.162 Y86.024 E9.50778
G1 X92.894 Y85.494 E9.52582
G1 X93.669 Y85.031 E9.54383
G1 X94.482 Y84.638 E9.56185
G1 X95.327 Y84.318 E9.57989
G1 X96.196 Y84.075 E9.59789
G1 X97.084 Y83.909 E9.61592
G1 X98.223 Y83.813 E9.63873
G1 X98.83 Y83.8 E9.65085
G1 X135.793 Y83.8 E10.38848
G1 X136.637 Y83.811 E10.40533
G1 X137.539 Y83.864 E10.42336
G1 X138.432 Y83.996 E10.44137
G1 X139.31 Y84.207 E10.45939
G1 X140.166 Y84.495 E10.47742
G1 X140.993 Y84.857 E10.49543
G1 X141.785 Y85.292 E10.51347
G1 X142.536 Y85.794 E10.53149
G1 X143.239 Y86.361 E10.54952
G1 X143.889 Y86.988 E10.56754
G1 X144.481 Y87.67 E10.58556
G1 X145.011 Y88.401 E10.60358
G1 X145.473 Y89.177 E10.6216
G1 X145.866 Y89.99 E10.63962
G1 X146.184 Y90.835 E10.65764
G1 X146.427 Y91.705 E10.67567
G1 X146.592 Y92.593 E10.69369
G1 X146.687 Y93.723 E10.71632
G1 X146.7 Y94.33 E10.72844
G1 X146.699 Y140.39 E11.64761
G1 X146.69 Y141.117 E11.66212
G1 X146.639 Y142.019 E11.68015
G1 X146.508 Y142.913 E11.69818
G1 X146.299 Y143.791 E11.71619
G1 X146.013 Y144.648 E11.73422
G1 X145.652 Y145.476 E11.75225
G1 X145.22 Y146.268 E11.77025
G1 X144.719 Y147.02 E11.78829
G1 X144.153 Y147.724 E11.80631
G1 X143.528 Y148.375 E11.82432
G1 X142.847 Y148.969 E11.84236
G1 X142.116 Y149.5 E11.86039
G1 X141.342 Y149.964 E11.87839
G1 X140.529 Y150.358 E11.89642
G1 X139.685 Y150.678 E11.91444
G1 X138.815 Y150.923 E11.93247
G1 X137.928 Y151.089 E11.95048
G1 X136.777 Y151.187 E11.97353
G1 X136.17 Y151.2 E11.98565
G1 X99.075 Y151.199 E12.72592
G1 X98.377 Y151.19 E12.73985
G1 X97.476 Y151.139 E12.75786
G1 X96.582 Y151.007 E12.7759
G1 X95.704 Y150.798 E12.79391
G1 X94.847 Y150.511 E12.81194
G1 X94.02 Y150.15 E12.82995
G1 X93.227 Y149.717 E12.84798
G1 X92.476 Y149.216 E12.866
G1 X91.772 Y148.65 E12.88402
G1 X91.121 Y148.024 E12.90205
G1 X90.528 Y147.343 E12.92007
G1 X89.998 Y146.612 E12.93809
G1 X89.534 Y145.837 E12.95611
G1 X89.14 Y145.024 E12.97414
G1 X88.82 Y144.18 E12.99215
G1 X88.576 Y143.31 E13.01018
G1 X88.41 Y142.422 E13.02821
G1 X88.313 Y141.267 E13.05134
G1 X88.3 Y140.658 E13.0635
G1 X88.301 Y94.536 E13.98391
G1 X88.31 Y93.871 E13.99719
G1 X88.362 Y92.969 E14.01522
G1 X88.494 Y92.076 E14.03323
G1 X88.704 Y91.198 E14.05125
G1 X88.991 Y90.341 E14.06928
G1 X89.353 Y89.514 E14.0873
G1 X89.786 Y88.722 E14.10531
G1 X90.288 Y87.971 E14.12334
G1 X90.855 Y87.267 E14.14138
G1 X91.481 Y86.617 E14.15939
G1 F2700 E9.15939
;MESH:Part1.STL
G0 F6000 X109.569 Y104.75
G0 X109.922 Y117.703
G0 X110.662 Y117.872
;TYPE:WALL-INNER
G1 F2700 E14.15939
G1 F1200 X110.355 Y117.795 E14.1657
G1 X110.098 Y117.635 E14.17174
G1 X109.96 Y117.49 E14.17574
G1 X109.817 Y117.238 E14.18152
G1 X109.75 Y116.998 E14.18649
G1 X109.75 Y104.548 E14.43495
G1 X109.903 Y104.216 E14.44224
G1 X110.023 Y104.062 E14.44614
G1 X110.266 Y103.874 E14.45227
G1 X110.662 Y103.753 E14.46053
G1 X124.339 Y103.753 E14.73347
G1 X124.738 Y103.876 E14.7418
G1 X125.055 Y104.125 E14.74985
G1 X125.205 Y104.449 E14.75697
G1 X125.241 Y104.616 E14.76038
G1 X125.25 Y104.75 E14.76306
G1 X125.25 Y116.998 E15.00748
G1 X125.183 Y117.238 E15.01246
G1 X125.04 Y117.49 E15.01824
G1 X124.902 Y117.635 E15.02223
G1 X124.645 Y117.795 E15.02827
G1 X124.25 Y117.875 E15.03632
G1 X110.662 Y117.872 E15.30748
G0 F6000 X110.697 Y117.473
G1 F1200 X110.513 Y117.427 E15.31127
G1 X110.359 Y117.331 E15.31489
G1 X110.19 Y117.093 E15.32071
G1 X110.15 Y116.95 E15.32368
G1 X110.155 Y104.669 E15.56876
G1 X110.242 Y104.429 E15.57385
G1 X110.459 Y104.224 E15.57981
G1 X110.697 Y104.152 E15.58477
G1 X124.303 Y104.152 E15.85629
G1 X124.543 Y104.226 E15.8613
G1 X124.759 Y104.432 E15.86726
G1 X124.845 Y104.669 E15.87229
G1 X124.85 Y116.948 E16.11733
G1 X124.769 Y117.178 E16.1222
G1 X124.641 Y117.331 E16.12618
G1 X124.487 Y117.427 E16.1298
G1 X124.25 Y117.475 E16.13463
G1 X110.697 Y117.473 E16.40509
G0 F6000 X110.619 Y117.027
;TYPE:WALL-OUTER
G1 F1200 X110.552 Y116.91 E16.40778
G1 X110.551 Y104.723 E16.65099
G1 X110.604 Y104.612 E16.65344
G1 X110.732 Y104.55 E16.65628
G1 X124.331 Y104.55 E16.92766
G1 X124.449 Y104.723 E16.93184
G1 X124.448 Y116.91 E17.17505
G1 X124.381 Y117.027 E17.17774
G1 X124.25 Y117.075 E17.18052
G1 X110.732 Y117.075 E17.45029
G1 X110.619 Y117.027 E17.45274
G1 F2700 E12.45274
G0 F6000 X110.619 Y117.775
G0 X110.75 Y118.056
G0 X110.75 Y119.194
G0 X109.922 Y119.547
G0 X109.922 Y134.578
G0 X110.345 Y134.665
;TYPE:WALL-INNER
G1 F2700 E17.45274
G1 F1200 X110.053 Y134.469 E17.45976
G1 X109.878 Y134.242 E17.46548
G1 X109.75 Y133.861 E17.4735
G1 X109.75 Y120.252 E17.74508
G1 X109.817 Y120.012 E17.75005
G1 X109.96 Y119.76 E17.75583
G1 X110.098 Y119.615 E17.75983
G1 X110.355 Y119.455 E17.76587
G1 X110.662 Y119.378 E17.77219
G1 X124.25 Y119.375 E18.04335
G1 X124.645 Y119.455 E18.05139
G1 X124.902 Y119.615 E18.05743
G1 X125.04 Y119.76 E18.06143
G1 X125.183 Y120.012 E18.06721
G1 X125.25 Y120.252 E18.07218
G1 X125.25 Y133.75 E18.34155
G1 X125.198 Y134.071 E18.34804
G1 X125.12 Y134.246 E18.35186
G1 X124.946 Y134.47 E18.35752
G1 X124.68 Y134.656 E18.364
G1 X124.347 Y134.746 E18.37088
G1 X113.353 Y134.75 E18.59028
G1 X110.65 Y134.75 E18.64422
G1 X110.345 Y134.665 E18.65054
G0 F6000 X110.332 Y134.181
G1 F1200 X110.227 Y134.045 E18.65397
G1 X110.15 Y133.822 E18.65868
G1 X110.15 Y120.302 E18.92848
G1 X110.231 Y120.072 E18.93335
G1 X110.359 Y119.919 E18.93733
G1 X110.513 Y119.823 E18.94095
G1 X110.697 Y119.777 E18.94474
G1 X124.25 Y119.775 E19.2152
G1 X124.487 Y119.823 E19.22003
G1 X124.641 Y119.919 E19.22365
G1 X124.81 Y120.157 E19.22948
G1 X124.85 Y120.3 E19.23244
G1 X124.85 Y133.822 E19.50228
G1 X124.772 Y134.048 E19.50706
G1 X124.668 Y134.182 E19.51044
G1 X124.508 Y134.294 E19.51434
G1 X124.308 Y134.348 E19.51847
G1 X113.353 Y134.35 E19.73709
G1 X110.675 Y134.346 E19.79053
G1 X110.507 Y134.299 E19.79402
G1 X110.332 Y134.181 E19.79823
G0 F6000 X110.68 Y133.949
;TYPE:WALL-OUTER
G1 F1200 X110.552 Y133.783 E19.80241
G1 X110.552 Y120.34 E20.07068
G1 X110.619 Y120.223 E20.07337
G1 X110.732 Y120.175 E20.07582
G1 X124.25 Y120.175 E20.34559
G1 X124.381 Y120.223 E20.34837
G1 X124.448 Y120.34 E20.35106
G1 X124.448 Y133.785 E20.61937
G1 X124.317 Y133.95 E20.62358
G1 X113.353 Y133.95 E20.84237
G1 X110.68 Y133.949 E20.89572
G1 F2700 E15.89572
G0 F6000 X110.68 Y134.65
G0 X110.213 Y134.803
G0 X109.812 Y135.448
G0 X109.487 Y136.172
G0 X109.779 Y136.416
G0 X109.984 Y136.707
G0 X110.192 Y137.279
G0 X110.193 Y137.915
G0 X109.977 Y138.509
G0 X109.584 Y138.979
G0 X107.802 Y139.945
;TYPE:WALL-INNER
G1 F2700 E20.89572
G1 F1057.3 X107.37 Y139.732 E20.90663
G1 F1200 X107.063 Y139.554 E20.91371
G1 X106.7 Y139.246 E20.92321
G1 X106.392 Y138.866 E20.93297
G1 X106.269 Y138.631 E20.93826
G1 X106.107 Y138.186 E20.94771
G1 X106.047 Y137.846 E20.9546
G1 X106.046 Y137.181 E20.96787
G1 X106.328 Y136.403 E20.98439
G1 X106.838 Y135.801 E21.00013
G1 X107.261 Y135.508 E21.0104
G1 X107.814 Y135.307 E21.02214
G1 X108.155 Y135.247 E21.02905
G1 X108.812 Y135.245 E21.04217
G1 X109.596 Y135.528 E21.0588
G1 X110.165 Y136.007 E21.07364
G1 X110.409 Y136.335 E21.0818
G1 X110.531 Y136.569 E21.08707
G1 X110.693 Y137.015 E21.09654
G1 X110.753 Y137.355 E21.10343
G1 X110.754 Y137.835 E21.113
G1 X110.695 Y138.178 E21.11995
G1 X110.532 Y138.63 E21.12954
G1 X110.354 Y138.937 E21.13662
G1 X110.046 Y139.3 E21.14612
G1 X109.666 Y139.607 E21.15587
G1 X109.43 Y139.732 E21.1612
G1 F1153.8 X108.842 Y139.971 E21.17437
G1 X109.477 Y139.999 E21.18756
G1 F1200 X125.523 Y139.999 E21.50778
G1 F1057.3 X126.002 Y139.945 E21.5187
G1 X125.57 Y139.732 E21.52961
G1 F1200 X125.263 Y139.554 E21.53669
G1 X124.9 Y139.246 E21.54619
G1 X124.592 Y138.866 E21.55595
G1 X124.469 Y138.631 E21.56124
G1 X124.307 Y138.186 E21.57069
G1 X124.247 Y137.846 E21.57758
G1 X124.246 Y137.362 E21.58724
G1 X124.305 Y137.018 E21.59421
G1 X124.468 Y136.569 E21.60374
G1 X124.644 Y136.265 E21.61075
G1 X125.045 Y135.792 E21.62313
G1 X125.484 Y135.499 E21.63366
G1 X126.176 Y135.247 E21.64836
G1 X126.836 Y135.246 E21.66153
G1 X127.179 Y135.305 E21.66847
G1 X127.797 Y135.529 E21.68159
G1 X128.405 Y136.041 E21.69745
G1 X128.697 Y136.476 E21.70791
G1 X128.953 Y137.178 E21.72282
G1 X128.954 Y137.835 E21.73593
G1 X128.895 Y138.178 E21.74288
G1 X128.732 Y138.63 E21.75246
G1 X128.554 Y138.937 E21.75955
G1 X128.246 Y139.3 E21.76905
G1 X127.866 Y139.607 E21.7788
G1 X127.63 Y139.732 E21.78412
G1 F1153.8 X127.042 Y139.971 E21.7973
G1 X127.677 Y139.999 E21.81049
G1 F1200 X135.5 Y140 E21.96661
G1 X135.5 Y98.299 E22.79879
G1 X135.5 Y95 E22.86463
G1 X127.676 Y95 E23.02077
G1 F1057.3 X127.196 Y95.054 E23.03171
G1 X127.63 Y95.267 E23.04266
G1 F1200 X127.935 Y95.444 E23.04969
G1 X128.297 Y95.75 E23.05915
G1 X128.555 Y96.032 E23.06678
G1 X128.732 Y96.369 E23.07438
G1 X128.893 Y96.814 E23.08382
G1 X128.953 Y97.154 E23.09071
G1 X128.954 Y97.814 E23.10388
G1 X128.671 Y98.599 E23.12053
G1 X128.159 Y99.202 E23.13632
G1 X127.751 Y99.482 E23.1462
G1 X127.027 Y99.753 E23.16162
G1 X126.179 Y99.754 E23.17855
G1 X125.486 Y99.497 E23.1933
G1 X125.263 Y99.354 E23.19858
G1 X124.797 Y98.959 E23.21077
G1 X124.503 Y98.522 E23.22128
G1 X124.247 Y97.821 E23.23618
G1 X124.246 Y97.163 E23.24931
G1 X124.305 Y96.818 E23.25629
G1 X124.468 Y96.369 E23.26583
G1 X124.645 Y96.064 E23.27286
G1 X124.952 Y95.702 E23.28233
G1 X125.227 Y95.449 E23.28979
G1 X125.569 Y95.268 E23.29751
G1 F1153.8 X126.159 Y95.029 E23.31073
G1 X125.522 Y95.001 E23.32396
G1 F1200 X109.476 Y95 E23.64417
G1 F1057.3 X108.996 Y95.054 E23.65511
G1 X109.43 Y95.267 E23.66606
G1 F1200 X109.735 Y95.444 E23.6731
G1 X110.097 Y95.75 E23.68256
G1 X110.355 Y96.032 E23.69019
G1 X110.532 Y96.369 E23.69779
G1 X110.693 Y96.814 E23.70723
G1 X110.753 Y97.154 E23.71412
G1 X110.754 Y97.814 E23.72729
G1 X110.47 Y98.601 E23.74399
G1 X109.96 Y99.2 E23.75969
G1 X109.542 Y99.49 E23.76984
G1 X108.822 Y99.753 E23.78514
G1 X107.988 Y99.756 E23.80178
G1 X107.202 Y99.471 E23.81846
G1 X106.633 Y98.989 E23.83335
G1 X106.319 Y98.566 E23.84386
G1 X106.047 Y97.822 E23.85967
G1 X106.046 Y97.163 E23.87282
G1 X106.105 Y96.818 E23.8798
G1 X106.268 Y96.369 E23.88934
G1 X106.445 Y96.064 E23.89637
G1 X106.752 Y95.702 E23.90584
G1 X107.027 Y95.449 E23.9133
G1 X107.369 Y95.268 E23.92102
G1 F1153.8 X107.959 Y95.029 E23.93424
G1 X107.322 Y95.001 E23.94747
G1 F1200 X99.501 Y95.001 E24.10354
G1 X99.5 Y140 E25.00155
G1 X107.323 Y139.999 E25.15766
G1 F1057.3 X107.802 Y139.945 E25.16858
