;generated by ffslicer 1.30.3 08/09/24 11:11:36
;right_extruder_material: PLA
;layer_height: 0.2
;perimeter_shells: 2
;top_solid_layers: 4
;bottom_solid_layers: 3
;fill_density: 15%
;fill_pattern: hexagon
;base_print_speed: 100
;travel_speed: 120
;right_extruder_temperature: 205
;left_extruder_temperature: 0
;platform_temperature: 60
;right_extruder_temperature_raft0: 0
;left_extruder_temperature_raft0: 0
;right_extruder_temperature_reset: 
;left_extruder_temperature_reset: 
;start gcode
M140 S60 T0
M104 S205 T0
M104 S0 T1
G90
G28
G1 Z50.000 F420
G161 X Y F3300
M190 S60 T0
M109 S205 T0
M109 S0 T1
G92 E.0000
;layer_count: 25
M108 T0
G1 X131.00 Y143.00 F7200
;preExtrude:0.20
;preExtruder0
G1 Z.200 F420
G1 X131.00 Y143.00 F7200
G1 X77.00 Y143.00 E7.1842 F1200
G1 X77.00 Y77.00 E15.9649
;raft
;layer:0.30
;shell
M106 S255
G1 E10.9649 F2400
G1 Z.300 F420
G1 X85.60 Y85.60 F3000
G1 E15.9649 F2400
G1 X85.60 Y85.60 F3000
G1 X95.60 Y85.60 E16.4638 F1200
G1 X105.60 Y85.60 E16.9627
G1 X115.60 Y85.60 E17.4616
G1 X125.60 Y85.60 E17.9605
G1 X134.40 Y85.60 E18.3995
G1 X134.40 Y86.80 E18.4594
G1 X134.40 Y134.40 E20.8342
G1 X85.60 Y134.40 E23.2688
G1 X85.60 Y85.60 E25.7034
G1 X85.20 Y85.20 F3000
G1 X134.80 Y85.20 E28.1780 F1200
G1 X134.80 Y134.80 E30.6525
G1 X85.20 Y134.80 E33.1271
G1 X85.20 Y85.20 E35.6017
;infill
G1 E30.6017 F2400
G1 X133.73 Y85.88 F3000
G1 E35.6017 F2400
G1 X133.73 Y85.88 F3000
G1 X134.12 Y86.27 E35.6292 F1200
G1 X134.12 Y86.84 E35.6576
G1 X133.16 Y85.88 E35.7253
G1 X132.59 Y85.88 E35.7538
G1 X134.12 Y87.41 E35.8617
G1 X134.12 Y87.98 E35.8902
G1 X132.02 Y85.88 E36.0383
G1 X131.45 Y85.88 E36.0668
G1 X134.12 Y88.55 E36.2552
G1 X134.12 Y89.11 E36.2831
G1 X130.88 Y85.88 E36.5113
G1 X130.32 Y85.88 E36.5393
G1 X134.12 Y89.68 E36.8074
G1 X134.12 Y90.25 E36.8358
G1 X129.75 Y85.88 E37.1442
G1 X129.18 Y85.88 E37.1726
G1 X134.12 Y90.82 E37.5211
G1 X134.12 Y91.39 E37.5496
G1 X128.61 Y85.88 E37.9383
G1 X128.04 Y85.88 E37.9668
G1 X134.12 Y91.96 E38.3957
G1 X134.12 Y92.53 E38.4242
G1 X127.47 Y85.88 E38.8934
G1 X126.90 Y85.88 E38.9218
G1 X134.12 Y93.09 E39.4309
G1 X134.12 Y93.66 E39.4593
G1 X126.34 Y85.88 E40.0082
G1 X125.77 Y85.88 E40.0367
G1 X134.12 Y94.23 E40.6258
G1 X134.12 Y94.80 E40.6542
G1 X125.20 Y85.88 E41.2836
G1 X124.63 Y85.88 E41.3120
G1 X134.12 Y95.37 E41.9816
G1 X134.12 Y95.94 E42.0100
G1 X124.06 Y85.88 E42.7198
G1 X123.49 Y85.88 E42.7483
G1 X134.12 Y96.51 E43.4983
G1 X134.12 Y97.07 E43.5262
G1 X122.92 Y85.88 E44.3161
G1 X122.36 Y85.88 E44.3440
G1 X134.12 Y97.64 E45.1737
G1 X134.12 Y98.21 E45.2022
G1 X121.79 Y85.88 E46.0721
G1 X121.22 Y85.88 E46.1006
G1 X134.12 Y98.78 E47.0107
G1 X134.12 Y99.35 E47.0392
G1 X120.65 Y85.88 E47.9896
G1 X120.08 Y85.88 E48.0180
G1 X134.12 Y99.92 E49.0086
G1 X134.12 Y100.48 E49.0365
G1 X119.51 Y85.88 E50.0670
G1 X118.95 Y85.88 E50.0949
G1 X134.12 Y101.05 E51.1653
G1 X134.12 Y101.62 E51.1937
G1 X118.38 Y85.88 E52.3042
G1 X117.81 Y85.88 E52.3327
G1 X134.12 Y102.19 E53.4834
G1 X134.12 Y102.76 E53.5119
G1 X117.24 Y85.88 E54.7028
G1 X116.67 Y85.88 E54.7313
G1 X134.12 Y103.33 E55.9625
G1 X134.12 Y103.90 E55.9909
G1 X116.10 Y85.88 E57.2623
G1 X115.53 Y85.88 E57.2908
G1 X134.12 Y104.46 E58.6020
G1 X134.12 Y105.03 E58.6305
G1 X114.97 Y85.88 E59.9816
G1 X114.40 Y85.88 E60.0100
G1 X134.12 Y105.60 E61.4014
G1 X134.12 Y106.17 E61.4298
G1 X113.83 Y85.88 E62.8614
G1 X113.26 Y85.88 E62.8898
G1 X134.12 Y106.74 E64.3616
G1 X134.12 Y107.31 E64.3901
G1 X112.69 Y85.88 E65.9021
G1 X112.12 Y85.88 E65.9305
G1 X134.12 Y107.88 E67.4827
G1 X134.12 Y108.44 E67.5107
G1 X111.55 Y85.88 E69.1027
G1 X110.99 Y85.88 E69.1307
G1 X134.12 Y109.01 E70.7626
G1 X134.12 Y109.58 E70.7911
G1 X110.42 Y85.88 E72.4632
G1 X109.85 Y85.88 E72.4917
G1 X134.12 Y110.15 E74.2041
G1 X134.12 Y110.72 E74.2325
G1 X109.28 Y85.88 E75.9851
G1 X108.71 Y85.88 E76.0135
G1 X134.12 Y111.29 E77.8063
G1 X134.12 Y111.86 E77.8348
G1 X108.14 Y85.88 E79.6678
G1 X107.57 Y85.88 E79.6962
G1 X134.12 Y112.42 E81.5691
G1 X134.12 Y112.99 E81.5976
G1 X107.01 Y85.88 E83.5103
G1 X106.44 Y85.88 E83.5388
G1 X134.12 Y113.56 E85.4917
G1 X134.12 Y114.13 E85.5202
G1 X105.87 Y85.88 E87.5134
G1 X105.30 Y85.88 E87.5418
G1 X134.12 Y114.70 E89.5752
G1 X134.12 Y115.27 E89.6036
G1 X104.73 Y85.88 E91.6773
G1 X104.16 Y85.88 E91.7057
G1 X134.12 Y115.83 E93.8192
G1 X134.12 Y116.40 E93.8476
G1 X103.60 Y85.88 E96.0010
G1 X103.03 Y85.88 E96.0294
G1 X134.12 Y116.97 E98.2230
G1 X134.12 Y117.54 E98.2514
G1 X102.46 Y85.88 E100.4852
G1 X101.89 Y85.88 E100.5136
G1 X134.12 Y118.11 E102.7876
G1 X134.12 Y118.68 E102.8161
G1 X101.32 Y85.88 E105.1303
G1 X100.75 Y85.88 E105.1587
G1 X134.12 Y119.25 E107.5132
G1 X134.12 Y119.81 E107.5411
G1 X100.18 Y85.88 E109.9354
G1 X99.62 Y85.88 E109.9633
G1 X134.12 Y120.38 E112.3975
G1 X134.12 Y120.95 E112.4260
G1 X99.05 Y85.88 E114.9003
G1 X98.48 Y85.88 E114.9288
G1 X134.12 Y121.52 E117.4434
G1 X134.12 Y122.09 E117.4718
G1 X97.91 Y85.88 E120.0266
G1 X97.34 Y85.88 E120.0550
G1 X134.12 Y122.66 E122.6501
G1 X134.12 Y123.23 E122.6785
G1 X96.77 Y85.88 E125.3138
G1 X96.20 Y85.88 E125.3422
G1 X134.12 Y123.79 E128.0173
G1 X134.12 Y124.36 E128.0457
G1 X95.64 Y85.88 E130.7607
G1 X95.07 Y85.88 E130.7891
G1 X134.12 Y124.93 E133.5443
G1 X134.12 Y125.50 E133.5728
G1 X94.50 Y85.88 E136.3682
G1 X93.93 Y85.88 E136.3966
G1 X134.12 Y126.07 E139.2322
G1 X134.12 Y126.64 E139.2607
G1 X93.36 Y85.88 E142.1365
G1 X92.79 Y85.88 E142.1650
G1 X134.12 Y127.20 E145.0807
G1 X134.12 Y127.77 E145.1091
G1 X92.23 Y85.88 E148.0647
G1 X91.66 Y85.88 E148.0931
G1 X134.12 Y128.34 E151.0889
G1 X134.12 Y128.91 E151.1173
G1 X91.09 Y85.88 E154.1533
G1 X90.52 Y85.88 E154.1818
G1 X134.12 Y129.48 E157.2580
G1 X134.12 Y130.05 E157.2864
G1 X89.95 Y85.88 E160.4029
G1 X89.38 Y85.88 E160.4313
G1 X134.12 Y130.62 E163.5879
G1 X134.12 Y131.18 E163.6159
G1 X88.81 Y85.88 E166.8124
G1 X88.25 Y85.88 E166.8403
G1 X134.12 Y131.75 E170.0767
G1 X134.12 Y132.32 E170.1051
G1 X87.68 Y85.88 E173.3817
G1 X87.11 Y85.88 E173.4102
G1 X134.12 Y132.89 E176.7270
G1 X134.12 Y133.46 E176.7554
G1 X86.54 Y85.88 E180.1125
G1 X85.97 Y85.88 E180.1409
G1 X134.12 Y134.03 E183.5382
G1 X134.12 Y134.12 E183.5426
G1 X133.64 Y134.12 E183.5666
G1 X85.88 Y86.36 E186.9363
G1 X85.88 Y86.92 E186.9642
G1 X133.07 Y134.12 E190.2941
G1 X132.51 Y134.12 E190.3220
G1 X85.88 Y87.49 E193.6120
G1 X85.88 Y88.06 E193.6405
G1 X131.94 Y134.12 E196.8902
G1 X131.37 Y134.12 E196.9187
G1 X85.88 Y88.63 E200.1283
G1 X85.88 Y89.20 E200.1567
G1 X130.80 Y134.12 E203.3260
G1 X130.23 Y134.12 E203.3545
G1 X85.88 Y89.77 E206.4836
G1 X85.88 Y90.34 E206.5120
G1 X129.66 Y134.12 E209.6010
G1 X129.09 Y134.12 E209.6294
G1 X85.88 Y90.90 E212.6784
G1 X85.88 Y91.47 E212.7069
G1 X128.52 Y134.12 E215.7157
G1 X127.96 Y134.12 E215.7436
G1 X85.88 Y92.04 E218.7126
G1 X85.88 Y92.61 E218.7411
G1 X127.39 Y134.12 E221.6698
G1 X126.82 Y134.12 E221.6982
G1 X85.88 Y93.18 E224.5868
G1 X85.88 Y93.75 E224.6152
G1 X126.25 Y134.12 E227.4635
G1 X125.68 Y134.12 E227.4920
G1 X85.88 Y94.32 E230.3001
G1 X85.88 Y94.88 E230.3280
G1 X125.11 Y134.12 E233.0963
G1 X124.55 Y134.12 E233.1242
G1 X85.88 Y95.45 E235.8526
G1 X85.88 Y96.02 E235.8810
G1 X123.98 Y134.12 E238.5692
G1 X123.41 Y134.12 E238.5976
G1 X85.88 Y96.59 E241.2455
G1 X85.88 Y97.16 E241.2740
G1 X122.84 Y134.12 E243.8817
G1 X122.27 Y134.12 E243.9102
G1 X85.88 Y97.73 E246.4777
G1 X85.88 Y98.29 E246.5056
G1 X121.70 Y134.12 E249.0332
G1 X121.14 Y134.12 E249.0612
G1 X85.88 Y98.86 E251.5490
G1 X85.88 Y99.43 E251.5774
G1 X120.57 Y134.12 E254.0250
G1 X120.00 Y134.12 E254.0534
G1 X85.88 Y100.00 E256.4607
G1 X85.88 Y100.57 E256.4892
G1 X119.43 Y134.12 E258.8563
G1 X118.86 Y134.12 E258.8847
G1 X85.88 Y101.14 E261.2117
G1 X85.88 Y101.71 E261.2401
G1 X118.29 Y134.12 E263.5268
G1 X117.72 Y134.12 E263.5552
G1 X85.88 Y102.27 E265.8021
G1 X85.88 Y102.84 E265.8305
G1 X117.16 Y134.12 E268.0375
G1 X116.59 Y134.12 E268.0660
G1 X85.88 Y103.41 E270.2327
G1 X85.88 Y103.98 E270.2612
G1 X116.02 Y134.12 E272.3877
G1 X115.45 Y134.12 E272.4161
G1 X85.88 Y104.55 E274.5024
G1 X85.88 Y105.12 E274.5309
G1 X114.88 Y134.12 E276.5769
G1 X114.31 Y134.12 E276.6054
G1 X85.88 Y105.69 E278.6112
G1 X85.88 Y106.25 E278.6392
G1 X113.74 Y134.12 E280.6052
G1 X113.18 Y134.12 E280.6332
G1 X85.88 Y106.82 E282.5593
G1 X85.88 Y107.39 E282.5878
G1 X112.61 Y134.12 E284.4737
G1 X112.04 Y134.12 E284.5021
G1 X85.88 Y107.96 E286.3479
G1 X85.88 Y108.53 E286.3763
G1 X111.47 Y134.12 E288.1818
G1 X110.90 Y134.12 E288.2102
G1 X85.88 Y109.10 E289.9755
G1 X85.88 Y109.67 E290.0039
G1 X110.33 Y134.12 E291.7290
G1 X109.76 Y134.12 E291.7575
G1 X85.88 Y110.23 E293.4427
G1 X85.88 Y110.80 E293.4711
G1 X109.20 Y134.12 E295.1165
G1 X108.63 Y134.12 E295.1449
G1 X85.88 Y111.37 E296.7500
G1 X85.88 Y111.94 E296.7785
G1 X108.06 Y134.12 E298.3434
G1 X107.49 Y134.12 E298.3718
G1 X85.88 Y112.51 E299.8965
G1 X85.88 Y113.08 E299.9249
G1 X106.92 Y134.12 E301.4094
G1 X106.35 Y134.12 E301.4379
G1 X85.88 Y113.64 E302.8825
G1 X85.88 Y114.21 E302.9110
G1 X105.79 Y134.12 E304.3157
G1 X105.22 Y134.12 E304.3441
G1 X85.88 Y114.78 E305.7087
G1 X85.88 Y115.35 E305.7371
G1 X104.65 Y134.12 E307.0614
G1 X104.08 Y134.12 E307.0899
G1 X85.88 Y115.92 E308.3739
G1 X85.88 Y116.49 E308.4024
G1 X103.51 Y134.12 E309.6463
G1 X102.94 Y134.12 E309.6747
G1 X85.88 Y117.06 E310.8784
G1 X85.88 Y117.62 E310.9064
G1 X102.37 Y134.12 E312.0702
G1 X101.81 Y134.12 E312.0981
G1 X85.88 Y118.19 E313.2221
G1 X85.88 Y118.76 E313.2505
G1 X101.24 Y134.12 E314.3342
G1 X100.67 Y134.12 E314.3626
G1 X85.88 Y119.33 E315.4061
G1 X85.88 Y119.90 E315.4346
G1 X100.10 Y134.12 E316.4379
G1 X99.53 Y134.12 E316.4663
G1 X85.88 Y120.47 E317.4294
G1 X85.88 Y121.04 E317.4579
G1 X98.96 Y134.12 E318.3807
G1 X98.39 Y134.12 E318.4092
G1 X85.88 Y121.60 E319.2922
G1 X85.88 Y122.17 E319.3206
G1 X97.83 Y134.12 E320.1637
G1 X97.26 Y134.12 E320.1922
G1 X85.88 Y122.74 E320.9951
G1 X85.88 Y123.31 E321.0235
G1 X96.69 Y134.12 E321.7862
G1 X96.12 Y134.12 E321.8147
G1 X85.88 Y123.88 E322.5372
G1 X85.88 Y124.45 E322.5656
G1 X95.55 Y134.12 E323.2479
G1 X94.98 Y134.12 E323.2763
G1 X85.88 Y125.02 E323.9184
G1 X85.88 Y125.58 E323.9463
G1 X94.42 Y134.12 E324.5489
G1 X93.85 Y134.12 E324.5773
G1 X85.88 Y126.15 E325.1396
G1 X85.88 Y126.72 E325.1680
G1 X93.28 Y134.12 E325.6902
G1 X92.71 Y134.12 E325.7186
G1 X85.88 Y127.29 E326.2005
G1 X85.88 Y127.86 E326.2290
G1 X92.14 Y134.12 E326.6706
G1 X91.57 Y134.12 E326.6991
G1 X85.88 Y128.43 E327.1005
G1 X85.88 Y128.99 E327.1285
G1 X91.00 Y134.12 E327.4901
G1 X90.44 Y134.12 E327.5180
G1 X85.88 Y129.56 E327.8397
G1 X85.88 Y130.13 E327.8682
G1 X89.87 Y134.12 E328.1497
G1 X89.30 Y134.12 E328.1781
G1 X85.88 Y130.70 E328.4194
G1 X85.88 Y131.27 E328.4479
G1 X88.73 Y134.12 E328.6490
G1 X88.16 Y134.12 E328.6774
G1 X85.88 Y131.84 E328.8383
G1 X85.88 Y132.41 E328.8667
G1 X87.59 Y134.12 E328.9874
G1 X87.02 Y134.12 E329.0158
G1 X85.88 Y132.97 E329.0966
G1 X85.88 Y133.54 E329.1250
G1 X86.46 Y134.12 E329.1660
G1 X85.88 Y134.11 E329.1949
;percent
;layer:0.20
;shell
G1 E324.1949 F2400
G1 Z.500 F420
G1 X85.60 Y85.60 F7200
G1 E329.1949 F2400
G1 X85.60 Y85.60 F7200
G1 X95.60 Y85.60 E329.5275 F4800
G1 X105.60 Y85.60 E329.8601 F5040
G1 X115.60 Y85.60 E330.1927 F5280
G1 X125.60 Y85.60 E330.5253 F5520
G1 X134.40 Y85.60 E330.8180 F5760
G1 X134.40 Y86.80 E330.8579
G1 X134.40 Y134.40 E332.4411 F6000
G1 X85.60 Y134.40 E334.0642
G1 X85.60 Y85.60 E335.6873
G1 X85.20 Y85.20 F7200
G1 X134.80 Y85.20 E337.3370 F3000
G1 X134.80 Y134.80 E338.9866
G1 X85.20 Y134.80 E340.6363
G1 X85.20 Y85.20 E342.2860
;infill
G1 X85.88 Y86.27 F7200
G1 X86.27 Y85.88 E342.3044 F4200
G1 X86.84 Y85.88 E342.3233
G1 X85.88 Y86.84 E342.3685
G1 X85.88 Y87.41 E342.3875
G1 X87.41 Y85.88 E342.4594
G1 X87.98 Y85.88 E342.4784
G1 X85.88 Y87.98 E342.5772
G1 X85.88 Y88.55 E342.5961
G1 X88.55 Y85.88 E342.7217
G1 X89.12 Y85.88 E342.7407
G1 X85.88 Y89.12 E342.8931
G1 X85.88 Y89.68 E342.9117
G1 X89.68 Y85.88 E343.0905
G1 X90.25 Y85.88 E343.1094
G1 X85.88 Y90.25 E343.3150
G1 X85.88 Y90.82 E343.3340
G1 X90.82 Y85.88 E343.5664
G1 X91.39 Y85.88 E343.5853
G1 X85.88 Y91.39 E343.8445
G1 X85.88 Y91.96 E343.8635
G1 X91.96 Y85.88 E344.1495
G1 X92.53 Y85.88 E344.1684
G1 X85.88 Y92.53 E344.4812
G1 X85.88 Y93.10 E344.5002
G1 X93.10 Y85.88 E344.8398
G1 X93.66 Y85.88 E344.8584
G1 X85.88 Y93.66 E345.2243
G1 X85.88 Y94.23 E345.2433
G1 X94.23 Y85.88 E345.6361
G1 X94.80 Y85.88 E345.6550
G1 X85.88 Y94.80 E346.0746
G1 X85.88 Y95.37 E346.0936
G1 X95.37 Y85.88 E346.5400
G1 X95.94 Y85.88 E346.5589
G1 X85.88 Y95.94 E347.0321
G1 X85.88 Y96.51 E347.0511
G1 X96.51 Y85.88 E347.5511
G1 X97.08 Y85.88 E347.5701
G1 X85.88 Y97.08 E348.0968
G1 X85.88 Y97.64 E348.1155
G1 X97.64 Y85.88 E348.6687
G1 X98.21 Y85.88 E348.6876
G1 X85.88 Y98.21 E349.2676
G1 X85.88 Y98.78 E349.2865
G1 X98.78 Y85.88 E349.8933
G1 X99.35 Y85.88 E349.9123
G1 X85.88 Y99.35 E350.5459
G1 X85.88 Y99.92 E350.5649
G1 X99.92 Y85.88 E351.2253
G1 X100.49 Y85.88 E351.2442
G1 X85.88 Y100.49 E351.9314
G1 X85.88 Y101.05 E351.9501
G1 X101.05 Y85.88 E352.6636
G1 X101.62 Y85.88 E352.6826
G1 X85.88 Y101.62 E353.4230
G1 X85.88 Y102.19 E353.4419
G1 X102.19 Y85.88 E354.2091
G1 X102.76 Y85.88 E354.2281
G1 X85.88 Y102.76 E355.0221
G1 X85.88 Y103.33 E355.0411
G1 X103.33 Y85.88 E355.8618
G1 X103.90 Y85.88 E355.8808
G1 X85.88 Y103.90 E356.7284
G1 X85.88 Y104.47 E356.7474
G1 X104.47 Y85.88 E357.6218
G1 X105.03 Y85.88 E357.6404
G1 X85.88 Y105.03 E358.5412
G1 X85.88 Y105.60 E358.5601
G1 X105.60 Y85.88 E359.4877
G1 X106.17 Y85.88 E359.5066
G1 X85.88 Y106.17 E360.4610
G1 X85.88 Y106.74 E360.4800
G1 X106.74 Y85.88 E361.4612
G1 X107.31 Y85.88 E361.4801
G1 X85.88 Y107.31 E362.4881
G1 X85.88 Y107.88 E362.5071
G1 X107.88 Y85.88 E363.5419
G1 X108.45 Y85.88 E363.5609
G1 X85.88 Y108.45 E364.6225
G1 X85.88 Y109.01 E364.6411
G1 X109.01 Y85.88 E365.7291
G1 X109.58 Y85.88 E365.7481
G1 X85.88 Y109.58 E366.8629
G1 X85.88 Y110.15 E366.8818
G1 X110.15 Y85.88 E368.0234
G1 X110.72 Y85.88 E368.0424
G1 X85.88 Y110.72 E369.2108
G1 X85.88 Y111.29 E369.2297
G1 X111.29 Y85.88 E370.4250
G1 X111.86 Y85.88 E370.4440
G1 X85.88 Y111.86 E371.6660
G1 X85.88 Y112.43 E371.6849
G1 X112.43 Y85.88 E372.9338
G1 X112.99 Y85.88 E372.9524
G1 X85.88 Y112.99 E374.2276
G1 X85.88 Y113.56 E374.2465
G1 X113.56 Y85.88 E375.5485
G1 X114.13 Y85.88 E375.5675
G1 X85.88 Y114.13 E376.8963
G1 X85.88 Y114.70 E376.9152
G1 X114.70 Y85.88 E378.2708
G1 X115.27 Y85.88 E378.2898
G1 X85.88 Y115.27 E379.6722
G1 X85.88 Y115.84 E379.6912
G1 X115.84 Y85.88 E381.1004
G1 X116.40 Y85.88 E381.1190
G1 X85.88 Y116.40 E382.5546
G1 X85.88 Y116.97 E382.5735
G1 X116.97 Y85.88 E384.0359
G1 X117.54 Y85.88 E384.0549
G1 X85.88 Y117.54 E385.5441
G1 X85.88 Y118.11 E385.5630
G1 X118.11 Y85.88 E387.0791
G1 X118.68 Y85.88 E387.0980
G1 X85.88 Y118.68 E388.6408
G1 X85.88 Y119.25 E388.6598
G1 X119.25 Y85.88 E390.2294
G1 X119.82 Y85.88 E390.2484
G1 X85.88 Y119.82 E391.8448
G1 X85.88 Y120.38 E391.8634
G1 X120.38 Y85.88 E393.4862
G1 X120.95 Y85.88 E393.5052
G1 X85.88 Y120.95 E395.1548
G1 X85.88 Y121.52 E395.1737
G1 X121.52 Y85.88 E396.8502
G1 X122.09 Y85.88 E396.8691
G1 X85.88 Y122.09 E398.5724
G1 X85.88 Y122.66 E398.5913
G1 X122.66 Y85.88 E400.3214
G1 X123.23 Y85.88 E400.3403
G1 X85.88 Y123.23 E402.0972
G1 X85.88 Y123.80 E402.1161
G1 X123.80 Y85.88 E403.8998
G1 X124.36 Y85.88 E403.9184
G1 X85.88 Y124.36 E405.7283
G1 X85.88 Y124.93 E405.7473
G1 X124.93 Y85.88 E407.5841
G1 X125.50 Y85.88 E407.6031
G1 X85.88 Y125.50 E409.4667
G1 X85.88 Y126.07 E409.4856
G1 X126.07 Y85.88 E411.3761
G1 X126.64 Y85.88 E411.3950
G1 X85.88 Y126.64 E413.3122
G1 X85.88 Y127.21 E413.3312
G1 X127.21 Y85.88 E415.2752
G1 X127.77 Y85.88 E415.2939
G1 X85.88 Y127.77 E417.2642
G1 X85.88 Y128.34 E417.2832
G1 X128.34 Y85.88 E419.2804
G1 X128.91 Y85.88 E419.2994
G1 X85.88 Y128.91 E421.3234
G1 X85.88 Y129.48 E421.3423
G1 X129.48 Y85.88 E423.3932
G1 X130.05 Y85.88 E423.4121
G1 X85.88 Y130.05 E425.4897
G1 X85.88 Y130.62 E425.5087
G1 X130.62 Y85.88 E427.6132
G1 X131.19 Y85.88 E427.6321
G1 X85.88 Y131.19 E429.7634
G1 X85.88 Y131.75 E429.7820
G1 X131.75 Y85.88 E431.9396
G1 X132.32 Y85.88 E431.9586
G1 X85.88 Y132.32 E434.1430
G1 X85.88 Y132.89 E434.1619
