;FLAVOR:Marlin
;TIME:941
;Filament used: 1.08391m
;Layer height: 0.6
;MINX:9.401
;MINY:-39.596
;MINZ:0.6
;MAXX:18.596
;MAXY:39.583
;MAXZ:4.2
;TARGET_MACHINE.NAME:Unknown
;Generated with Cura_SteamEngine 5.10.1
M104 S210
M105
M109 S210
G92 E0
G28 ;Home
;Prime the extruder
G0 F1200 X20 Y60 Z50
G1 F200 E3
G92 E0
;Set feedrate percentage
M220 S80
M82 ;absolute extrusion mode
G92 E0
G92 E0
G1 F900 E-3
;LAYER_COUNT:7
;LAYER:0
M107
;MESH:Body1.obj
G0 F600 X16.907 Y39.538 Z0.6
;TYPE:WALL-OUTER
G1 F900 E0
G1 F300 X14.87 Y39.523 E0.50815
G1 X12.744 Y39.439 E1.03889
G1 X10.3 Y39.508 E1.64879
G1 X9.424 Y37.869 E2.11238
G1 X9.56 Y35.403 E2.72846
G1 X9.446 Y33.147 E3.29194
G1 X9.577 Y31.563 E3.68842
G1 X9.452 Y29.434 E4.22041
G1 X9.499 Y27.541 E4.69277
G1 X9.45 Y26.035 E5.06864
G1 X9.471 Y24.165 E5.53514
G1 X9.595 Y21.775 E6.13213
G1 X9.552 Y19.829 E6.61768
G1 X9.458 Y18.065 E7.05834
G1 X9.494 Y16.525 E7.4426
G1 X9.558 Y14.737 E7.8889
G1 X9.565 Y13.047 E8.31048
G1 X9.422 Y11.231 E8.76488
G1 X9.459 Y9.202 E9.2711
G1 X9.541 Y6.979 E9.82601
G1 X9.443 Y5.442 E10.2102
G1 X9.556 Y3.28 E10.75024
G1 X9.532 Y1.233 E11.26091
G1 X9.489 Y-.52 E11.69833
G1 X9.536 Y-2.161 E12.10784
G1 X9.467 Y-4.334 E12.65017
G1 X9.589 Y-6.156 E13.10569
G1 X9.506 Y-8.359 E13.65562
G1 X9.501 Y-9.894 E14.03853
G1 X9.488 Y-12.061 E14.5791
G1 X9.462 Y-14.43 E15.17008
G1 X9.474 Y-16.701 E15.7366
G1 X9.505 Y-18.648 E16.22234
G1 X9.484 Y-20.866 E16.77565
G1 X9.418 Y-22.787 E17.25512
G1 X9.447 Y-24.579 E17.7022
G1 X9.596 Y-26.981 E18.30253
G1 X9.564 Y-28.872 E18.77431
G1 X9.458 Y-31.199 E19.35539
G1 X9.509 Y-33.694 E19.9779
G1 X9.573 Y-36.155 E20.592
G1 X9.455 Y-37.936 E21.03725
G1 X10.141 Y-39.464 E21.45506
G1 X12.603 Y-39.558 E22.06966
G1 X14.581 Y-39.524 E22.56314
G1 X16.25 Y-39.5 E22.97952
G1 X18.084 Y-39.467 E23.43709
G1 X18.5 Y-39.5 E23.54119
G1 X18.436 Y-36.086 E24.39296
G1 X18.55 Y-34.295 E24.84063
G1 X18.441 Y-32.193 E25.36568
G1 X18.483 Y-30.098 E25.88839
G1 X18.537 Y-28.05 E26.39944
G1 X18.559 Y-25.926 E26.9293
G1 X18.455 Y-24.016 E27.40646
G1 X18.591 Y-21.754 E27.97174
G1 X18.568 Y-19.354 E28.57045
G1 X18.43 Y-17.441 E29.04889
G1 X18.546 Y-15.435 E29.55012
G1 X18.588 Y-13.513 E30.02968
G1 X18.558 Y-11.792 E30.45905
G1 X18.509 Y-10.083 E30.88554
G1 X18.583 Y-7.638 E31.49572
G1 X18.487 Y-5.385 E32.05825
G1 X18.537 Y-3.428 E32.54658
G1 X18.591 Y-1.921 E32.92275
G1 X18.43 Y-.314 E33.32562
G1 X18.524 Y2.152 E33.94121
G1 X18.55 Y4.593 E34.55016
G1 X18.452 Y6.443 E35.01229
G1 X18.574 Y7.974 E35.39541
G1 X18.567 Y10.129 E35.93298
G1 X18.436 Y11.984 E36.39686
G1 X18.49 Y13.645 E36.81142
G1 X18.512 Y16.131 E37.43158
G1 X18.573 Y17.728 E37.83024
G1 X18.429 Y20.005 E38.39938
G1 X18.472 Y21.775 E38.84104
G1 X18.545 Y24.199 E39.44598
G1 X18.586 Y25.72 E39.82553
G1 X18.506 Y27.893 E40.36796
G1 X18.53 Y30.37 E40.98588
G1 X18.458 Y32.574 E41.53596
G1 X18.515 Y34.713 E42.06973
G1 X18.541 Y37.046 E42.65173
G1 X18.482 Y39.475 E43.25783
G1 X16.907 Y39.538 E43.65103
G0 F600 X16.407 Y39.535
G0 X16.407 Y37.89
G0 X17.548 Y38.548
;TYPE:SKIN
G1 F300 X10.448 Y38.548 E45.42213
G1 X10.448 Y-38.548 E64.6538
G1 X17.548 Y-38.548 E66.42491
G1 X17.548 Y38.548 E85.65658
G0 F600 X16.92 Y37.92
G0 X11.178 Y37.89
G0 X11.178 Y38.048
G1 F300 X10.947 Y37.817 E85.73807
G0 F600 X11.11 Y37.817
G0 X11.11 Y36.403
G0 X10.947 Y36.403
G1 F300 X12.592 Y38.048 E86.31839
G0 F600 X12.592 Y37.89
G0 X14.006 Y37.89
G0 X14.006 Y38.048
G1 F300 X10.947 Y34.989 E87.39754
G0 F600 X11.11 Y34.989
G0 X11.11 Y33.575
G0 X10.947 Y33.575
G1 F300 X15.421 Y38.048 E88.97568
G0 F600 X15.421 Y37.89
G0 X16.835 Y37.89
G0 X16.835 Y38.048
G1 F300 X10.947 Y32.161 E91.05266
G0 F600 X11.11 Y32.161
G0 X11.11 Y30.746
G0 X10.947 Y30.746
G1 F300 X17.048 Y36.847 E93.20495
G0 F600 X16.89 Y36.847
G0 X16.89 Y35.433
G0 X17.048 Y35.433
G1 F300 X10.947 Y29.332 E95.35724
G0 F600 X11.11 Y29.332
G0 X11.11 Y27.918
G0 X10.947 Y27.918
G1 F300 X17.048 Y34.019 E97.50954
G0 F600 X16.89 Y34.019
G0 X16.89 Y32.605
G0 X17.048 Y32.605
G1 F300 X10.947 Y26.504 E99.66183
G0 F600 X11.11 Y26.504
G0 X11.11 Y25.09
G0 X10.947 Y25.09
G1 F300 X17.048 Y31.19 E101.81394
G0 F600 X16.89 Y31.19
G0 X16.89 Y29.776
G0 X17.048 Y29.776
G1 F300 X10.947 Y23.675 E103.96624
G0 F600 X11.11 Y23.675
G0 X11.11 Y22.261
G0 X10.947 Y22.261
G1 F300 X17.048 Y28.362 E106.11853
G0 F600 X16.89 Y28.362
G0 X16.89 Y26.948
G0 X17.048 Y26.948
G1 F300 X10.947 Y20.847 E108.27082
G0 F600 X11.11 Y20.847
G0 X11.11 Y19.433
G0 X10.947 Y19.433
G1 F300 X17.048 Y25.534 E110.42311
G0 F600 X16.89 Y25.534
G0 X16.89 Y24.119
G0 X17.048 Y24.119
G1 F300 X10.947 Y18.018 E112.57541
G0 F600 X11.11 Y18.018
G0 X11.11 Y16.604
G0 X10.947 Y16.604
G1 F300 X17.048 Y22.705 E114.7277
G0 F600 X16.89 Y22.705
G0 X16.89 Y21.291
G0 X17.048 Y21.291
G1 F300 X10.947 Y15.19 E116.87999
G0 F600 X11.11 Y15.19
G0 X11.11 Y13.776
G0 X10.947 Y13.776
G1 F300 X17.048 Y19.877 E119.03228
G0 F600 X16.89 Y19.877
G0 X16.89 Y18.463
G0 X17.048 Y18.463
G1 F300 X10.947 Y12.362 E121.18458
G0 F600 X11.11 Y12.362
G0 X11.11 Y10.947
G0 X10.947 Y10.947
G1 F300 X17.048 Y17.048 E123.33687
G0 F600 X16.89 Y17.048
G0 X16.89 Y15.634
G0 X17.048 Y15.634
G1 F300 X10.947 Y9.533 E125.48916
G0 F600 X11.11 Y9.533
G0 X11.11 Y8.119
G0 X10.947 Y8.119
G1 F300 X17.048 Y14.22 E127.64145
G0 F600 X16.89 Y14.22
G0 X16.89 Y12.806
G0 X17.048 Y12.806
G1 F300 X10.947 Y6.705 E129.79375
G0 F600 X11.11 Y6.705
G0 X11.11 Y5.291
G0 X10.947 Y5.291
G1 F300 X17.048 Y11.391 E131.94586
G0 F600 X16.89 Y11.391
G0 X16.89 Y9.977
G0 X17.048 Y9.977
G1 F300 X10.947 Y3.876 E134.09816
G0 F600 X11.11 Y3.876
G0 X11.11 Y2.462
G0 X10.947 Y2.462
G1 F300 X17.048 Y8.563 E136.25045
G0 F600 X16.89 Y8.563
G0 X16.89 Y7.149
G0 X17.048 Y7.149
G1 F300 X10.947 Y1.048 E138.40274
G0 F600 X11.11 Y1.048
G0 X11.11 Y-.366
G0 X10.947 Y-.366
G1 F300 X17.048 Y5.735 E140.55503
G0 F600 X16.89 Y5.735
G0 X16.89 Y4.32
G0 X17.048 Y4.32
G1 F300 X10.947 Y-1.78 E142.70715
G0 F600 X11.11 Y-1.78
G0 X11.11 Y-3.195
G0 X10.947 Y-3.195
G1 F300 X17.048 Y2.906 E144.85944
G0 F600 X16.89 Y2.906
G0 X16.89 Y1.492
G0 X17.048 Y1.492
G1 F300 X10.947 Y-4.609 E147.01173
G0 F600 X11.11 Y-4.609
G0 X11.11 Y-6.023
G0 X10.947 Y-6.023
G1 F300 X17.048 Y0.078 E149.16403
G0 F600 X16.89 Y0.078
G0 X16.89 Y-1.336
G0 X17.048 Y-1.336
G1 F300 X10.947 Y-7.437 E151.31632
G0 F600 X11.11 Y-7.437
G0 X11.11 Y-8.852
G0 X10.947 Y-8.852
G1 F300 X17.048 Y-2.751 E153.46861
G0 F600 X16.89 Y-2.751
G0 X16.89 Y-4.165
G0 X17.048 Y-4.165
G1 F300 X10.947 Y-10.266 E155.6209
G0 F600 X11.11 Y-10.266
G0 X11.11 Y-11.68
G0 X10.947 Y-11.68
G1 F300 X17.048 Y-5.579 E157.7732
G0 F600 X16.89 Y-5.579
G0 X16.89 Y-6.993
G0 X17.048 Y-6.993
G1 F300 X10.947 Y-13.094 E159.92549
G0 F600 X11.11 Y-13.094
G0 X11.11 Y-14.508
G0 X10.947 Y-14.508
G1 F300 X17.048 Y-8.407 E162.07778
G0 F600 X16.89 Y-8.407
G0 X16.89 Y-9.822
G0 X17.048 Y-9.822
G1 F300 X10.947 Y-15.923 E164.23007
G0 F600 X11.11 Y-15.923
G0 X11.11 Y-17.337
G0 X10.947 Y-17.337
G1 F300 X17.048 Y-11.236 E166.38237
G0 F600 X16.89 Y-11.236
G0 X16.89 Y-12.65
G0 X17.048 Y-12.65
G1 F300 X10.947 Y-18.751 E168.53466
G0 F600 X11.11 Y-18.751
G0 X11.11 Y-20.165
G0 X10.947 Y-20.165
G1 F300 X17.048 Y-14.064 E170.68695
G0 F600 X16.89 Y-14.064
G0 X16.89 Y-15.479
G0 X17.048 Y-15.479
G1 F300 X10.947 Y-21.579 E172.83907
G0 F600 X11.11 Y-21.579
G0 X11.11 Y-22.994
G0 X10.947 Y-22.994
G1 F300 X17.048 Y-16.893 E174.99136
G0 F600 X16.89 Y-16.893
G0 X16.89 Y-18.307
G0 X17.048 Y-18.307
G1 F300 X10.947 Y-24.408 E177.14365
G0 F600 X11.11 Y-24.408
G0 X11.11 Y-25.822
G0 X10.947 Y-25.822
G1 F300 X17.048 Y-19.721 E179.29595
G0 F600 X16.89 Y-19.721
G0 X16.89 Y-21.135
G0 X17.048 Y-21.135
G1 F300 X10.947 Y-27.236 E181.44824
G0 F600 X11.11 Y-27.236
G0 X11.11 Y-28.651
G0 X10.947 Y-28.651
G1 F300 X17.048 Y-22.55 E183.60053
G0 F600 X16.89 Y-22.55
G0 X16.89 Y-23.964
G0 X17.048 Y-23.964
G1 F300 X10.947 Y-30.065 E185.75282
G0 F600 X11.11 Y-30.065
G0 X11.11 Y-31.479
G0 X10.947 Y-31.479
G1 F300 X17.048 Y-25.378 E187.90512
G0 F600 X16.89 Y-25.378
G0 X16.89 Y-26.792
G0 X17.048 Y-26.792
G1 F300 X10.947 Y-32.893 E190.05741
G0 F600 X11.11 Y-32.893
G0 X11.11 Y-34.307
G0 X10.947 Y-34.307
G1 F300 X17.048 Y-28.206 E192.2097
G0 F600 X16.89 Y-28.206
G0 X16.89 Y-29.621
G0 X17.048 Y-29.621
G1 F300 X10.947 Y-35.722 E194.36199
G0 F600 X11.11 Y-35.722
G0 X11.11 Y-37.136
G0 X10.947 Y-37.136
G1 F300 X17.048 Y-31.035 E196.51429
G0 F600 X16.89 Y-31.035
G0 X16.89 Y-32.449
G0 X17.048 Y-32.449
G1 F300 X11.449 Y-38.048 E198.48948
G0 F600 X11.449 Y-37.89
G0 X12.864 Y-37.89
G0 X12.864 Y-38.048
G1 F300 X17.048 Y-33.863 E199.96568
G0 F600 X16.89 Y-33.863
G0 X16.89 Y-35.278
G0 X17.048 Y-35.278
G1 F300 X14.278 Y-38.048 E200.94287
G0 F600 X14.278 Y-37.89
G0 X15.692 Y-37.89
G0 X15.692 Y-38.048
G1 F300 X17.048 Y-36.692 E201.42124
G0 F600 X15.99 Y-36.692
;MESH:NONMESH
G0 F360 X15.99 Y-36.692 Z1.2
G0 F600 X14.896 Y37.89
G0 X14.896 Y39.421
;TIME_ELAPSED:186.798850
;LAYER:1
M106 S255
;TYPE:WALL-OUTER
;MESH:Body1.obj
G1 F300 X12.745 Y39.522 E201.9584
G1 X10.247 Y39.481 E202.58161
G1 X9.556 Y38.331 E202.91628
G1 X9.531 Y36.689 E203.32593
G1 X9.525 Y34.756 E203.80812
G1 X9.438 Y32.37 E204.4037
G1 X9.472 Y30.224 E204.93909
G1 X9.528 Y28.669 E205.32724
G1 X9.598 Y26.535 E205.85986
G1 X9.444 Y24.524 E206.36297
G1 X9.585 Y22.136 E206.9597
G1 X9.442 Y20.445 E207.38303
G1 X9.41 Y18.288 E207.92115
G1 X9.562 Y16.609 E208.34169
G1 X9.462 Y14.817 E208.7894
G1 X9.528 Y12.695 E209.31899
G1 X9.591 Y11.038 E209.73263
G1 X9.411 Y8.74 E210.30763
G1 X9.402 Y6.959 E210.7519
G1 X9.42 Y4.663 E211.32466
G1 X9.542 Y2.545 E211.85388
G1 X9.552 Y0.845 E212.27795
G1 X9.486 Y-1.158 E212.77787
G1 X9.477 Y-3.245 E213.29848
G1 X9.507 Y-5.088 E213.75828
G1 X9.405 Y-7.073 E214.25409
G1 X9.411 Y-9.275 E214.80339
G1 X9.556 Y-11.384 E215.33072
G1 X9.576 Y-12.892 E215.70693
G1 X9.402 Y-14.695 E216.15877
G1 X9.481 Y-16.751 E216.67202
G1 X9.6 Y-18.5 E217.10932
G1 X9.465 Y-20.451 E217.59717
G1 X9.491 Y-22.567 E218.12504
G1 X9.587 Y-24.581 E218.62801
G1 X9.49 Y-26.698 E219.15665
G1 X9.593 Y-28.619 E219.63653
G1 X9.552 Y-30.602 E220.1313
G1 X9.472 Y-32.995 E220.72857
G1 X9.473 Y-34.962 E221.21924
G1 X9.5 Y-37.25 E221.79002
G1 X9.688 Y-39.418 E222.33286
G1 X12.187 Y-39.453 E222.9563
G1 X14.421 Y-39.481 E223.51362
G1 X16.405 Y-39.468 E224.00854
G1 X18.104 Y-39.548 E224.43283
G1 X18.5 Y-39.5 E224.53233
G1 X18.432 Y-35.646 E225.49387
G1 X18.512 Y-33.338 E226.06995
G1 X18.585 Y-31.785 E226.45777
G1 X18.513 Y-29.93 E226.92085
G1 X18.586 Y-28.167 E227.36101
G1 X18.516 Y-25.996 E227.90285
G1 X18.514 Y-23.795 E228.45189
G1 X18.455 Y-21.561 E229.00936
G1 X18.488 Y-19.779 E229.45396
G1 X18.486 Y-18.174 E229.85433
G1 X18.497 Y-16.258 E230.33228
G1 X18.593 Y-14.563 E230.75578
G1 X18.466 Y-12.114 E231.36751
G1 X18.549 Y-10.177 E231.85114
G1 X18.487 Y-8.148 E232.35751
G1 X18.479 Y-5.652 E232.98014
G1 X18.539 Y-3.729 E233.46007
G1 X18.518 Y-1.476 E234.02211
G1 X18.545 Y0.084 E234.41131
G1 X18.441 Y2.096 E234.91388
G1 X18.434 Y4.145 E235.425
G1 X18.425 Y6.2 E235.93763
G1 X18.568 Y8.392 E236.48559
G1 X18.576 Y10.221 E236.94184
G1 X18.521 Y11.91 E237.36339
G1 X18.569 Y13.564 E237.77615
G1 X18.432 Y15.996 E238.38378
G1 X18.417 Y18.253 E238.9468
G1 X18.488 Y20.179 E239.42757
G1 X18.582 Y21.964 E239.87346
G1 X18.402 Y24.049 E240.3955
G1 X18.455 Y25.972 E240.87537
G1 X18.401 Y28.261 E241.44653
G1 X18.461 Y30.449 E241.99253
G1 X18.403 Y32.818 E242.58366
G1 X18.4 Y34.828 E243.08505
G1 X18.475 Y37.04 E243.63716
G1 X18.492 Y38.929 E244.10839
G1 X17.095 Y39.557 E244.49046
G1 X14.896 Y39.421 E245.04005
G0 F600 X14.397 Y39.444
G0 X14.397 Y37.89
G0 X16.92 Y37.92
G0 X17.548 Y38.548
;TYPE:SKIN
G1 F300 X10.448 Y38.548 E246.81116
G1 X10.448 Y-38.548 E266.04283
G1 X17.548 Y-38.548 E267.81393
G1 X17.548 Y38.548 E287.04561
G0 F600 X16.92 Y37.92
G0 X15.692 Y37.89
G0 X15.692 Y38.048
G1 F300 X17.048 Y36.692 E287.52397
G0 F600 X16.89 Y36.692
G0 X16.89 Y35.278
G0 X17.048 Y35.278
G1 F300 X14.278 Y38.048 E288.50117
G0 F600 X14.278 Y37.89
G0 X12.864 Y37.89
G0 X12.864 Y38.048
G1 F300 X17.048 Y33.863 E289.97736
G0 F600 X16.89 Y33.863
G0 X16.89 Y32.449
G0 X17.048 Y32.449
G1 F300 X11.449 Y38.048 E291.95256
G0 F600 X11.449 Y37.89
G0 X11.11 Y37.136
G0 X10.947 Y37.136
G1 F300 X17.048 Y31.035 E294.10485
G0 F600 X16.89 Y31.035
G0 X16.89 Y29.621
G0 X17.048 Y29.621
G1 F300 X10.947 Y35.722 E296.25715
G0 F600 X11.11 Y35.722
G0 X11.11 Y34.307
G0 X10.947 Y34.307
G1 F300 X17.048 Y28.206 E298.40944
G0 F600 X16.89 Y28.206
G0 X16.89 Y26.792
G0 X17.048 Y26.792
G1 F300 X10.947 Y32.893 E300.56173
G0 F600 X11.11 Y32.893
G0 X11.11 Y31.479
G0 X10.947 Y31.479
G1 F300 X17.048 Y25.378 E302.71402
G0 F600 X16.89 Y25.378
G0 X16.89 Y23.964
G0 X17.048 Y23.964
G1 F300 X10.947 Y30.065 E304.86632
G0 F600 X11.11 Y30.065
G0 X11.11 Y28.651
G0 X10.947 Y28.651
G1 F300 X17.048 Y22.55 E307.01861
G0 F600 X16.89 Y22.55
G0 X16.89 Y21.135
G0 X17.048 Y21.135
G1 F300 X10.947 Y27.236 E309.1709
G0 F600 X11.11 Y27.236
G0 X11.11 Y25.822
G0 X10.947 Y25.822
G1 F300 X17.048 Y19.721 E311.32319
G0 F600 X16.89 Y19.721
G0 X16.89 Y18.307
G0 X17.048 Y18.307
G1 F300 X10.947 Y24.408 E313.47549
G0 F600 X11.11 Y24.408
G0 X11.11 Y22.994
G0 X10.947 Y22.994
G1 F300 X17.048 Y16.893 E315.62778
G0 F600 X16.89 Y16.893
G0 X16.89 Y15.479
G0 X17.048 Y15.479
G1 F300 X10.947 Y21.579 E317.77989
G0 F600 X11.11 Y21.579
G0 X11.11 Y20.165
G0 X10.947 Y20.165
G1 F300 X17.048 Y14.064 E319.93219
G0 F600 X16.89 Y14.064
G0 X16.89 Y12.65
G0 X17.048 Y12.65
G1 F300 X10.947 Y18.751 E322.08448
G0 F600 X11.11 Y18.751
G0 X11.11 Y17.337
G0 X10.947 Y17.337
G1 F300 X17.048 Y11.236 E324.23677
G0 F600 X16.89 Y11.236
G0 X16.89 Y9.822
G0 X17.048 Y9.822
G1 F300 X10.947 Y15.923 E326.38906
G0 F600 X11.11 Y15.923
G0 X11.11 Y14.508
G0 X10.947 Y14.508
G1 F300 X17.048 Y8.407 E328.54136
G0 F600 X16.89 Y8.407
G0 X16.89 Y6.993
G0 X17.048 Y6.993
G1 F300 X10.947 Y13.094 E330.69365
G0 F600 X11.11 Y13.094
G0 X11.11 Y11.68
G0 X10.947 Y11.68
G1 F300 X17.048 Y5.579 E332.84594
G0 F600 X16.89 Y5.579
G0 X16.89 Y4.165
G0 X17.048 Y4.165
G1 F300 X10.947 Y10.266 E334.99823
G0 F600 X11.11 Y10.266
G0 X11.11 Y8.852
G0 X10.947 Y8.852
G1 F300 X17.048 Y2.751 E337.15053
G0 F600 X16.89 Y2.751
G0 X16.89 Y1.336
G0 X17.048 Y1.336
G1 F300 X10.947 Y7.437 E339.30282
G0 F600 X11.11 Y7.437
G0 X11.11 Y6.023
G0 X10.947 Y6.023
G1 F300 X17.048 Y-0.078 E341.45511
G0 F600 X16.89 Y-0.078
G0 X16.89 Y-1.492
G0 X17.048 Y-1.492
G1 F300 X10.947 Y4.609 E343.6074
G0 F600 X11.11 Y4.609
G0 X11.11 Y3.195
G0 X10.947 Y3.195
G1 F300 X17.048 Y-2.906 E345.7597
G0 F600 X16.89 Y-2.906
G0 X16.89 Y-4.32
G0 X17.048 Y-4.32
G1 F300 X10.947 Y1.78 E347.91181
G0 F600 X11.11 Y1.78
G0 X11.11 Y0.366
G0 X10.947 Y0.366
G1 F300 X17.048 Y-5.735 E350.06411
G0 F600 X16.89 Y-5.735
G0 X16.89 Y-7.149
G0 X17.048 Y-7.149
G1 F300 X10.947 Y-1.048 E352.2164
G0 F600 X11.11 Y-1.048
G0 X11.11 Y-2.462
G0 X10.947 Y-2.462
G1 F300 X17.048 Y-8.563 E354.36869
G0 F600 X16.89 Y-8.563
G0 X16.89 Y-9.977
G0 X17.048 Y-9.977
G1 F300 X10.947 Y-3.876 E356.52098
G0 F600 X11.11 Y-3.876
G0 X11.11 Y-5.291
G0 X10.947 Y-5.291
G1 F300 X17.048 Y-11.391 E358.6731
G0 F600 X16.89 Y-11.391
G0 X16.89 Y-12.806
G0 X17.048 Y-12.806
G1 F300 X10.947 Y-6.705 E360.82539
G0 F600 X11.11 Y-6.705
G0 X11.11 Y-8.119
G0 X10.947 Y-8.119
G1 F300 X17.048 Y-14.22 E362.97768
G0 F600 X16.89 Y-14.22
G0 X16.89 Y-15.634
G0 X17.048 Y-15.634
G1 F300 X10.947 Y-9.533 E365.12998
G0 F600 X11.11 Y-9.533
G0 X11.11 Y-10.947
G0 X10.947 Y-10.947
G1 F300 X17.048 Y-17.048 E367.28227
G0 F600 X16.89 Y-17.048
G0 X16.89 Y-18.463
G0 X17.048 Y-18.463
G1 F300 X10.947 Y-12.362 E369.43456
G0 F600 X11.11 Y-12.362
G0 X11.11 Y-13.776
G0 X10.947 Y-13.776
G1 F300 X17.048 Y-19.877 E371.58685
G0 F600 X16.89 Y-19.877
G0 X16.89 Y-21.291
G0 X17.048 Y-21.291
G1 F300 X10.947 Y-15.19 E373.73915
G0 F600 X11.11 Y-15.19
G0 X11.11 Y-16.604
G0 X10.947 Y-16.604
G1 F300 X17.048 Y-22.705 E375.89144
G0 F600 X16.89 Y-22.705
G0 X16.89 Y-24.119
G0 X17.048 Y-24.119
G1 F300 X10.947 Y-18.018 E378.04373
G0 F600 X11.11 Y-18.018
G0 X11.11 Y-19.433
G0 X10.947 Y-19.433
G1 F300 X17.048 Y-25.534 E380.19602
G0 F600 X16.89 Y-25.534
G0 X16.89 Y-26.948
G0 X17.048 Y-26.948
