;FLAVOR:Marlin
;TIME:697
;Filament used: 0.856909m
;Layer height: 0.6
;MINX:1.5
;MINY:-15.5
;MINZ:0.6
;MAXX:22.5
;MAXY:15.5
;MAXZ:19.8
;TARGET_MACHINE.NAME:Unknown
;Generated with Cura_SteamEngine 5.10.1
M104 S210
M105
M109 S210
G28 ;Home
;Prime the extruder
G0 F1200 X20 Y60 Z50
G1 F200 E3
G92 E0
;Set feedrate percentage
M220 S62.5
M82 ;absolute extrusion mode
G1 F900 E-3
;LAYER_COUNT:33
;LAYER:0
M107
;MESH:test_square_tube.obj
G0 F600 X22.087 Y15.497 Z0.6
;TYPE:WALL-OUTER
G1 F900 E0
G1 F297.6 X12.043 Y15.499 E2.52553
G1 F299.4 X1.999 Y15.5 E5.03603
G1 F276.5 X1.586 Y15.414 E5.1502
G1 F275.2 X1.503 Y15.087 E5.24194
G1 F297.6 X1.501 Y0.043 E9.0247
G1 F299.4 X1.5 Y-15.001 E12.78495
G1 F276.5 X1.586 Y-15.414 E12.89912
G1 F275.2 X1.913 Y-15.497 E12.99085
G1 F297.6 X11.957 Y-15.499 E15.51638
G1 F299.4 X22.001 Y-15.5 E18.02688
G1 F276.2 X22.414 Y-15.414 E18.14116
G1 X22.5 Y-15 E18.25571
G1 F299.1 X22.497 Y15.087 E25.78346
G1 F275.5 X22.414 Y15.414 E25.87511
G1 F275 X22.087 Y15.497 E25.96692
;TIME_ELAPSED:25.914267
;LAYER:1
M106 S255
;MESH:test_square_tube.obj
G0 F600 X22.087 Y15.497 Z1.2
;TYPE:WALL-OUTER
G1 F297.6 X12.043 Y15.499 E28.49245
G1 F299.4 X1.999 Y15.5 E31.00295
G1 F276.5 X1.586 Y15.414 E31.11713
G1 F275.2 X1.503 Y15.087 E31.20886
G1 F297.6 X1.501 Y0.043 E34.99162
G1 F299.4 X1.5 Y-15.001 E38.75187
G1 F276.5 X1.586 Y-15.414 E38.86605
G1 F275.2 X1.913 Y-15.497 E38.95778
G1 F297.6 X11.957 Y-15.499 E41.48331
G1 F299.4 X22.001 Y-15.5 E43.99381
G1 F276.2 X22.414 Y-15.414 E44.10809
G1 X22.5 Y-15 E44.22264
G1 F299.1 X22.497 Y15.087 E51.75039
G1 F275.5 X22.414 Y15.414 E51.84203
G1 F275 X22.087 Y15.497 E51.93385
;TIME_ELAPSED:46.885668
;LAYER:2
;MESH:test_square_tube.obj
G0 F600 X22.087 Y15.497 Z1.8
;TYPE:WALL-OUTER
G1 F297.6 X12.043 Y15.499 E54.45938
G1 F299.4 X1.999 Y15.5 E56.96988
G1 F276.5 X1.586 Y15.414 E57.08405
G1 F275.2 X1.503 Y15.087 E57.17578
G1 F297.6 X1.501 Y0.043 E60.95855
G1 F299.4 X1.5 Y-15.001 E64.71879
G1 F276.5 X1.586 Y-15.414 E64.83297
G1 F275.2 X1.913 Y-15.497 E64.9247
G1 F297.6 X11.957 Y-15.499 E67.45023
G1 F299.4 X22.001 Y-15.5 E69.96073
G1 F276.2 X22.414 Y-15.414 E70.07501
G1 X22.5 Y-15 E70.18956
G1 F299.1 X22.497 Y15.087 E77.71731
G1 F275.5 X22.414 Y15.414 E77.80896
G1 F275 X22.087 Y15.497 E77.90077
;TIME_ELAPSED:67.857069
;LAYER:3
;MESH:test_square_tube.obj
G0 F600 X22.087 Y15.497 Z2.4
;TYPE:WALL-OUTER
G1 F297.6 X12.043 Y15.499 E80.4263
G1 F299.4 X1.999 Y15.5 E82.9368
G1 F276.5 X1.586 Y15.414 E83.05098
G1 F275.2 X1.503 Y15.087 E83.14271
G1 F297.6 X1.501 Y0.043 E86.92547
G1 F299.4 X1.5 Y-15.001 E90.68572
G1 F276.5 X1.586 Y-15.414 E90.7999
G1 F275.2 X1.913 Y-15.497 E90.89163
G1 F297.6 X11.957 Y-15.499 E93.41716
G1 F299.4 X22.001 Y-15.5 E95.92765
G1 F276.2 X22.414 Y-15.414 E96.04194
G1 X22.5 Y-15 E96.15649
G1 F299.1 X22.497 Y15.087 E103.68423
G1 F275.5 X22.414 Y15.414 E103.77588
G1 F275 X22.087 Y15.497 E103.8677
;TIME_ELAPSED:88.828470
;LAYER:4
;MESH:test_square_tube.obj
G0 F600 X22.087 Y15.497 Z3
;TYPE:WALL-OUTER
G1 F297.6 X12.043 Y15.499 E106.39323
G1 F299.4 X1.999 Y15.5 E108.90372
G1 F276.5 X1.586 Y15.414 E109.0179
G1 F275.2 X1.503 Y15.087 E109.10963
G1 F297.6 X1.501 Y0.043 E112.8924
G1 F299.4 X1.5 Y-15.001 E116.65264
G1 F276.5 X1.586 Y-15.414 E116.76682
G1 F275.2 X1.913 Y-15.497 E116.85855
G1 F297.6 X11.957 Y-15.499 E119.38408
G1 F299.4 X22.001 Y-15.5 E121.89458
G1 F276.2 X22.414 Y-15.414 E122.00886
G1 X22.5 Y-15 E122.12341
G1 F299.1 X22.497 Y15.087 E129.65116
G1 F275.5 X22.414 Y15.414 E129.74281
G1 F275 X22.087 Y15.497 E129.83462
;TIME_ELAPSED:109.799872
;LAYER:5
;MESH:test_square_tube.obj
G0 F600 X22.087 Y15.497 Z3.6
;TYPE:WALL-OUTER
G1 F297.6 X12.043 Y15.499 E132.36015
G1 F299.4 X1.999 Y15.5 E134.87065
G1 F276.5 X1.586 Y15.414 E134.98483
G1 F275.2 X1.503 Y15.087 E135.07656
G1 F297.6 X1.501 Y0.043 E138.85932
G1 F299.4 X1.5 Y-15.001 E142.61957
G1 F276.5 X1.586 Y-15.414 E142.73374
G1 F275.2 X1.913 Y-15.497 E142.82548
G1 F297.6 X11.957 Y-15.499 E145.35101
G1 F299.4 X22.001 Y-15.5 E147.8615
G1 F276.2 X22.414 Y-15.414 E147.97579
G1 X22.5 Y-15 E148.09033
G1 F299.1 X22.497 Y15.087 E155.61808
G1 F275.5 X22.414 Y15.414 E155.70973
G1 F275 X22.087 Y15.497 E155.80154
;TIME_ELAPSED:130.771273
;LAYER:6
;MESH:test_square_tube.obj
G0 F600 X22.087 Y15.497 Z4.2
;TYPE:WALL-OUTER
G1 F297.6 X12.043 Y15.499 E158.32707
G1 F299.4 X1.999 Y15.5 E160.83757
G1 F276.5 X1.586 Y15.414 E160.95175
G1 F275.2 X1.503 Y15.087 E161.04348
G1 F297.6 X1.501 Y0.043 E164.82624
G1 F299.4 X1.5 Y-15.001 E168.58649
G1 F276.5 X1.586 Y-15.414 E168.70067
G1 F275.2 X1.913 Y-15.497 E168.7924
G1 F297.6 X11.957 Y-15.499 E171.31793
G1 F299.4 X22.001 Y-15.5 E173.82843
G1 F276.2 X22.414 Y-15.414 E173.94271
G1 X22.5 Y-15 E174.05726
G1 F299.1 X22.497 Y15.087 E181.58501
G1 F275.5 X22.414 Y15.414 E181.67665
G1 F275 X22.087 Y15.497 E181.76847
;TIME_ELAPSED:151.742674
;LAYER:7
;MESH:test_square_tube.obj
G0 F600 X22.087 Y15.497 Z4.8
;TYPE:WALL-OUTER
G1 F297.6 X12.043 Y15.499 E184.294
G1 F299.4 X1.999 Y15.5 E186.8045
G1 F276.5 X1.586 Y15.414 E186.91867
G1 F275.2 X1.503 Y15.087 E187.0104
G1 F297.6 X1.501 Y0.043 E190.79317
G1 F299.4 X1.5 Y-15.001 E194.55341
G1 F276.5 X1.586 Y-15.414 E194.66759
G1 F275.2 X1.913 Y-15.497 E194.75932
G1 F297.6 X11.957 Y-15.499 E197.28485
G1 F299.4 X22.001 Y-15.5 E199.79535
G1 F276.2 X22.414 Y-15.414 E199.90963
G1 X22.5 Y-15 E200.02418
G1 F299.1 X22.497 Y15.087 E207.55193
G1 F275.5 X22.414 Y15.414 E207.64358
G1 F275 X22.087 Y15.497 E207.73539
;TIME_ELAPSED:172.714076
;LAYER:8
;MESH:test_square_tube.obj
G0 F600 X22.087 Y15.497 Z5.4
;TYPE:WALL-OUTER
G1 F297.6 X12.043 Y15.499 E210.26092
G1 F299.4 X1.999 Y15.5 E212.77142
G1 F276.5 X1.586 Y15.414 E212.8856
G1 F275.2 X1.503 Y15.087 E212.97733
G1 F297.6 X1.501 Y0.043 E216.76009
G1 F299.4 X1.5 Y-15.001 E220.52034
G1 F276.5 X1.586 Y-15.414 E220.63452
G1 F275.2 X1.913 Y-15.497 E220.72625
G1 F297.6 X11.957 Y-15.499 E223.25178
G1 F299.4 X22.001 Y-15.5 E225.76227
G1 F276.2 X22.414 Y-15.414 E225.87656
G1 X22.5 Y-15 E225.99111
G1 F299.1 X22.497 Y15.087 E233.51885
G1 F275.5 X22.414 Y15.414 E233.6105
G1 F275 X22.087 Y15.497 E233.70232
;TIME_ELAPSED:193.685477
;LAYER:9
;MESH:test_square_tube.obj
G0 F600 X22.087 Y15.497 Z6
;TYPE:WALL-OUTER
G1 F297.6 X12.043 Y15.499 E236.22785
G1 F299.4 X1.999 Y15.5 E238.73834
G1 F276.5 X1.586 Y15.414 E238.85252
G1 F275.2 X1.503 Y15.087 E238.94425
G1 F297.6 X1.501 Y0.043 E242.72702
G1 F299.4 X1.5 Y-15.001 E246.48726
G1 F276.5 X1.586 Y-15.414 E246.60144
G1 F275.2 X1.913 Y-15.497 E246.69317
G1 F297.6 X11.957 Y-15.499 E249.2187
G1 F299.4 X22.001 Y-15.5 E251.7292
G1 F276.2 X22.414 Y-15.414 E251.84348
G1 X22.5 Y-15 E251.95803
G1 F299.1 X22.497 Y15.087 E259.48578
G1 F275.5 X22.414 Y15.414 E259.57743
G1 F275 X22.087 Y15.497 E259.66924
;MESH:NONMESH
G0 F360 X22.087 Y15.497 Z6.6
G0 F600 X22.414 Y15.414
;TIME_ELAPSED:214.842695
;LAYER:10
;TYPE:WALL-OUTER
;MESH:test_square_tube.obj
G1 F275.5 X22.497 Y15.087 E259.76089
G1 F299.1 X22.5 Y-15 E267.28864
G1 F276.2 X22.414 Y-15.414 E267.40319
G1 X22 Y-15.5 E267.51773
G1 F299.4 X11.956 Y-15.498 E270.02823
G1 F297.6 X1.912 Y-15.497 E272.55376
G1 F275.2 X1.586 Y-15.414 E272.64523
G1 F276.5 X1.5 Y-15 E272.75967
G1 F299.4 X1.502 Y0.044 E276.51992
G1 F297.6 X1.503 Y15.088 E280.30268
G1 F275.2 X1.586 Y15.414 E280.39415
G1 F276.5 X2 Y15.5 E280.50859
G1 F299.4 X12.044 Y15.498 E283.01909
G1 F297.6 X22.088 Y15.497 E285.54462
G1 F275 X22.414 Y15.414 E285.63617
;MESH:NONMESH
G0 F360 X22.414 Y15.414 Z7.2
G0 F600 X22.087 Y15.497
;TIME_ELAPSED:235.848363
;LAYER:11
;TYPE:WALL-OUTER
;MESH:test_square_tube.obj
G1 F297.6 X12.043 Y15.499 E288.1617
G1 F299.4 X1.999 Y15.5 E290.6722
G1 F276.5 X1.586 Y15.414 E290.78637
G1 F275.2 X1.503 Y15.087 E290.87811
G1 F297.6 X1.501 Y0.043 E294.66087
G1 F299.4 X1.5 Y-15.001 E298.42112
G1 F276.5 X1.586 Y-15.414 E298.53529
G1 F275.2 X1.913 Y-15.497 E298.62702
G1 F297.6 X11.957 Y-15.499 E301.15255
G1 F299.4 X22.001 Y-15.5 E303.66305
G1 F276.2 X22.414 Y-15.414 E303.77733
G1 X22.5 Y-15 E303.89188
G1 F299.1 X22.497 Y15.087 E311.41963
G1 F275.5 X22.414 Y15.414 E311.51128
G1 F275 X22.087 Y15.497 E311.60309
;TIME_ELAPSED:256.668207
;LAYER:12
;MESH:test_square_tube.obj
G0 F600 X22.087 Y15.497 Z7.8
;TYPE:WALL-OUTER
G1 F297.6 X12.043 Y15.499 E314.12862
G1 F299.4 X1.999 Y15.5 E316.63912
G1 F276.5 X1.586 Y15.414 E316.7533
G1 F275.2 X1.503 Y15.087 E316.84503
G1 F297.6 X1.501 Y0.043 E320.62779
G1 F299.4 X1.5 Y-15.001 E324.38804
G1 F276.5 X1.586 Y-15.414 E324.50222
G1 F275.2 X1.913 Y-15.497 E324.59395
G1 F297.6 X11.957 Y-15.499 E327.11948
G1 F299.4 X22.001 Y-15.5 E329.62998
G1 F276.2 X22.414 Y-15.414 E329.74426
G1 X22.5 Y-15 E329.85881
G1 F299.1 X22.497 Y15.087 E337.38656
G1 F275.5 X22.414 Y15.414 E337.4782
G1 F275 X22.087 Y15.497 E337.57002
;TIME_ELAPSED:277.639608
;LAYER:13
;MESH:test_square_tube.obj
G0 F600 X22.087 Y15.497 Z8.4
;TYPE:WALL-OUTER
G1 F297.6 X12.043 Y15.499 E340.09555
G1 F299.4 X1.999 Y15.5 E342.60604
G1 F276.5 X1.586 Y15.414 E342.72022
G1 F275.2 X1.503 Y15.087 E342.81195
G1 F297.6 X1.501 Y0.043 E346.59472
G1 F299.4 X1.5 Y-15.001 E350.35496
G1 F276.5 X1.586 Y-15.414 E350.46914
G1 F275.2 X1.913 Y-15.497 E350.56087
G1 F297.6 X11.957 Y-15.499 E353.0864
G1 F299.4 X22.001 Y-15.5 E355.5969
G1 F276.2 X22.414 Y-15.414 E355.71118
G1 X22.5 Y-15 E355.82573
G1 F299.1 X22.497 Y15.087 E363.35348
G1 F275.5 X22.414 Y15.414 E363.44513
G1 F275 X22.087 Y15.497 E363.53694
;TIME_ELAPSED:298.611009
;LAYER:14
;MESH:test_square_tube.obj
G0 F600 X22.087 Y15.497 Z9
;TYPE:WALL-OUTER
G1 F297.6 X12.043 Y15.499 E366.06247
G1 F299.4 X1.999 Y15.5 E368.57297
G1 F276.5 X1.586 Y15.414 E368.68715
G1 F275.2 X1.503 Y15.087 E368.77888
G1 F297.6 X1.501 Y0.043 E372.56164
G1 F299.4 X1.5 Y-15.001 E376.32189
G1 F276.5 X1.586 Y-15.414 E376.43607
G1 F275.2 X1.913 Y-15.497 E376.5278
G1 F297.6 X11.957 Y-15.499 E379.05333
G1 F299.4 X22.001 Y-15.5 E381.56382
G1 F276.2 X22.414 Y-15.414 E381.67811
G1 X22.5 Y-15 E381.79266
G1 F299.1 X22.497 Y15.087 E389.3204
G1 F275.5 X22.414 Y15.414 E389.41205
G1 F275 X22.087 Y15.497 E389.50387
;TIME_ELAPSED:319.582410
;LAYER:15
;MESH:test_square_tube.obj
G0 F600 X22.087 Y15.497 Z9.6
;TYPE:WALL-OUTER
G1 F297.6 X12.043 Y15.499 E392.0294
G1 F299.4 X1.999 Y15.5 E394.53989
G1 F276.5 X1.586 Y15.414 E394.65407
G1 F275.2 X1.503 Y15.087 E394.7458
G1 F297.6 X1.501 Y0.043 E398.52857
G1 F299.4 X1.5 Y-15.001 E402.28881
G1 F276.5 X1.586 Y-15.414 E402.40299
G1 F275.2 X1.913 Y-15.497 E402.49472
G1 F297.6 X11.957 Y-15.499 E405.02025
G1 F299.4 X22.001 Y-15.5 E407.53075
G1 F276.2 X22.414 Y-15.414 E407.64503
G1 X22.5 Y-15 E407.75958
G1 F299.1 X22.497 Y15.087 E415.28733
G1 F275.5 X22.414 Y15.414 E415.37898
G1 F275 X22.087 Y15.497 E415.47079
;TIME_ELAPSED:340.553812
;LAYER:16
;MESH:test_square_tube.obj
G0 F600 X22.087 Y15.497 Z10.2
;TYPE:WALL-OUTER
G1 F297.6 X12.043 Y15.499 E417.99632
G1 F299.4 X1.999 Y15.5 E420.50682
G1 F276.5 X1.586 Y15.414 E420.621
G1 F275.2 X1.503 Y15.087 E420.71273
G1 F297.6 X1.501 Y0.043 E424.49549
G1 F299.4 X1.5 Y-15.001 E428.25574
G1 F276.5 X1.586 Y-15.414 E428.36991
G1 F275.2 X1.913 Y-15.497 E428.46165
G1 F297.6 X11.957 Y-15.499 E430.98718
G1 F299.4 X22.001 Y-15.5 E433.49767
G1 F276.2 X22.414 Y-15.414 E433.61196
G1 X22.5 Y-15 E433.7265
G1 F299.1 X22.497 Y15.087 E441.25425
G1 F275.5 X22.414 Y15.414 E441.3459
G1 F275 X22.087 Y15.497 E441.43771
;TIME_ELAPSED:361.525213
;LAYER:17
;MESH:test_square_tube.obj
G0 F600 X22.087 Y15.497 Z10.8
;TYPE:WALL-OUTER
G1 F297.6 X12.043 Y15.499 E443.96324
G1 F299.4 X1.999 Y15.5 E446.47374
G1 F276.5 X1.586 Y15.414 E446.58792
G1 F275.2 X1.503 Y15.087 E446.67965
G1 F297.6 X1.501 Y0.043 E450.46241
G1 F299.4 X1.5 Y-15.001 E454.22266
G1 F276.5 X1.586 Y-15.414 E454.33684
G1 F275.2 X1.913 Y-15.497 E454.42857
G1 F297.6 X11.957 Y-15.499 E456.9541
G1 F299.4 X22.001 Y-15.5 E459.4646
G1 F276.2 X22.414 Y-15.414 E459.57888
G1 X22.5 Y-15 E459.69343
G1 F299.1 X22.497 Y15.087 E467.22118
G1 F275.5 X22.414 Y15.414 E467.31282
G1 F275 X22.087 Y15.497 E467.40464
;TIME_ELAPSED:382.496614
;LAYER:18
;MESH:test_square_tube.obj
G0 F600 X22.087 Y15.497 Z11.4
;TYPE:WALL-OUTER
G1 F297.6 X12.043 Y15.499 E469.93017
G1 F299.4 X1.999 Y15.5 E472.44067
G1 F276.5 X1.586 Y15.414 E472.55484
G1 F275.2 X1.503 Y15.087 E472.64657
G1 F297.6 X1.501 Y0.043 E476.42934
G1 F299.4 X1.5 Y-15.001 E480.18958
G1 F276.5 X1.586 Y-15.414 E480.30376
G1 F275.2 X1.913 Y-15.497 E480.39549
G1 F297.6 X11.957 Y-15.499 E482.92102
G1 F299.4 X22.001 Y-15.5 E485.43152
G1 F276.2 X22.414 Y-15.414 E485.5458
G1 X22.5 Y-15 E485.66035
G1 F299.1 X22.497 Y15.087 E493.1881
G1 F275.5 X22.414 Y15.414 E493.27975
G1 F275 X22.087 Y15.497 E493.37156
;TIME_ELAPSED:403.468016
;LAYER:19
;MESH:test_square_tube.obj
G0 F600 X22.087 Y15.497 Z12
;TYPE:WALL-OUTER
G1 F297.6 X12.043 Y15.499 E495.89709
G1 F299.4 X1.999 Y15.5 E498.40759
G1 F276.5 X1.586 Y15.414 E498.52177
G1 F275.2 X1.503 Y15.087 E498.6135
G1 F297.6 X1.501 Y0.043 E502.39626
G1 F299.4 X1.5 Y-15.001 E506.15651
G1 F276.5 X1.586 Y-15.414 E506.27069
G1 F275.2 X1.913 Y-15.497 E506.36242
G1 F297.6 X11.957 Y-15.499 E508.88795
G1 F299.4 X22.001 Y-15.5 E511.39844
G1 F276.2 X22.414 Y-15.414 E511.51273
G1 X22.5 Y-15 E511.62728
G1 F299.1 X22.497 Y15.087 E519.15502
G1 F275.5 X22.414 Y15.414 E519.24667
G1 F275 X22.087 Y15.497 E519.33849
;TIME_ELAPSED:424.439417
;LAYER:20
;MESH:test_square_tube.obj
G0 F600 X22.087 Y15.497 Z12.6
;TYPE:WALL-OUTER
G1 F297.6 X12.043 Y15.499 E521.86402
G1 F299.4 X1.999 Y15.5 E524.37451
G1 F276.5 X1.586 Y15.414 E524.48869
G1 F275.2 X1.503 Y15.087 E524.58042
G1 F297.6 X1.501 Y0.043 E528.36319
G1 F299.4 X1.5 Y-15.001 E532.12343
G1 F276.5 X1.586 Y-15.414 E532.23761
G1 F275.2 X1.913 Y-15.497 E532.32934
G1 F297.6 X11.957 Y-15.499 E534.85487
G1 F299.4 X22.001 Y-15.5 E537.36537
G1 F276.2 X22.414 Y-15.414 E537.47965
G1 X22.5 Y-15 E537.5942
G1 F299.1 X22.497 Y15.087 E545.12195
G1 F275.5 X22.414 Y15.414 E545.2136
G1 F275 X22.087 Y15.497 E545.30541
;TIME_ELAPSED:445.410818
;LAYER:21
;MESH:test_square_tube.obj
G0 F600 X22.087 Y15.497 Z13.2
;TYPE:WALL-OUTER
G1 F297.6 X12.043 Y15.499 E547.83094
G1 F299.4 X1.999 Y15.5 E550.34144
G1 F276.5 X1.586 Y15.414 E550.45562
G1 F275.2 X1.503 Y15.087 E550.54735
G1 F297.6 X1.501 Y0.043 E554.33011
G1 F299.4 X1.5 Y-15.001 E558.09036
G1 F276.5 X1.586 Y-15.414 E558.20453
G1 F275.2 X1.913 Y-15.497 E558.29627
G1 F297.6 X11.957 Y-15.499 E560.8218
G1 F299.4 X22.001 Y-15.5 E563.33229
G1 F276.2 X22.414 Y-15.414 E563.44658
G1 X22.5 Y-15 E563.56112
G1 F299.1 X22.497 Y15.087 E571.08887
G1 F275.5 X22.414 Y15.414 E571.18052
G1 F275 X22.087 Y15.497 E571.27234
;TIME_ELAPSED:466.382220
;LAYER:22
;MESH:test_square_tube.obj
G0 F600 X22.087 Y15.497 Z13.8
;TYPE:WALL-OUTER
G1 F297.6 X12.043 Y15.499 E573.79787
G1 F299.4 X1.999 Y15.5 E576.30836
G1 F276.5 X1.586 Y15.414 E576.42254
G1 F275.2 X1.503 Y15.087 E576.51427
G1 F297.6 X1.501 Y0.043 E580.29703
G1 F299.4 X1.5 Y-15.001 E584.05728
G1 F276.5 X1.586 Y-15.414 E584.17146
G1 F275.2 X1.913 Y-15.497 E584.26319
G1 F297.6 X11.957 Y-15.499 E586.78872
G1 F299.4 X22.001 Y-15.5 E589.29922
G1 F276.2 X22.414 Y-15.414 E589.4135
G1 X22.5 Y-15 E589.52805
G1 F299.1 X22.497 Y15.087 E597.0558
G1 F275.5 X22.414 Y15.414 E597.14744
G1 F275 X22.087 Y15.497 E597.23926
;TIME_ELAPSED:487.353621
;LAYER:23
;MESH:test_square_tube.obj
G0 F600 X22.087 Y15.497 Z14.4
;TYPE:WALL-OUTER
G1 F297.6 X12.043 Y15.499 E599.76479
G1 F299.4 X1.999 Y15.5 E602.27529
G1 F276.5 X1.586 Y15.414 E602.38946
G1 F275.2 X1.503 Y15.087 E602.4812
G1 F297.6 X1.501 Y0.043 E606.26396
G1 F299.4 X1.5 Y-15.001 E610.02421
G1 F276.5 X1.586 Y-15.414 E610.13838
G1 F275.2 X1.913 Y-15.497 E610.23011
G1 F297.6 X11.957 Y-15.499 E612.75564
G1 F299.4 X22.001 Y-15.5 E615.26614
G1 F276.2 X22.414 Y-15.414 E615.38042
G1 X22.5 Y-15 E615.49497
G1 F299.1 X22.497 Y15.087 E623.02272
G1 F275.5 X22.414 Y15.414 E623.11437
G1 F275 X22.087 Y15.497 E623.20618
;TIME_ELAPSED:508.325022
;LAYER:24
;MESH:test_square_tube.obj
G0 F600 X22.087 Y15.497 Z15
;TYPE:WALL-OUTER
G1 F297.6 X12.043 Y15.499 E625.73171
G1 F299.4 X1.999 Y15.5 E628.24221
G1 F276.5 X1.586 Y15.414 E628.35639
G1 F275.2 X1.503 Y15.087 E628.44812
