;FLAVOR:Marlin
;TIME:933
;Filament used: 0.960499m
;Layer height: 0.6
;MINX:20.5
;MINY:-39.5
;MINZ:0.6
;MAXX:23.5
;MAXY:39.5
;MAXZ:10.2
;TARGET_MACHINE.NAME:Unknown
;Generated with Cura_SteamEngine 5.10.1
M104 S202
M105
M109 S202
G92 E0
G28 ;Home
;Prime the extruder
G0 F1200 X20 Y60 Z50
G1 F200 E3
G92 E0
;Set feedrate percentage
M220 S70
M82 ;absolute extrusion mode
G92 E0
G92 E0
G1 F900 E-3
;LAYER_COUNT:17
;LAYER:0
M107
;MESH:Body1.obj
G0 F600 X23.5 Y39.5 Z0.6
;TYPE:WALL-OUTER
G1 F900 E0
G1 F300 X23.5 Y-39.5 E19.70663
G1 X20.5 Y-39.5 E20.45498
G1 X20.5 Y39.5 E40.16161
G1 X23.5 Y39.5 E40.90997
G0 F600 X23.5 Y39
G0 X22.92 Y38.92
G0 X22.523 Y38.523
;TYPE:SKIN
G1 F285.7 X22.523 Y-38.523 E61.09013
G1 X21.473 Y-38.523 E61.36515
G1 X21.473 Y38.523 E81.54531
G1 X22.523 Y38.523 E81.82033
;MESH:NONMESH
G0 F360 X22.523 Y38.523 Z1.2
G0 F600 X22.92 Y38.92
G0 X23.5 Y39.5
;TIME_ELAPSED:72.811573
;LAYER:1
M106 S255
;TYPE:WALL-OUTER
;MESH:Body1.obj
G1 F300 X23.5 Y-39.5 E101.52696
G1 X20.5 Y-39.5 E102.27531
G1 X20.5 Y39.5 E121.98194
G1 X23.5 Y39.5 E122.7303
G0 F600 X23.5 Y39
G0 X22.92 Y38.92
G0 X22.523 Y38.523
;TYPE:SKIN
G1 F285.7 X22.523 Y-38.523 E142.91046
G1 X21.473 Y-38.523 E143.18548
G1 X21.473 Y38.523 E163.36564
G1 X22.523 Y38.523 E163.64066
;MESH:NONMESH
G0 F360 X22.523 Y38.523 Z1.8
G0 F600 X21.11 Y-1.1
G0 X20.9 Y-1.1
;TIME_ELAPSED:142.715722
;LAYER:2
;TYPE:FILL
;MESH:Body1.obj
G1 X23.1 Y1.1 E164.41677
G1 X23.276 Y1.276
G0 X22.89 Y1.276
G0 X21.11 Y1.1
G0 X20.9 Y1.1
G1 X23.1 Y-1.1 E165.19288
G1 X23.276 Y-1.276
G0 X22.89 Y-1.276
G0 X22.89 Y-13.042
G0 X23.1 Y-13.042
G1 X20.9 Y-15.242 E165.96899
G1 X20.724 Y-15.418
G0 X21.11 Y-15.418
G0 X21.11 Y-13.043
G0 X20.9 Y-13.043
G1 X23.1 Y-15.242 E166.74492
G1 X23.276 Y-15.418
G0 X22.89 Y-15.418
G0 X22.89 Y-27.184
G0 X23.1 Y-27.184
G1 X20.9 Y-29.384 E167.52103
G1 X20.724 Y-29.56
G0 X21.11 Y-29.56
G0 X21.11 Y-27.185
G0 X20.9 Y-27.185
G1 X23.1 Y-29.385 E168.29714
G1 X23.276 Y-29.561
G0 X22.89 Y-29.561
G0 X22.89 Y13.042
G0 X23.1 Y13.042
G1 X20.9 Y15.242 E169.07325
G1 X20.724 Y15.418
G0 X21.11 Y15.418
G0 X21.11 Y13.043
G0 X20.9 Y13.043
G1 X23.1 Y15.242 E169.84919
G1 X23.276 Y15.418
G0 X22.89 Y15.418
G0 X22.89 Y27.184
G0 X23.1 Y27.184
G1 X20.9 Y29.384 E170.62529
G1 X20.724 Y29.56
G0 X21.11 Y29.56
G0 X21.11 Y27.185
G0 X20.9 Y27.185
G1 X23.1 Y29.385 E171.4014
G1 X23.276 Y29.561
G0 X22.89 Y29.561
G0 X22.92 Y38.92
G0 X23.5 Y39.5
;TYPE:WALL-OUTER
G1 F300 X23.5 Y-39.5 E191.10803
G1 X20.5 Y-39.5 E191.85639
G1 X20.5 Y39.5 E211.56302
G1 X23.5 Y39.5 E212.31137
G0 F600 X23.5 Y39
;MESH:NONMESH
G0 F360 X23.5 Y39 Z2.4
G0 F600 X22.92 Y38.92
G0 X21.11 Y-1.1
G0 X20.9 Y-1.1
;TIME_ELAPSED:193.677230
;LAYER:3
;TYPE:FILL
;MESH:Body1.obj
G1 X23.1 Y1.1 E213.08748
G1 X23.276 Y1.276
G0 X22.89 Y1.276
G0 X21.11 Y1.1
G0 X20.9 Y1.1
G1 X23.1 Y-1.1 E213.86359
G1 X23.276 Y-1.276
G0 X22.89 Y-1.276
G0 X22.89 Y-13.042
G0 X23.1 Y-13.042
G1 X20.9 Y-15.242 E214.6397
G1 X20.724 Y-15.418
G0 X21.11 Y-15.418
G0 X21.11 Y-13.043
G0 X20.9 Y-13.043
G1 X23.1 Y-15.242 E215.41563
G1 X23.276 Y-15.418
G0 X22.89 Y-15.418
G0 X22.89 Y-27.184
G0 X23.1 Y-27.184
G1 X20.9 Y-29.384 E216.19174
G1 X20.724 Y-29.56
G0 X21.11 Y-29.56
G0 X21.11 Y-27.185
G0 X20.9 Y-27.185
G1 X23.1 Y-29.385 E216.96785
G1 X23.276 Y-29.561
G0 X22.89 Y-29.561
G0 X22.89 Y13.042
G0 X23.1 Y13.042
G1 X20.9 Y15.242 E217.74396
G1 X20.724 Y15.418
G0 X21.11 Y15.418
G0 X21.11 Y13.043
G0 X20.9 Y13.043
G1 X23.1 Y15.242 E218.51989
G1 X23.276 Y15.418
G0 X22.89 Y15.418
G0 X22.89 Y27.184
G0 X23.1 Y27.184
G1 X20.9 Y29.384 E219.296
G1 X20.724 Y29.56
G0 X21.11 Y29.56
G0 X21.11 Y27.185
G0 X20.9 Y27.185
G1 X23.1 Y29.385 E220.07211
G1 X23.276 Y29.561
G0 X22.89 Y29.561
G0 X22.92 Y38.92
G0 X23.5 Y39.5
;TYPE:WALL-OUTER
G1 F300 X23.5 Y-39.5 E239.77874
G1 X20.5 Y-39.5 E240.52709
G1 X20.5 Y39.5 E260.23372
G1 X23.5 Y39.5 E260.98208
G0 F600 X23.5 Y39
;MESH:NONMESH
G0 F360 X23.5 Y39 Z3
G0 F600 X22.92 Y38.92
G0 X21.11 Y-1.1
G0 X20.9 Y-1.1
;TIME_ELAPSED:244.638738
;LAYER:4
;TYPE:FILL
;MESH:Body1.obj
G1 X23.1 Y1.1 E261.75819
G1 X23.276 Y1.276
G0 X22.89 Y1.276
G0 X21.11 Y1.1
G0 X20.9 Y1.1
G1 X23.1 Y-1.1 E262.5343
G1 X23.276 Y-1.276
G0 X22.89 Y-1.276
G0 X22.89 Y-13.042
G0 X23.1 Y-13.042
G1 X20.9 Y-15.242 E263.31041
G1 X20.724 Y-15.418
G0 X21.11 Y-15.418
G0 X21.11 Y-13.043
G0 X20.9 Y-13.043
G1 X23.1 Y-15.242 E264.08634
G1 X23.276 Y-15.418
G0 X22.89 Y-15.418
G0 X22.89 Y-27.184
G0 X23.1 Y-27.184
G1 X20.9 Y-29.384 E264.86245
G1 X20.724 Y-29.56
G0 X21.11 Y-29.56
G0 X21.11 Y-27.185
G0 X20.9 Y-27.185
G1 X23.1 Y-29.385 E265.63856
G1 X23.276 Y-29.561
G0 X22.89 Y-29.561
G0 X22.89 Y13.042
G0 X23.1 Y13.042
G1 X20.9 Y15.242 E266.41467
G1 X20.724 Y15.418
G0 X21.11 Y15.418
G0 X21.11 Y13.043
G0 X20.9 Y13.043
G1 X23.1 Y15.242 E267.1906
G1 X23.276 Y15.418
G0 X22.89 Y15.418
G0 X22.89 Y27.184
G0 X23.1 Y27.184
G1 X20.9 Y29.384 E267.96671
G1 X20.724 Y29.56
G0 X21.11 Y29.56
G0 X21.11 Y27.185
G0 X20.9 Y27.185
G1 X23.1 Y29.385 E268.74282
G1 X23.276 Y29.561
G0 X22.89 Y29.561
G0 X22.92 Y38.92
G0 X23.5 Y39.5
;TYPE:WALL-OUTER
G1 F300 X23.5 Y-39.5 E288.44945
G1 X20.5 Y-39.5 E289.1978
G1 X20.5 Y39.5 E308.90443
G1 X23.5 Y39.5 E309.65279
G0 F600 X23.5 Y39
;MESH:NONMESH
G0 F360 X23.5 Y39 Z3.6
G0 F600 X22.92 Y38.92
G0 X21.11 Y-1.1
G0 X20.9 Y-1.1
;TIME_ELAPSED:295.600246
;LAYER:5
;TYPE:FILL
;MESH:Body1.obj
G1 X23.1 Y1.1 E310.42889
G1 X23.276 Y1.276
G0 X22.89 Y1.276
G0 X21.11 Y1.1
G0 X20.9 Y1.1
G1 X23.1 Y-1.1 E311.205
G1 X23.276 Y-1.276
G0 X22.89 Y-1.276
G0 X22.89 Y-13.042
G0 X23.1 Y-13.042
G1 X20.9 Y-15.242 E311.98111
G1 X20.724 Y-15.418
G0 X21.11 Y-15.418
G0 X21.11 Y-13.043
G0 X20.9 Y-13.043
G1 X23.1 Y-15.242 E312.75705
G1 X23.276 Y-15.418
G0 X22.89 Y-15.418
G0 X22.89 Y-27.184
G0 X23.1 Y-27.184
G1 X20.9 Y-29.384 E313.53316
G1 X20.724 Y-29.56
G0 X21.11 Y-29.56
G0 X21.11 Y-27.185
G0 X20.9 Y-27.185
G1 X23.1 Y-29.385 E314.30927
G1 X23.276 Y-29.561
G0 X22.89 Y-29.561
G0 X22.89 Y13.042
G0 X23.1 Y13.042
G1 X20.9 Y15.242 E315.08537
G1 X20.724 Y15.418
G0 X21.11 Y15.418
G0 X21.11 Y13.043
G0 X20.9 Y13.043
G1 X23.1 Y15.242 E315.86131
G1 X23.276 Y15.418
G0 X22.89 Y15.418
G0 X22.89 Y27.184
G0 X23.1 Y27.184
G1 X20.9 Y29.384 E316.63742
G1 X20.724 Y29.56
G0 X21.11 Y29.56
G0 X21.11 Y27.185
G0 X20.9 Y27.185
G1 X23.1 Y29.385 E317.41353
G1 X23.276 Y29.561
G0 X22.89 Y29.561
G0 X22.92 Y38.92
G0 X23.5 Y39.5
;TYPE:WALL-OUTER
G1 F300 X23.5 Y-39.5 E337.12016
G1 X20.5 Y-39.5 E337.86851
G1 X20.5 Y39.5 E357.57514
G1 X23.5 Y39.5 E358.32349
G0 F600 X23.5 Y39
;MESH:NONMESH
G0 F360 X23.5 Y39 Z4.2
G0 F600 X22.92 Y38.92
G0 X21.11 Y-1.1
G0 X20.9 Y-1.1
;TIME_ELAPSED:346.561753
;LAYER:6
;TYPE:FILL
;MESH:Body1.obj
G1 X23.1 Y1.1 E359.0996
G1 X23.276 Y1.276
G0 X22.89 Y1.276
G0 X21.11 Y1.1
G0 X20.9 Y1.1
G1 X23.1 Y-1.1 E359.87571
G1 X23.276 Y-1.276
G0 X22.89 Y-1.276
G0 X22.89 Y-13.042
G0 X23.1 Y-13.042
G1 X20.9 Y-15.242 E360.65182
G1 X20.724 Y-15.418
G0 X21.11 Y-15.418
G0 X21.11 Y-13.043
G0 X20.9 Y-13.043
G1 X23.1 Y-15.242 E361.42775
G1 X23.276 Y-15.418
G0 X22.89 Y-15.418
G0 X22.89 Y-27.184
G0 X23.1 Y-27.184
G1 X20.9 Y-29.384 E362.20386
G1 X20.724 Y-29.56
G0 X21.11 Y-29.56
G0 X21.11 Y-27.185
G0 X20.9 Y-27.185
G1 X23.1 Y-29.385 E362.97997
G1 X23.276 Y-29.561
G0 X22.89 Y-29.561
G0 X22.89 Y13.042
G0 X23.1 Y13.042
G1 X20.9 Y15.242 E363.75608
G1 X20.724 Y15.418
G0 X21.11 Y15.418
G0 X21.11 Y13.043
G0 X20.9 Y13.043
G1 X23.1 Y15.242 E364.53202
G1 X23.276 Y15.418
G0 X22.89 Y15.418
G0 X22.89 Y27.184
G0 X23.1 Y27.184
G1 X20.9 Y29.384 E365.30812
G1 X20.724 Y29.56
G0 X21.11 Y29.56
G0 X21.11 Y27.185
G0 X20.9 Y27.185
G1 X23.1 Y29.385 E366.08423
G1 X23.276 Y29.561
G0 X22.89 Y29.561
G0 X22.92 Y38.92
G0 X23.5 Y39.5
;TYPE:WALL-OUTER
G1 F300 X23.5 Y-39.5 E385.79086
G1 X20.5 Y-39.5 E386.53922
G1 X20.5 Y39.5 E406.24585
G1 X23.5 Y39.5 E406.9942
G0 F600 X23.5 Y39
;MESH:NONMESH
G0 F360 X23.5 Y39 Z4.8
G0 F600 X22.92 Y38.92
G0 X21.11 Y-1.1
G0 X20.9 Y-1.1
;TIME_ELAPSED:397.523261
;LAYER:7
;TYPE:FILL
;MESH:Body1.obj
G1 X23.1 Y1.1 E407.77031
G1 X23.276 Y1.276
G0 X22.89 Y1.276
G0 X21.11 Y1.1
G0 X20.9 Y1.1
G1 X23.1 Y-1.1 E408.54642
G1 X23.276 Y-1.276
G0 X22.89 Y-1.276
G0 X22.89 Y-13.042
G0 X23.1 Y-13.042
G1 X20.9 Y-15.242 E409.32253
G1 X20.724 Y-15.418
G0 X21.11 Y-15.418
G0 X21.11 Y-13.043
G0 X20.9 Y-13.043
G1 X23.1 Y-15.242 E410.09846
G1 X23.276 Y-15.418
G0 X22.89 Y-15.418
G0 X22.89 Y-27.184
G0 X23.1 Y-27.184
G1 X20.9 Y-29.384 E410.87457
G1 X20.724 Y-29.56
G0 X21.11 Y-29.56
G0 X21.11 Y-27.185
G0 X20.9 Y-27.185
G1 X23.1 Y-29.385 E411.65068
G1 X23.276 Y-29.561
G0 X22.89 Y-29.561
G0 X22.89 Y13.042
G0 X23.1 Y13.042
G1 X20.9 Y15.242 E412.42679
G1 X20.724 Y15.418
G0 X21.11 Y15.418
G0 X21.11 Y13.043
G0 X20.9 Y13.043
G1 X23.1 Y15.242 E413.20272
G1 X23.276 Y15.418
G0 X22.89 Y15.418
G0 X22.89 Y27.184
G0 X23.1 Y27.184
G1 X20.9 Y29.384 E413.97883
G1 X20.724 Y29.56
G0 X21.11 Y29.56
G0 X21.11 Y27.185
G0 X20.9 Y27.185
G1 X23.1 Y29.385 E414.75494
G1 X23.276 Y29.561
G0 X22.89 Y29.561
G0 X22.92 Y38.92
G0 X23.5 Y39.5
;TYPE:WALL-OUTER
G1 F300 X23.5 Y-39.5 E434.46157
G1 X20.5 Y-39.5 E435.20992
G1 X20.5 Y39.5 E454.91655
G1 X23.5 Y39.5 E455.66491
G0 F600 X23.5 Y39
;MESH:NONMESH
G0 F360 X23.5 Y39 Z5.4
G0 F600 X22.92 Y38.92
G0 X21.11 Y-1.1
G0 X20.9 Y-1.1
;TIME_ELAPSED:448.484769
;LAYER:8
;TYPE:FILL
;MESH:Body1.obj
G1 X23.1 Y1.1 E456.44102
G1 X23.276 Y1.276
G0 X22.89 Y1.276
G0 X21.11 Y1.1
G0 X20.9 Y1.1
G1 X23.1 Y-1.1 E457.21713
G1 X23.276 Y-1.276
G0 X22.89 Y-1.276
G0 X22.89 Y-13.042
G0 X23.1 Y-13.042
G1 X20.9 Y-15.242 E457.99324
G1 X20.724 Y-15.418
G0 X21.11 Y-15.418
G0 X21.11 Y-13.043
G0 X20.9 Y-13.043
G1 X23.1 Y-15.242 E458.76917
G1 X23.276 Y-15.418
G0 X22.89 Y-15.418
G0 X22.89 Y-27.184
G0 X23.1 Y-27.184
G1 X20.9 Y-29.384 E459.54528
G1 X20.724 Y-29.56
G0 X21.11 Y-29.56
G0 X21.11 Y-27.185
G0 X20.9 Y-27.185
G1 X23.1 Y-29.385 E460.32139
G1 X23.276 Y-29.561
G0 X22.89 Y-29.561
G0 X22.89 Y13.042
G0 X23.1 Y13.042
G1 X20.9 Y15.242 E461.0975
G1 X20.724 Y15.418
G0 X21.11 Y15.418
G0 X21.11 Y13.043
G0 X20.9 Y13.043
G1 X23.1 Y15.242 E461.87343
G1 X23.276 Y15.418
G0 X22.89 Y15.418
G0 X22.89 Y27.184
G0 X23.1 Y27.184
G1 X20.9 Y29.384 E462.64954
G1 X20.724 Y29.56
G0 X21.11 Y29.56
G0 X21.11 Y27.185
G0 X20.9 Y27.185
G1 X23.1 Y29.385 E463.42565
G1 X23.276 Y29.561
G0 X22.89 Y29.561
G0 X22.92 Y38.92
G0 X23.5 Y39.5
;TYPE:WALL-OUTER
G1 F300 X23.5 Y-39.5 E483.13228
G1 X20.5 Y-39.5 E483.88063
G1 X20.5 Y39.5 E503.58726
G1 X23.5 Y39.5 E504.33562
G0 F600 X23.5 Y39
;MESH:NONMESH
G0 F360 X23.5 Y39 Z6
G0 F600 X22.92 Y38.92
G0 X21.11 Y-1.1
G0 X20.9 Y-1.1
;TIME_ELAPSED:499.446277
;LAYER:9
;TYPE:FILL
;MESH:Body1.obj
G1 X23.1 Y1.1 E505.11172
G1 X23.276 Y1.276
G0 X22.89 Y1.276
G0 X21.11 Y1.1
G0 X20.9 Y1.1
G1 X23.1 Y-1.1 E505.88783
G1 X23.276 Y-1.276
G0 X22.89 Y-1.276
G0 X22.89 Y-13.042
G0 X23.1 Y-13.042
G1 X20.9 Y-15.242 E506.66394
G1 X20.724 Y-15.418
G0 X21.11 Y-15.418
G0 X21.11 Y-13.043
G0 X20.9 Y-13.043
G1 X23.1 Y-15.242 E507.43988
G1 X23.276 Y-15.418
G0 X22.89 Y-15.418
G0 X22.89 Y-27.184
G0 X23.1 Y-27.184
G1 X20.9 Y-29.384 E508.21599
G1 X20.724 Y-29.56
G0 X21.11 Y-29.56
G0 X21.11 Y-27.185
G0 X20.9 Y-27.185
G1 X23.1 Y-29.385 E508.9921
G1 X23.276 Y-29.561
G0 X22.89 Y-29.561
G0 X22.89 Y13.042
G0 X23.1 Y13.042
G1 X20.9 Y15.242 E509.7682
G1 X20.724 Y15.418
G0 X21.11 Y15.418
G0 X21.11 Y13.043
G0 X20.9 Y13.043
G1 X23.1 Y15.242 E510.54414
G1 X23.276 Y15.418
G0 X22.89 Y15.418
G0 X22.89 Y27.184
G0 X23.1 Y27.184
G1 X20.9 Y29.384 E511.32025
G1 X20.724 Y29.56
G0 X21.11 Y29.56
G0 X21.11 Y27.185
G0 X20.9 Y27.185
G1 X23.1 Y29.385 E512.09636
G1 X23.276 Y29.561
G0 X22.89 Y29.561
G0 X22.92 Y38.92
G0 X23.5 Y39.5
;TYPE:WALL-OUTER
G1 F300 X23.5 Y-39.5 E531.80299
G1 X20.5 Y-39.5 E532.55134
G1 X20.5 Y39.5 E552.25797
G1 X23.5 Y39.5 E553.00632
G0 F600 X23.5 Y39
;MESH:NONMESH
G0 F360 X23.5 Y39 Z6.6
G0 F600 X22.92 Y38.92
G0 X21.11 Y-1.1
G0 X20.9 Y-1.1
;TIME_ELAPSED:550.407785
;LAYER:10
;TYPE:FILL
;MESH:Body1.obj
G1 X23.1 Y1.1 E553.78243
G1 X23.276 Y1.276
G0 X22.89 Y1.276
G0 X21.11 Y1.1
G0 X20.9 Y1.1
G1 X23.1 Y-1.1 E554.55854
G1 X23.276 Y-1.276
G0 X22.89 Y-1.276
G0 X22.89 Y-13.042
G0 X23.1 Y-13.042
G1 X20.9 Y-15.242 E555.33465
G1 X20.724 Y-15.418
G0 X21.11 Y-15.418
G0 X21.11 Y-13.043
G0 X20.9 Y-13.043
G1 X23.1 Y-15.242 E556.11058
G1 X23.276 Y-15.418
G0 X22.89 Y-15.418
G0 X22.89 Y-27.184
G0 X23.1 Y-27.184
G1 X20.9 Y-29.384 E556.88669
G1 X20.724 Y-29.56
G0 X21.11 Y-29.56
G0 X21.11 Y-27.185
G0 X20.9 Y-27.185
G1 X23.1 Y-29.385 E557.6628
G1 X23.276 Y-29.561
G0 X22.89 Y-29.561
G0 X22.89 Y13.042
G0 X23.1 Y13.042
G1 X20.9 Y15.242 E558.43891
G1 X20.724 Y15.418
G0 X21.11 Y15.418
G0 X21.11 Y13.043
G0 X20.9 Y13.043
G1 X23.1 Y15.242 E559.21485
G1 X23.276 Y15.418
G0 X22.89 Y15.418
G0 X22.89 Y27.184
G0 X23.1 Y27.184
G1 X20.9 Y29.384 E559.99095
G1 X20.724 Y29.56
G0 X21.11 Y29.56
G0 X21.11 Y27.185
G0 X20.9 Y27.185
G1 X23.1 Y29.385 E560.76706
G1 X23.276 Y29.561
G0 X22.89 Y29.561
G0 X22.92 Y38.92
G0 X23.5 Y39.5
;TYPE:WALL-OUTER
G1 F300 X23.5 Y-39.5 E580.47369
G1 X20.5 Y-39.5 E581.22205
G1 X20.5 Y39.5 E600.92868
G1 X23.5 Y39.5 E601.67703
G0 F600 X23.5 Y39
;MESH:NONMESH
G0 F360 X23.5 Y39 Z7.2
G0 F600 X22.92 Y38.92
G0 X21.11 Y-1.1
G0 X20.9 Y-1.1
;TIME_ELAPSED:601.369293
;LAYER:11
;TYPE:FILL
;MESH:Body1.obj
G1 X23.1 Y1.1 E602.45314
G1 X23.276 Y1.276
G0 X22.89 Y1.276
G0 X21.11 Y1.1
G0 X20.9 Y1.1
G1 X23.1 Y-1.1 E603.22925
G1 X23.276 Y-1.276
G0 X22.89 Y-1.276
G0 X22.89 Y-13.042
G0 X23.1 Y-13.042
G1 X20.9 Y-15.242 E604.00536
G1 X20.724 Y-15.418
G0 X21.11 Y-15.418
G0 X21.11 Y-13.043
G0 X20.9 Y-13.043
G1 X23.1 Y-15.242 E604.78129
G1 X23.276 Y-15.418
G0 X22.89 Y-15.418
G0 X22.89 Y-27.184
G0 X23.1 Y-27.184
G1 X20.9 Y-29.384 E605.5574
G1 X20.724 Y-29.56
G0 X21.11 Y-29.56
G0 X21.11 Y-27.185
G0 X20.9 Y-27.185
G1 X23.1 Y-29.385 E606.33351
G1 X23.276 Y-29.561
G0 X22.89 Y-29.561
G0 X22.89 Y13.042
G0 X23.1 Y13.042
G1 X20.9 Y15.242 E607.10962
G1 X20.724 Y15.418
G0 X21.11 Y15.418
G0 X21.11 Y13.043
G0 X20.9 Y13.043
G1 X23.1 Y15.242 E607.88555
G1 X23.276 Y15.418
G0 X22.89 Y15.418
G0 X22.89 Y27.184
G0 X23.1 Y27.184
G1 X20.9 Y29.384 E608.66166
G1 X20.724 Y29.56
G0 X21.11 Y29.56
G0 X21.11 Y27.185
G0 X20.9 Y27.185
G1 X23.1 Y29.385 E609.43777
G1 X23.276 Y29.561
G0 X22.89 Y29.561
G0 X22.92 Y38.92
G0 X23.5 Y39.5
;TYPE:WALL-OUTER
G1 F300 X23.5 Y-39.5 E629.1444
G1 X20.5 Y-39.5 E629.89275
G1 X20.5 Y39.5 E649.59938
G1 X23.5 Y39.5 E650.34774
G0 F600 X23.5 Y39
;MESH:NONMESH
G0 F360 X23.5 Y39 Z7.8
G0 F600 X22.92 Y38.92
G0 X21.11 Y-1.1
G0 X20.9 Y-1.1
;TIME_ELAPSED:652.330800
;LAYER:12
;TYPE:FILL
;MESH:Body1.obj
G1 X23.1 Y1.1 E651.12385
G1 X23.276 Y1.276
G0 X22.89 Y1.276
G0 X21.11 Y1.1
G0 X20.9 Y1.1
G1 X23.1 Y-1.1 E651.89996
G1 X23.276 Y-1.276
G0 X22.89 Y-1.276
G0 X22.89 Y-13.042
G0 X23.1 Y-13.042
G1 X20.9 Y-15.242 E652.67607
G1 X20.724 Y-15.418
G0 X21.11 Y-15.418
G0 X21.11 Y-13.043
G0 X20.9 Y-13.043
G1 X23.1 Y-15.242 E653.452
G1 X23.276 Y-15.418
G0 X22.89 Y-15.418
G0 X22.89 Y-27.184
G0 X23.1 Y-27.184
G1 X20.9 Y-29.384 E654.22811
G1 X20.724 Y-29.56
G0 X21.11 Y-29.56
G0 X21.11 Y-27.185
G0 X20.9 Y-27.185
G1 X23.1 Y-29.385 E655.00422
G1 X23.276 Y-29.561
G0 X22.89 Y-29.561
G0 X22.89 Y13.042
G0 X23.1 Y13.042
G1 X20.9 Y15.242 E655.78033
G1 X20.724 Y15.418
G0 X21.11 Y15.418
G0 X21.11 Y13.043
G0 X20.9 Y13.043
G1 X23.1 Y15.242 E656.55626
G1 X23.276 Y15.418
G0 X22.89 Y15.418
G0 X22.89 Y27.184
G0 X23.1 Y27.184
G1 X20.9 Y29.384 E657.33237
G1 X20.724 Y29.56
G0 X21.11 Y29.56
G0 X21.11 Y27.185
G0 X20.9 Y27.185
G1 X23.1 Y29.385 E658.10848
G1 X23.276 Y29.561
G0 X22.89 Y29.561
G0 X22.92 Y38.92
G0 X23.5 Y39.5
;TYPE:WALL-OUTER
G1 F300 X23.5 Y-39.5 E677.81511
G1 X20.5 Y-39.5 E678.56346
G1 X20.5 Y39.5 E698.27009
G1 X23.5 Y39.5 E699.01845
G0 F600 X23.5 Y39
;MESH:NONMESH
G0 F360 X23.5 Y39 Z8.4
G0 F600 X22.92 Y38.92
G0 X21.11 Y-1.1
G0 X20.9 Y-1.1
;TIME_ELAPSED:703.292308
;LAYER:13
;TYPE:FILL
;MESH:Body1.obj
G1 X23.1 Y1.1 E699.79455
G1 X23.276 Y1.276
G0 X22.89 Y1.276
G0 X21.11 Y1.1
G0 X20.9 Y1.1
G1 X23.1 Y-1.1 E700.57066
G1 X23.276 Y-1.276
G0 X22.89 Y-1.276
G0 X22.89 Y-13.042
G0 X23.1 Y-13.042
G1 X20.9 Y-15.242 E701.34677
G1 X20.724 Y-15.418
G0 X21.11 Y-15.418
G0 X21.11 Y-13.043
G0 X20.9 Y-13.043
G1 X23.1 Y-15.242 E702.12271
G1 X23.276 Y-15.418
