;FLAVOR:Marlin
;TIME:577
;Filament used: 0.706602m
;Layer height: 0.6
;MINX:0.381
;MINY:-16.834
;MINZ:0.6
;MAXX:29.62
;MAXY:16.842
;MAXZ:19.8
;TARGET_MACHINE.NAME:Unknown
;Generated with Cura_SteamEngine 5.10.1
M104 S210
M105
M109 S210
G92 E0
G28 ;Home
;Prime the extruder
G0 F1200 X20 Y60 Z50
G1 F200 E3
G92 E0
;Set feedrate percentage
M220 S100
M82 ;absolute extrusion mode
G92 E0
G92 E0
G1 F900 E-3
;LAYER_COUNT:33
;LAYER:0
M107
M204 S3000
;MESH:test_hex_D30H20.obj
G0 F600 X15.888 Y16.355 Z0.6
;TYPE:WALL-OUTER
G1 F900 E0
G1 F352.9 X16.214 Y16.165 E0.08001
G1 X16.625 Y15.905 E0.18313
G1 X17.09 Y15.659 E0.29467
G1 X17.416 Y15.464 E0.37521
G1 X17.744 Y15.278 E0.45516
G1 X18.217 Y14.983 E0.57336
G1 X18.628 Y14.769 E0.67161
G1 X19.059 Y14.532 E0.77591
G1 X19.443 Y14.283 E0.87295
G1 X19.925 Y14.029 E0.98847
G1 X20.438 Y13.726 E1.1148
G1 X20.95 Y13.41 E1.24237
G1 X21.378 Y13.166 E1.34683
G1 X21.865 Y12.909 E1.46359
G1 X22.346 Y12.624 E1.58213
G1 X22.838 Y12.344 E1.70217
G1 X23.282 Y12.074 E1.81235
G1 X23.802 Y11.789 E1.93808
G1 X24.242 Y11.523 E2.0471
G1 X24.599 Y11.332 E2.13295
G1 X25.073 Y11.029 E2.25223
G1 X25.453 Y10.84 E2.34222
G1 X25.874 Y10.587 E2.44636
G1 X26.369 Y10.308 E2.56684
G1 X26.725 Y10.082 E2.65625
G1 X27.085 Y9.884 E2.74337
G1 X27.605 Y9.558 E2.8735
G1 X28.113 Y9.278 E2.99649
G1 X28.54 Y9.039 E3.10025
G1 X28.927 Y8.827 E3.19381
G1 X29.279 Y8.615 E3.28094
G1 F352.1 X29.516 Y8.459 E3.34124
G1 F351.3 X29.599 Y8.334 E3.37321
G1 F352.1 X29.591 Y7.772 E3.49266
G1 F352.9 X29.586 Y7.235 E3.60653
G1 X29.603 Y6.778 E3.70349
G1 X29.614 Y6.34 E3.79639
G1 X29.616 Y5.894 E3.89096
G1 X29.6 Y5.373 E4.00148
G1 X29.602 Y4.767 E4.12998
G1 X29.6 Y4.196 E4.25105
G1 X29.579 Y3.692 E4.35801
G1 X29.588 Y3.282 E4.44496
G1 X29.604 Y2.734 E4.5612
G1 X29.597 Y2.315 E4.65006
G1 X29.617 Y1.898 E4.73858
G1 X29.602 Y1.52 E4.81879
G1 X29.608 Y0.991 E4.93096
G1 X29.587 Y0.371 E5.0625
G1 X29.612 Y-.19 E5.18157
G1 X29.601 Y-.789 E5.3086
G1 X29.597 Y-1.332 E5.42373
G1 X29.604 Y-1.744 E5.5111
G1 X29.61 Y-2.327 E5.63473
G1 X29.604 Y-2.904 E5.75708
G1 X29.593 Y-3.506 E5.88474
G1 X29.603 Y-3.945 E5.97785
G1 X29.613 Y-4.404 E6.07519
G1 X29.618 Y-4.901 E6.18058
G1 X29.609 Y-5.359 E6.27771
G1 X29.596 Y-5.971 E6.4075
G1 X29.596 Y-6.364 E6.49083
G1 X29.609 Y-6.762 E6.57527
G1 X29.607 Y-7.15 E6.65754
G1 X29.604 Y-7.717 E6.77776
G1 X29.579 Y-8.194 E6.87904
G1 F352.1 X29.585 Y-8.304 E6.90245
G1 F351.3 X29.4 Y-8.543 E6.96684
G1 F352.9 X29.287 Y-8.616 E6.99536
G1 X28.887 Y-8.839 E7.09247
G1 X28.408 Y-9.098 E7.20793
G1 X27.903 Y-9.428 E7.33584
G1 X27.387 Y-9.709 E7.46042
G1 X26.885 Y-10 E7.58345
G1 X26.534 Y-10.205 E7.66964
G1 X26.02 Y-10.485 E7.79375
G1 X25.488 Y-10.803 E7.92516
G1 X25.104 Y-11.041 E8.02095
G1 X24.641 Y-11.273 E8.13076
G1 X24.198 Y-11.561 E8.2428
G1 X23.832 Y-11.759 E8.33103
G1 X23.366 Y-12.044 E8.44685
G1 X22.843 Y-12.324 E8.57264
G1 X22.342 Y-12.602 E8.69412
G1 X22.005 Y-12.811 E8.7782
G1 X21.585 Y-13.069 E8.88272
G1 X21.109 Y-13.33 E8.99782
G1 X20.751 Y-13.53 E9.08477
G1 X20.25 Y-13.817 E9.2072
G1 X19.864 Y-14.041 E9.30183
G1 X19.394 Y-14.324 E9.41815
G1 X18.95 Y-14.588 E9.52768
G1 X18.622 Y-14.774 E9.60763
G1 X18.244 Y-14.966 E9.69753
G1 X17.795 Y-15.262 E9.81156
G1 X17.43 Y-15.454 E9.899
G1 X16.913 Y-15.753 E10.02564
G1 X16.562 Y-15.954 E10.1114
G1 X16.188 Y-16.187 E10.20483
G1 X15.683 Y-16.443 E10.32488
G1 X15.337 Y-16.669 E10.41251
G1 X15.1 Y-16.784 E10.46836
G1 F353.8 X14.96 Y-16.81 E10.49848
G1 X14.619 Y-16.624 E10.58065
G1 F352.9 X14.126 Y-16.337 E10.7016
G1 X13.678 Y-16.082 E10.8109
G1 X13.239 Y-15.852 E10.91599
G1 X12.914 Y-15.653 E10.99679
G1 X12.462 Y-15.4 E11.10662
G1 X12.028 Y-15.144 E11.21346
G1 X11.625 Y-14.925 E11.31071
G1 X11.312 Y-14.705 E11.39183
G1 X10.792 Y-14.424 E11.51716
G1 X10.305 Y-14.155 E11.63512
G1 X9.807 Y-13.88 E11.75575
G1 X9.39 Y-13.599 E11.86237
G1 X9.026 Y-13.406 E11.94972
G1 X8.607 Y-13.146 E12.05428
G1 X8.119 Y-12.884 E12.17172
G1 X7.715 Y-12.667 E12.26896
G1 X7.278 Y-12.397 E12.37788
G1 X6.781 Y-12.1 E12.50064
G1 X6.251 Y-11.812 E12.62854
G1 X5.777 Y-11.538 E12.74462
G1 X5.435 Y-11.339 E12.82852
G1 X4.955 Y-11.07 E12.94519
G1 X4.615 Y-10.87 E13.02883
G1 X4.274 Y-10.656 E13.11419
G1 X3.856 Y-10.436 E13.21435
G1 X3.338 Y-10.112 E13.3439
G1 X2.861 Y-9.865 E13.45779
G1 X2.459 Y-9.601 E13.55977
G1 X1.997 Y-9.342 E13.67207
G1 X1.647 Y-9.138 E13.75797
G1 X1.227 Y-8.915 E13.85879
G1 X0.749 Y-8.611 E13.97891
G1 F352.1 X0.484 Y-8.459 E14.04384
G1 F350.9 X0.392 Y-8.202 E14.10206
G1 F351.3 X0.389 Y-7.719 E14.20495
G1 F352.9 X0.403 Y-7.337 E14.286
G1 X0.413 Y-6.755 E14.40942
G1 X0.397 Y-6.377 E14.48964
G1 X0.391 Y-5.807 E14.61051
G1 X0.382 Y-5.223 E14.73435
G1 X0.392 Y-4.627 E14.86074
G1 X0.394 Y-4.08 E14.97673
G1 X0.39 Y-3.699 E15.05751
G1 X0.412 Y-3.161 E15.17168
G1 X0.389 Y-2.636 E15.28311
G1 X0.405 Y-2.249 E15.36523
G1 X0.381 Y-1.714 E15.47879
G1 X0.403 Y-1.215 E15.58469
G1 X0.417 Y-.792 E15.67443
G1 X0.419 Y-.322 E15.77409
G1 X0.391 Y0.155 E15.8754
G1 X0.385 Y0.571 E15.96362
G1 X0.401 Y1.07 E16.06948
G1 X0.4 Y1.541 E16.16935
G1 X0.382 Y2.014 E16.26971
G1 X0.417 Y2.557 E16.38508
G1 X0.407 Y2.963 E16.4712
G1 X0.382 Y3.391 E16.5621
G1 X0.403 Y3.934 E16.67732
G1 X0.393 Y4.459 E16.78866
G1 X0.394 Y4.961 E16.8951
G1 X0.408 Y5.564 E17.02299
G1 X0.418 Y6.087 E17.1339
G1 X0.4 Y6.519 E17.22558
G1 X0.404 Y6.954 E17.31782
G1 X0.387 Y7.392 E17.41076
G1 X0.405 Y7.826 E17.50286
G1 F351.3 X0.431 Y8.383 E17.62165
G1 F350.5 X0.515 Y8.478 E17.64873
G1 F351.3 X0.805 Y8.649 E17.72045
G1 F351.7 X1.135 Y8.868 E17.80472
G1 X1.507 Y9.069 E17.89469
G1 X2.032 Y9.356 E18.022
G1 X2.438 Y9.592 E18.12193
G1 X2.965 Y9.909 E18.25279
G1 X3.465 Y10.181 E18.3739
G1 X3.863 Y10.429 E18.47368
G1 F352.1 X4.205 Y10.632 E18.55821
G1 X4.588 Y10.847 E18.65156
G1 X5.094 Y11.115 E18.77325
G1 X5.59 Y11.422 E18.89723
G1 X5.977 Y11.663 E18.99412
G1 X6.359 Y11.846 E19.08414
G1 X6.744 Y12.109 E19.18324
G1 X7.077 Y12.3 E19.26483
G1 X7.602 Y12.585 E19.39179
G1 F352.5 X7.962 Y12.785 E19.47921
G1 X8.317 Y12.997 E19.56699
G1 X8.807 Y13.278 E19.6869
G1 X9.306 Y13.58 E19.81071
G1 X9.697 Y13.781 E19.90404
G1 X10.147 Y14.066 E20.01712
G1 X10.646 Y14.357 E20.13974
G1 X10.998 Y14.539 E20.22386
G1 F352.9 X11.394 Y14.758 E20.31981
G1 X11.816 Y15.001 E20.42306
G1 X12.237 Y15.274 E20.52946
G1 X12.671 Y15.511 E20.63431
G1 X13.078 Y15.742 E20.73353
G1 X13.507 Y16.013 E20.84113
G1 X13.906 Y16.214 E20.93586
G1 X14.245 Y16.419 E21.01986
G1 X14.612 Y16.648 E21.11158
G1 F352.5 X15.078 Y16.806 E21.21603
G1 X15.477 Y16.595 E21.31185
G1 F352.9 X15.888 Y16.355 E21.41276
;MESH:NONMESH
G0 F360 X15.888 Y16.355 Z1.2
G0 F600 X15.831 Y16.356
;TIME_ELAPSED:22.094575
;LAYER:1
M106 S255
;TYPE:WALL-OUTER
;MESH:test_hex_D30H20.obj
G1 F352.9 X16.278 Y16.127 E21.51926
G1 X16.63 Y15.904 E21.60761
G1 X17.165 Y15.599 E21.73819
G1 X17.634 Y15.315 E21.85444
G1 X18.033 Y15.101 E21.95044
G1 X18.515 Y14.82 E22.06874
G1 X19.054 Y14.52 E22.19954
G1 X19.47 Y14.289 E22.30043
G1 X19.802 Y14.095 E22.38196
G1 X20.279 Y13.817 E22.49903
G1 X20.68 Y13.593 E22.59642
G1 X21.028 Y13.375 E22.68349
G1 X21.538 Y13.067 E22.80981
G1 X21.945 Y12.829 E22.90978
G1 X22.28 Y12.653 E22.99002
G1 X22.749 Y12.389 E23.10414
G1 X23.164 Y12.132 E23.20764
G1 X23.637 Y11.858 E23.32354
G1 X24.166 Y11.546 E23.45376
G1 X24.535 Y11.351 E23.54226
G1 X25.006 Y11.091 E23.65633
G1 X25.502 Y10.791 E23.77924
G1 X26.033 Y10.497 E23.90793
G1 X26.529 Y10.195 E24.03106
G1 X26.89 Y9.994 E24.11867
G1 X27.362 Y9.717 E24.23471
G1 X27.904 Y9.41 E24.36679
G1 X28.35 Y9.139 E24.47745
G1 X28.784 Y8.912 E24.5813
G1 X29.17 Y8.68 E24.67679
G1 F352.1 X29.516 Y8.459 E24.76404
G1 F350.1 X29.594 Y8.311 E24.79981
G1 F350.5 X29.587 Y7.757 E24.91811
G1 F352.9 X29.617 Y7.37 E25.00042
G1 X29.587 Y6.76 E25.12991
G1 X29.603 Y6.191 E25.25061
G1 X29.583 Y5.776 E25.3387
G1 X29.616 Y5.393 E25.42021
G1 X29.579 Y4.898 E25.52546
G1 X29.59 Y4.45 E25.62048
G1 X29.61 Y3.853 E25.74714
G1 X29.588 Y3.391 E25.84521
G1 X29.599 Y3.003 E25.92751
G1 X29.601 Y2.525 E26.02886
G1 X29.578 Y2.123 E26.11424
G1 X29.593 Y1.529 E26.24023
G1 X29.606 Y1.089 E26.33356
G1 X29.605 Y0.671 E26.42219
G1 X29.601 Y0.208 E26.52037
G1 X29.588 Y-.304 E26.62896
G1 X29.588 Y-.892 E26.75364
G1 X29.607 Y-1.448 E26.8716
G1 X29.587 Y-1.915 E26.97071
G1 X29.6 Y-2.35 E27.06298
G1 X29.613 Y-2.733 E27.14424
G1 X29.605 Y-3.246 E27.25303
G1 X29.608 Y-3.811 E27.37283
G1 X29.609 Y-4.279 E27.47206
G1 X29.607 Y-4.774 E27.57702
G1 X29.595 Y-5.216 E27.67077
G1 X29.614 Y-5.624 E27.75737
G1 X29.604 Y-6.225 E27.88482
G1 X29.592 Y-6.638 E27.97243
G1 X29.603 Y-7.142 E28.07932
G1 X29.582 Y-7.765 E28.21149
G1 F352.5 X29.591 Y-8.248 E28.31404
G1 F351.7 X29.4 Y-8.543 E28.38882
G1 F352.9 X29.31 Y-8.575 E28.40907
G1 X28.903 Y-8.816 E28.50937
G1 X28.477 Y-9.079 E28.61552
G1 X28.001 Y-9.353 E28.73197
G1 X27.483 Y-9.65 E28.85858
G1 X26.994 Y-9.914 E28.97641
G1 X26.521 Y-10.21 E29.09472
G1 X26.107 Y-10.428 E29.19393
G1 X25.758 Y-10.637 E29.28018
G1 X25.316 Y-10.903 E29.38956
G1 X24.961 Y-11.11 E29.4767
G1 X24.507 Y-11.376 E29.58827
G1 X24.081 Y-11.606 E29.69092
G1 X23.57 Y-11.92 E29.81809
G1 X23.1 Y-12.196 E29.93365
G1 X22.702 Y-12.422 E30.0307
G1 X22.361 Y-12.603 E30.11256
G1 X21.887 Y-12.865 E30.22739
G1 X21.526 Y-13.089 E30.31748
G1 X21.031 Y-13.37 E30.43816
G1 X20.601 Y-13.623 E30.54395
G1 X20.166 Y-13.87 E30.65002
G1 X19.674 Y-14.157 E30.77079
G1 X19.301 Y-14.364 E30.86124
G1 X18.803 Y-14.682 E30.98652
G1 X18.384 Y-14.894 E31.08609
G1 X17.86 Y-15.204 E31.21518
G1 X17.36 Y-15.516 E31.34015
G1 X16.884 Y-15.746 E31.45224
G1 X16.494 Y-15.994 E31.55023
G1 X16.012 Y-16.262 E31.66717
G1 X15.681 Y-16.453 E31.7482
G1 X15.303 Y-16.678 E31.84147
G1 X15.1 Y-16.784 E31.89003
G1 F353.4 X14.9 Y-16.783 E31.93239
G1 F352.9 X14.768 Y-16.705 E31.9649
G1 X14.436 Y-16.514 E32.04611
G1 X14.018 Y-16.27 E32.14873
G1 X13.617 Y-16.043 E32.24644
G1 X13.081 Y-15.747 E32.37627
G1 X12.559 Y-15.453 E32.5033
G1 X12.122 Y-15.205 E32.60984
G1 X11.646 Y-14.924 E32.72704
G1 X11.304 Y-14.725 E32.81094
G1 X10.805 Y-14.417 E32.93527
G1 X10.39 Y-14.193 E33.03527
G1 X10.048 Y-14.014 E33.11711
G1 X9.707 Y-13.805 E33.20192
G1 X9.384 Y-13.594 E33.28372
G1 X8.945 Y-13.372 E33.38803
G1 X8.563 Y-13.131 E33.4838
G1 X8.22 Y-12.933 E33.56777
G1 X7.845 Y-12.74 E33.6572
G1 X7.504 Y-12.54 E33.74102
G1 X7.03 Y-12.263 E33.85743
G1 X6.698 Y-12.063 E33.93961
G1 X6.284 Y-11.826 E34.04076
G1 X5.892 Y-11.598 E34.13691
G1 X5.374 Y-11.319 E34.26166
G1 X4.998 Y-11.065 E34.35787
G1 X4.652 Y-10.9 E34.43915
G1 X4.163 Y-10.598 E34.56101
G1 X3.673 Y-10.319 E34.68057
G1 X3.332 Y-10.138 E34.76243
G1 X2.943 Y-9.914 E34.85761
G1 X2.527 Y-9.669 E34.95998
G1 X2.099 Y-9.386 E35.06877
G1 X1.678 Y-9.165 E35.16959
G1 X1.194 Y-8.899 E35.28669
G1 X0.766 Y-8.622 E35.39479
G1 F352.1 X0.484 Y-8.459 E35.46401
G1 X0.417 Y-8.397 E35.48341
G1 F352.9 X0.385 Y-7.818 E35.60637
G1 X0.388 Y-7.337 E35.70836
G1 X0.397 Y-6.862 E35.80909
G1 X0.384 Y-6.252 E35.93846
G1 X0.394 Y-5.661 E36.06379
G1 X0.414 Y-5.179 E36.16608
G1 X0.403 Y-4.697 E36.26831
G1 X0.391 Y-4.301 E36.35231
G1 X0.404 Y-3.815 E36.4554
G1 X0.403 Y-3.418 E36.53957
G1 X0.383 Y-2.931 E36.64292
G1 X0.395 Y-2.36 E36.76402
G1 X0.397 Y-1.944 E36.85223
G1 X0.391 Y-1.44 E36.9591
G1 X0.381 Y-1 E37.05242
G1 X0.404 Y-.443 E37.17062
G1 X0.408 Y0.037 E37.2724
G1 X0.397 Y0.624 E37.39688
G1 X0.407 Y1.233 E37.52603
G1 X0.404 Y1.83 E37.65262
G1 X0.409 Y2.324 E37.75737
G1 X0.414 Y2.912 E37.88205
G1 X0.39 Y3.52 E38.01106
G1 X0.394 Y4.03 E38.1192
G1 X0.386 Y4.503 E38.21951
G1 X0.398 Y5.066 E38.33891
G1 X0.387 Y5.583 E38.44856
G1 X0.4 Y5.969 E38.53045
G1 X0.402 Y6.519 E38.64707
G1 X0.4 Y6.969 E38.74248
G1 X0.395 Y7.464 E38.84744
G1 X0.416 Y8.023 E38.96606
G1 F352.1 X0.416 Y8.339 E39.03322
G1 X0.448 Y8.415 E39.05074
G1 X0.872 Y8.721 E39.16187
G1 F351.7 X1.374 Y9.004 E39.28449
G1 X1.899 Y9.311 E39.4139
G1 X2.254 Y9.515 E39.50102
G1 X2.798 Y9.808 E39.6325
G1 X3.307 Y10.086 E39.7559
G1 X3.674 Y10.296 E39.84588
G1 X4.036 Y10.519 E39.93634
G1 F352.1 X4.482 Y10.779 E40.04606
G1 X4.896 Y11.024 E40.14831
G1 X5.408 Y11.309 E40.27285
G1 X5.838 Y11.57 E40.37975
G1 X6.313 Y11.853 E40.49726
G1 X6.811 Y12.124 E40.61776
G1 X7.294 Y12.384 E40.73434
G1 X7.657 Y12.632 E40.82778
G1 X8.051 Y12.843 E40.92277
G1 F352.5 X8.472 Y13.084 E41.02575
G1 X8.948 Y13.375 E41.14418
G1 X9.452 Y13.641 E41.26516
G1 X9.851 Y13.861 E41.36188
G1 X10.38 Y14.172 E41.49215
G1 X10.777 Y14.414 E41.59085
G1 X11.174 Y14.656 E41.68955
G1 F352.9 X11.622 Y14.919 E41.79969
G1 X12.012 Y15.121 E41.89282
G1 X12.548 Y15.422 E42.02317
G1 X12.874 Y15.623 E42.10437
G1 X13.2 Y15.829 E42.18614
G1 X13.62 Y16.062 E42.28798
G1 X14.101 Y16.339 E42.40567
G1 X14.497 Y16.56 E42.50182
G1 X14.917 Y16.799 E42.60429
G1 X15.054 Y16.806 E42.63337
G1 F352.5 X15.471 Y16.594 E42.73268
G1 F352.9 X15.831 Y16.356 E42.82418
;MESH:NONMESH
G0 F360 X15.831 Y16.356 Z1.8
G0 F600 X15.957 Y16.313
;TIME_ELAPSED:39.428513
;LAYER:2
;TYPE:WALL-OUTER
;MESH:test_hex_D30H20.obj
G1 F352.9 X16.441 Y16.002 E42.94617
G1 X16.833 Y15.797 E43.03996
G1 X17.209 Y15.597 E43.13027
G1 X17.625 Y15.345 E43.23339
G1 X18.088 Y15.091 E43.34537
G1 X18.533 Y14.826 E43.45519
G1 X18.976 Y14.54 E43.56699
G1 X19.521 Y14.255 E43.6974
G1 X19.867 Y14.039 E43.78388
G1 X20.345 Y13.771 E43.90008
G1 X20.793 Y13.493 E44.01187
G1 X21.191 Y13.27 E44.1086
G1 X21.632 Y13.028 E44.21526
G1 X21.963 Y12.836 E44.2964
G1 X22.472 Y12.524 E44.42299
G1 X22.973 Y12.253 E44.54376
G1 X23.307 Y12.073 E44.62421
G1 X23.792 Y11.794 E44.74285
G1 X24.287 Y11.504 E44.86449
G1 X24.799 Y11.197 E44.99107
G1 X25.151 Y10.984 E45.07831
G1 X25.671 Y10.711 E45.20283
G1 X25.987 Y10.492 E45.28435
G1 X26.498 Y10.21 E45.40811
G1 X26.843 Y10.028 E45.49081
G1 X27.33 Y9.747 E45.61003
G1 X27.701 Y9.523 E45.70192
G1 X28.219 Y9.228 E45.82832
G1 X28.641 Y8.975 E45.93264
G1 X29.013 Y8.76 E46.02375
G1 X29.418 Y8.553 E46.12019
G1 F352.1 X29.516 Y8.459 E46.14905
G1 F351.3 X29.585 Y8.338 E46.17872
G1 F352.1 X29.586 Y8.031 E46.24397
G1 F352.9 X29.612 Y7.574 E46.34102
G1 X29.608 Y7.114 E46.43856
G1 X29.592 Y6.505 E46.56774
G1 X29.593 Y6 E46.67481
G1 X29.599 Y5.424 E46.79695
G1 X29.617 Y4.934 E46.90092
G1 X29.596 Y4.449 E47.00385
G1 X29.606 Y4.001 E47.09886
G1 X29.59 Y3.399 E47.22655
G1 X29.587 Y2.818 E47.34975
G1 X29.586 Y2.33 E47.45322
G1 X29.608 Y1.764 E47.57332
G1 X29.581 Y1.166 E47.70025
G1 X29.602 Y0.763 E47.78581
G1 X29.578 Y0.36 E47.87141
G1 X29.584 Y-0.086 E47.96599
G1 X29.61 Y-.685 E48.09311
G1 X29.606 Y-1.143 E48.19023
G1 X29.594 Y-1.671 E48.30221
G1 X29.604 Y-2.214 E48.41737
G1 X29.608 Y-2.765 E48.5342
G1 X29.617 Y-3.29 E48.64553
G1 X29.592 Y-3.724 E48.73771
G1 X29.579 Y-4.285 E48.85669
G1 X29.588 Y-4.776 E48.96082
G1 X29.587 Y-5.318 E49.07574
G1 X29.603 Y-5.872 E49.19325
G1 X29.584 Y-6.418 E49.30909
G1 X29.595 Y-6.869 E49.40475
G1 X29.585 Y-7.26 E49.48768
G1 X29.586 Y-7.801 E49.60239
G1 F352.5 X29.564 Y-8.353 E49.71967
G1 F351.7 X29.485 Y-8.478 E49.75113
G1 F352.1 X29.226 Y-8.627 E49.81464
G1 F352.9 X28.891 Y-8.838 E49.89858
G1 X28.376 Y-9.138 E50.02496
G1 X27.996 Y-9.348 E50.11701
G1 X27.548 Y-9.627 E50.22892
G1 X27.11 Y-9.865 E50.33461
G1 X26.564 Y-10.16 E50.4662
G1 X26.094 Y-10.442 E50.58242
G1 X25.729 Y-10.671 E50.67378
G1 X25.333 Y-10.871 E50.76785
G1 X24.884 Y-11.158 E50.88084
G1 X24.352 Y-11.449 E51.00941
G1 X23.918 Y-11.719 E51.11779
G1 X23.485 Y-11.946 E51.22145
G1 X23.1 Y-12.198 E51.31902
G1 X22.73 Y-12.386 E51.40702
G1 X22.201 Y-12.713 E51.53888
G1 X21.826 Y-12.921 E51.62981
G1 X21.313 Y-13.199 E51.75352
G1 X20.791 Y-13.527 E51.88424
G1 X20.354 Y-13.782 E51.99152
G1 X19.868 Y-14.067 E52.11098
G1 X19.344 Y-14.353 E52.23756
G1 X18.801 Y-14.654 E52.3692
G1 X18.473 Y-14.873 E52.45282
G1 X17.934 Y-15.166 E52.5829
G1 X17.466 Y-15.44 E52.69789
G1 X16.999 Y-15.701 E52.81133
G1 X16.479 Y-16.021 E52.94079
G1 X15.969 Y-16.312 E53.06529
G1 X15.502 Y-16.569 E53.17831
G1 F353.8 X15.044 Y-16.819 E53.28869
G1 X14.9 Y-16.783 E53.32009
G1 F352.9 X14.676 Y-16.654 E53.3749
G1 X14.218 Y-16.404 E53.48553
G1 X13.81 Y-16.156 E53.58677
G1 X13.389 Y-15.938 E53.68729
G1 X13.043 Y-15.705 E53.77574
G1 X12.675 Y-15.536 E53.8616
