;generated by ffslicer 1.30.3 08/05/24 11:29:39
;right_extruder_material: PLA
;layer_height: 0.2
;perimeter_shells: 2
;top_solid_layers: 4
;bottom_solid_layers: 3
;fill_density: 15%
;fill_pattern: hexagon
;base_print_speed: 100
;travel_speed: 120
;right_extruder_temperature: 205
;left_extruder_temperature: 0
;platform_temperature: 60
;right_extruder_temperature_raft0: 0
;left_extruder_temperature_raft0: 0
;right_extruder_temperature_reset: 
;left_extruder_temperature_reset: 
;start gcode
M140 S60 T0
M104 S205 T0
M104 S0 T1
G90
G28
G1 Z50.000 F420
G161 X Y F3300
M190 S60 T0
M109 S205 T0
M109 S0 T1
G92 E.0000
;layer_count: 75
M108 T0
G1 X106.00 Y102.00 F7200
;preExtrude:0.20
;preExtruder0
G1 Z.200 F420
G1 X106.00 Y102.00 F7200
G1 X133.00 Y102.00 E3.5921 F1200
G1 X133.00 Y133.00 E7.7164
G1 X102.00 Y133.00 E11.8406
G1 X102.00 Y102.00 E15.9649
;raft
;layer:0.30
;shell
M106 S255
G1 E10.9649 F2400
G1 Z.300 F420
G1 X110.60 Y110.60 F3000
G1 E15.9649 F2400
G1 X110.60 Y110.60 F3000
G1 X120.60 Y110.60 E16.4638 F1200
G1 X124.40 Y110.60 E16.6533
G1 X124.40 Y116.80 E16.9627
G1 X124.40 Y124.40 E17.3418
G1 X122.00 Y124.40 E17.4616
G1 X112.00 Y124.40 E17.9605
G1 X110.60 Y124.40 E18.0303
G1 X110.60 Y115.80 E18.4594
G1 X110.60 Y110.60 E18.7188
G1 X110.20 Y110.20 F3000
G1 X124.80 Y110.20 E19.4472 F1200
G1 X124.80 Y124.80 E20.1756
G1 X110.20 Y124.80 E20.9040
G1 X110.20 Y110.20 E21.6324
;infill
G1 E16.6324 F2400
G1 X110.88 Y124.11 F3000
G1 E21.6324 F2400
G1 X110.88 Y124.11 F3000
G1 X111.45 Y124.12 E21.6608 F1200
G1 X110.88 Y123.54 E21.7014
G1 X110.88 Y122.98 E21.7293
G1 X112.02 Y124.12 E21.8098
G1 X112.59 Y124.12 E21.8382
G1 X110.88 Y122.41 E21.9589
G1 X110.88 Y121.84 E21.9873
G1 X113.16 Y124.12 E22.1482
G1 X113.72 Y124.12 E22.1761
G1 X110.88 Y121.28 E22.3765
G1 X110.88 Y120.71 E22.4049
G1 X114.29 Y124.12 E22.6455
G1 X114.86 Y124.12 E22.6740
G1 X110.88 Y120.14 E22.9548
G1 X110.88 Y119.58 E22.9827
G1 X115.42 Y124.12 E23.3030
G1 X115.99 Y124.12 E23.3315
G1 X110.88 Y119.01 E23.6920
G1 X110.88 Y118.44 E23.7204
G1 X116.56 Y124.12 E24.1212
G1 X117.13 Y124.12 E24.1496
G1 X110.88 Y117.87 E24.5906
G1 X110.88 Y117.31 E24.6185
G1 X117.69 Y124.12 E25.0990
G1 X118.26 Y124.12 E25.1275
G1 X110.88 Y116.74 E25.6482
G1 X110.88 Y116.17 E25.6766
G1 X118.83 Y124.12 E26.2375
G1 X119.39 Y124.12 E26.2655
G1 X110.88 Y115.61 E26.8659
G1 X110.88 Y115.04 E26.8943
G1 X119.96 Y124.12 E27.5350
G1 X120.53 Y124.12 E27.5634
G1 X110.88 Y114.47 E28.2443
G1 X110.88 Y113.90 E28.2727
G1 X121.09 Y124.12 E28.9934
G1 X121.66 Y124.12 E29.0219
G1 X110.88 Y113.34 E29.7824
G1 X110.88 Y112.77 E29.8109
G1 X122.23 Y124.12 E30.6117
G1 X122.80 Y124.12 E30.6401
G1 X110.88 Y112.20 E31.4811
G1 X110.88 Y111.64 E31.5091
G1 X123.36 Y124.12 E32.3896
G1 X123.93 Y124.12 E32.4181
G1 X110.88 Y111.07 E33.3388
G1 X110.88 Y110.88 E33.3483
G1 X111.26 Y110.88 E33.3672
G1 X124.12 Y123.74 E34.2746
G1 X124.12 Y123.18 E34.3025
G1 X111.82 Y110.88 E35.1704
G1 X112.39 Y110.88 E35.1988
G1 X124.12 Y122.61 E36.0264
G1 X124.12 Y122.04 E36.0548
G1 X112.96 Y110.88 E36.8422
G1 X113.53 Y110.88 E36.8707
G1 X124.12 Y121.47 E37.6179
G1 X124.12 Y120.91 E37.6458
G1 X114.09 Y110.88 E38.3535
G1 X114.66 Y110.88 E38.3819
G1 X124.12 Y120.34 E39.0494
G1 X124.12 Y119.77 E39.0778
G1 X115.23 Y110.88 E39.7050
G1 X115.79 Y110.88 E39.7330
G1 X124.12 Y119.21 E40.3207
G1 X124.12 Y118.64 E40.3491
G1 X116.36 Y110.88 E40.8966
G1 X116.93 Y110.88 E40.9251
G1 X124.12 Y118.07 E41.4324
G1 X124.12 Y117.50 E41.4608
G1 X117.49 Y110.88 E41.9282
G1 X118.06 Y110.88 E41.9567
G1 X124.12 Y116.94 E42.3842
G1 X124.12 Y116.37 E42.4127
G1 X118.63 Y110.88 E42.8000
G1 X119.20 Y110.88 E42.8285
G1 X124.12 Y115.80 E43.1756
G1 X124.12 Y115.24 E43.2035
G1 X119.76 Y110.88 E43.5112
G1 X120.33 Y110.88 E43.5396
G1 X124.12 Y114.67 E43.8070
G1 X124.12 Y114.10 E43.8354
G1 X120.90 Y110.88 E44.0626
G1 X121.46 Y110.88 E44.0906
G1 X124.12 Y113.53 E44.2779
G1 X124.12 Y112.97 E44.3058
G1 X122.03 Y110.88 E44.4533
G1 X122.60 Y110.88 E44.4817
G1 X124.12 Y112.40 E44.5890
G1 X124.12 Y111.83 E44.6174
G1 X123.17 Y110.88 E44.6844
G1 X123.73 Y110.88 E44.7124
G1 X124.12 Y111.27 E44.7399
;percent
;layer:0.20
;shell
G1 E39.7399 F2400
G1 Z.500 F420
G1 X110.60 Y110.60 F7200
G1 E44.7399 F2400
G1 X110.60 Y110.60 F7200
G1 X120.60 Y110.60 E45.0725 F4800
G1 X124.40 Y110.60 E45.1989 F5040
G1 X124.40 Y116.80 E45.4051
G1 X124.40 Y124.40 E45.6579 F5280
G1 X122.00 Y124.40 E45.7377
G1 X112.00 Y124.40 E46.0703 F5520
G1 X110.60 Y124.40 E46.1169 F5760
G1 X110.60 Y115.80 E46.4029
G1 X110.60 Y110.60 E46.5758 F6000
G1 X110.20 Y110.20 F7200
G1 X124.80 Y110.20 E47.0614 F3000
G1 X124.80 Y124.80 E47.5470
G1 X110.20 Y124.80 E48.0326
G1 X110.20 Y110.20 E48.5182
;infill
G1 X111.27 Y110.88 F7200
G1 X110.88 Y111.27 E48.5366 F4200
G1 X110.88 Y111.83 E48.5552
G1 X111.83 Y110.88 E48.5999
G1 X112.40 Y110.88 E48.6188
G1 X110.88 Y112.40 E48.6903
G1 X110.88 Y112.97 E48.7093
G1 X112.97 Y110.88 E48.8076
G1 X113.53 Y110.88 E48.8262
G1 X110.88 Y113.53 E48.9509
G1 X110.88 Y114.10 E48.9698
G1 X114.10 Y110.88 E49.1213
G1 X114.67 Y110.88 E49.1403
G1 X110.88 Y114.67 E49.3185
G1 X110.88 Y115.24 E49.3375
G1 X115.24 Y110.88 E49.5426
G1 X115.80 Y110.88 E49.5612
G1 X110.88 Y115.80 E49.7926
G1 X110.88 Y116.37 E49.8116
G1 X116.37 Y110.88 E50.0698
G1 X116.94 Y110.88 E50.0888
G1 X110.88 Y116.94 E50.3738
G1 X110.88 Y117.50 E50.3924
G1 X117.50 Y110.88 E50.7038
G1 X118.07 Y110.88 E50.7228
G1 X110.88 Y118.07 E51.0610
G1 X110.88 Y118.64 E51.0799
G1 X118.64 Y110.88 E51.4449
G1 X119.21 Y110.88 E51.4639
G1 X110.88 Y119.21 E51.8557
G1 X110.88 Y119.77 E51.8743
G1 X119.77 Y110.88 E52.2925
G1 X120.34 Y110.88 E52.3114
G1 X110.88 Y120.34 E52.7564
G1 X110.88 Y120.91 E52.7754
G1 X120.91 Y110.88 E53.2471
G1 X121.47 Y110.88 E53.2658
G1 X110.88 Y121.47 E53.7639
G1 X110.88 Y122.04 E53.7829
G1 X122.04 Y110.88 E54.3078
G1 X122.61 Y110.88 E54.3267
G1 X110.88 Y122.61 E54.8785
G1 X110.88 Y123.18 E54.8974
G1 X123.18 Y110.88 E55.4760
G1 X123.74 Y110.88 E55.4946
G1 X110.88 Y123.74 E56.0995
G1 X110.88 Y124.12 E56.1122
G1 X111.07 Y124.12 E56.1185
G1 X124.12 Y111.07 E56.7323
G1 X124.12 Y111.64 E56.7513
G1 X111.64 Y124.12 E57.3383
G1 X112.20 Y124.12 E57.3569
G1 X124.12 Y112.20 E57.9176
G1 X124.12 Y112.77 E57.9365
G1 X112.77 Y124.12 E58.4704
G1 X113.34 Y124.12 E58.4894
G1 X124.12 Y113.34 E58.9964
G1 X124.12 Y113.90 E59.0151
G1 X113.91 Y124.12 E59.4955
G1 X114.47 Y124.12 E59.5142
G1 X124.12 Y114.47 E59.9681
G1 X124.12 Y115.04 E59.9870
G1 X115.04 Y124.12 E60.4141
G1 X115.61 Y124.12 E60.4331
G1 X124.12 Y115.61 E60.8334
G1 X124.12 Y116.17 E60.8520
G1 X116.17 Y124.12 E61.2259
G1 X116.74 Y124.12 E61.2449
G1 X124.12 Y116.74 E61.5920
G1 X124.12 Y117.31 E61.6110
G1 X117.31 Y124.12 E61.9313
G1 X117.87 Y124.12 E61.9499
G1 X124.12 Y117.87 E62.2439
G1 X124.12 Y118.44 E62.2629
G1 X118.44 Y124.12 E62.5300
G1 X119.01 Y124.12 E62.5490
G1 X124.12 Y119.01 E62.7894
G1 X124.12 Y119.58 E62.8083
G1 X119.58 Y124.12 E63.0219
G1 X120.14 Y124.12 E63.0405
G1 X124.12 Y120.14 E63.2277
G1 X124.12 Y120.71 E63.2466
G1 X120.71 Y124.12 E63.4070
G1 X121.28 Y124.12 E63.4260
G1 X124.12 Y121.28 E63.5596
G1 X124.12 Y121.84 E63.5782
G1 X121.84 Y124.12 E63.6855
G1 X122.41 Y124.12 E63.7044
G1 X124.12 Y122.41 E63.7848
G1 X124.12 Y122.98 E63.8038
G1 X122.98 Y124.12 E63.8574
G1 X123.55 Y124.12 E63.8764
G1 X124.12 Y123.55 E63.9032
G1 X124.11 Y124.12 E63.9222
;percent
;layer:0.20
;shell
G1 E58.9222 F2400
G1 Z.700 F420
G1 X110.60 Y110.60 F7200
G1 E63.9222 F2400
G1 X110.60 Y110.60 F7200
G1 X120.60 Y110.60 E64.2548 F4800
G1 X124.40 Y110.60 E64.3811 F5040
G1 X124.40 Y116.80 E64.5874
G1 X124.40 Y124.40 E64.8401 F5280
G1 X122.00 Y124.40 E64.9200
G1 X112.00 Y124.40 E65.2526 F5520
G1 X110.60 Y124.40 E65.2991 F5760
G1 X110.60 Y115.80 E65.5852
G1 X110.60 Y110.60 E65.7581 F6000
G1 X110.20 Y110.20 F7200
G1 X124.80 Y110.20 E66.2437 F3000
G1 X124.80 Y124.80 E66.7293
G1 X110.20 Y124.80 E67.2149
G1 X110.20 Y110.20 E67.7005
;infill
G1 E62.7005 F2400
G1 X110.88 Y124.11 F7200
G1 E67.7005 F2400
G1 X110.88 Y124.11 F7200
G1 X111.45 Y124.12 E67.7195 F4200
G1 X110.88 Y123.54 E67.7465
G1 X110.88 Y122.98 E67.7651
G1 X112.02 Y124.12 E67.8188
G1 X112.59 Y124.12 E67.8377
G1 X110.88 Y122.41 E67.9182
G1 X110.88 Y121.84 E67.9371
G1 X113.16 Y124.12 E68.0444
G1 X113.72 Y124.12 E68.0630
G1 X110.88 Y121.28 E68.1966
G1 X110.88 Y120.71 E68.2155
G1 X114.29 Y124.12 E68.3759
G1 X114.86 Y124.12 E68.3949
G1 X110.88 Y120.14 E68.5821
G1 X110.88 Y119.58 E68.6007
G1 X115.42 Y124.12 E68.8143
G1 X115.99 Y124.12 E68.8332
G1 X110.88 Y119.01 E69.0736
G1 X110.88 Y118.44 E69.0925
G1 X116.56 Y124.12 E69.3597
G1 X117.13 Y124.12 E69.3787
G1 X110.88 Y117.87 E69.6727
G1 X110.88 Y117.31 E69.6913
G1 X117.69 Y124.12 E70.0116
G1 X118.26 Y124.12 E70.0306
G1 X110.88 Y116.74 E70.3777
G1 X110.88 Y116.17 E70.3967
G1 X118.83 Y124.12 E70.7706
G1 X119.39 Y124.12 E70.7892
G1 X110.88 Y115.61 E71.1895
G1 X110.88 Y115.04 E71.2085
G1 X119.96 Y124.12 E71.6356
G1 X120.53 Y124.12 E71.6545
G1 X110.88 Y114.47 E72.1084
G1 X110.88 Y113.90 E72.1274
G1 X121.09 Y124.12 E72.6079
G1 X121.66 Y124.12 E72.6268
G1 X110.88 Y113.34 E73.1339
G1 X110.88 Y112.77 E73.1529
G1 X122.23 Y124.12 E73.6867
G1 X122.80 Y124.12 E73.7057
G1 X110.88 Y112.20 E74.2664
G1 X110.88 Y111.64 E74.2850
G1 X123.36 Y124.12 E74.8720
G1 X123.93 Y124.12 E74.8910
G1 X110.88 Y111.07 E75.5048
G1 X110.88 Y110.88 E75.5111
G1 X111.26 Y110.88 E75.5238
G1 X124.12 Y123.74 E76.1287
G1 X124.12 Y123.18 E76.1473
G1 X111.82 Y110.88 E76.7259
G1 X112.39 Y110.88 E76.7448
G1 X124.12 Y122.61 E77.2966
G1 X124.12 Y122.04 E77.3155
G1 X112.96 Y110.88 E77.8404
G1 X113.53 Y110.88 E77.8594
G1 X124.12 Y121.47 E78.3575
G1 X124.12 Y120.91 E78.3762
G1 X114.09 Y110.88 E78.8479
G1 X114.66 Y110.88 E78.8669
G1 X124.12 Y120.34 E79.3119
G1 X124.12 Y119.77 E79.3308
G1 X115.23 Y110.88 E79.7490
G1 X115.79 Y110.88 E79.7676
G1 X124.12 Y119.21 E80.1594
G1 X124.12 Y118.64 E80.1784
G1 X116.36 Y110.88 E80.5434
G1 X116.93 Y110.88 E80.5624
G1 X124.12 Y118.07 E80.9006
G1 X124.12 Y117.50 E80.9195
G1 X117.49 Y110.88 E81.2311
G1 X118.06 Y110.88 E81.2501
G1 X124.12 Y116.94 E81.5351
G1 X124.12 Y116.37 E81.5541
G1 X118.63 Y110.88 E81.8123
G1 X119.20 Y110.88 E81.8313
G1 X124.12 Y115.80 E82.0627
G1 X124.12 Y115.24 E82.0813
G1 X119.76 Y110.88 E82.2864
G1 X120.33 Y110.88 E82.3054
G1 X124.12 Y114.67 E82.4837
G1 X124.12 Y114.10 E82.5026
G1 X120.90 Y110.88 E82.6541
G1 X121.46 Y110.88 E82.6727
G1 X124.12 Y113.53 E82.7976
G1 X124.12 Y112.97 E82.8162
G1 X122.03 Y110.88 E82.9145
G1 X122.60 Y110.88 E82.9335
G1 X124.12 Y112.40 E83.0050
G1 X124.12 Y111.83 E83.0239
G1 X123.17 Y110.88 E83.0686
G1 X123.73 Y110.88 E83.0873
G1 X124.12 Y111.27 E83.1056
;percent
;layer:0.20
;shell
G1 E78.1056 F2400
G1 X110.60 Y110.60 F7200
G1 Z.900 F420
G1 E83.1056 F2400
G1 X110.60 Y110.60 F7200
G1 X120.60 Y110.60 E83.4382 F4800
G1 X124.40 Y110.60 E83.5646 F5040
G1 X124.40 Y116.80 E83.7708
G1 X124.40 Y124.40 E84.0236 F5280
G1 X122.00 Y124.40 E84.1034
G1 X112.00 Y124.40 E84.4360 F5520
G1 X110.60 Y124.40 E84.4826 F5760
G1 X110.60 Y115.80 E84.7686
G1 X110.60 Y110.60 E84.9416 F6000
G1 X110.20 Y110.20 F7200
G1 X124.80 Y110.20 E85.4272 F3000
G1 X124.80 Y124.80 E85.9128
G1 X110.20 Y124.80 E86.3984
G1 X110.20 Y110.20 E86.8840
;infill
;extrude_ratio:0.5014
G1 X111.06 Y110.87 F7200
G1 X112.26 Y110.87 E86.9040 F6000
;extrude_ratio:1
G1 X111.25 Y111.61 F7200
G1 X111.61 Y111.25 E86.9209 F4200
G1 X112.19 Y111.25 E86.9402
G1 X111.25 Y112.19 E86.9844
G1 X111.25 Y112.76 E87.0034
G1 X112.76 Y111.25 E87.0744
G1 X113.33 Y111.25 E87.0934
G1 X111.25 Y113.33 E87.1912
G1 X111.25 Y113.90 E87.2102
G1 X113.90 Y111.25 E87.3348
G1 X114.48 Y111.25 E87.3541
G1 X111.25 Y114.48 E87.5060
G1 X111.25 Y115.05 E87.5250
G1 X115.05 Y111.25 E87.7037
G1 X115.62 Y111.25 E87.7227
G1 X111.25 Y115.62 E87.9282
G1 X111.25 Y116.19 E87.9472
G1 X116.19 Y111.25 E88.1796
G1 X116.77 Y111.25 E88.1988
G1 X111.25 Y116.77 E88.4585
G1 X111.25 Y117.34 E88.4775
G1 X117.34 Y111.25 E88.7639
G1 X117.91 Y111.25 E88.7829
G1 X111.25 Y117.91 E89.0961
G1 X111.25 Y118.49 E89.1154
G1 X118.49 Y111.25 E89.4560
G1 X119.06 Y111.25 E89.4749
G1 X111.25 Y119.06 E89.8423
G1 X111.25 Y119.63 E89.8612
G1 X119.63 Y111.25 E90.2554
G1 X120.20 Y111.25 E90.2744
G1 X111.25 Y120.20 E90.6954
G1 X111.25 Y120.78 E90.7146
G1 X120.78 Y111.25 E91.1629
G1 X121.35 Y111.25 E91.1819
G1 X111.25 Y121.35 E91.6569
G1 X111.25 Y121.92 E91.6759
G1 X121.92 Y111.25 E92.1778
G1 X122.49 Y111.25 E92.1967
G1 X111.25 Y122.49 E92.7255
G1 X111.25 Y123.07 E92.7447
G1 X123.07 Y111.25 E93.3007
G1 X123.64 Y111.25 E93.3197
G1 X111.25 Y123.64 E93.9025
G1 X111.25 Y123.75 E93.9061
G1 X111.71 Y123.75 E93.9214
G1 X123.75 Y111.71 E94.4877
G1 X123.75 Y112.29 E94.5070
G1 X112.29 Y123.75 E95.0461
G1 X112.86 Y123.75 E95.0650
G1 X123.75 Y112.86 E95.5773
G1 X123.75 Y113.43 E95.5962
G1 X113.43 Y123.75 E96.0817
G1 X114.01 Y123.75 E96.1009
G1 X123.75 Y114.01 E96.5591
G1 X123.75 Y114.58 E96.5781
G1 X114.58 Y123.75 E97.0094
G1 X115.15 Y123.75 E97.0283
G1 X123.75 Y115.15 E97.4329
G1 X123.75 Y115.72 E97.4518
G1 X115.72 Y123.75 E97.8295
G1 X116.30 Y123.75 E97.8488
G1 X123.75 Y116.30 E98.1992
G1 X123.75 Y116.87 E98.2182
G1 X116.87 Y123.75 E98.5418
G1 X117.44 Y123.75 E98.5608
G1 X123.75 Y117.44 E98.8576
G1 X123.75 Y118.01 E98.8765
G1 X118.01 Y123.75 E99.1465
G1 X118.59 Y123.75 E99.1658
G1 X123.75 Y118.59 E99.4085
G1 X123.75 Y119.16 E99.4275
G1 X119.16 Y123.75 E99.6434
G1 X119.73 Y123.75 E99.6623
G1 X123.75 Y119.73 E99.8514
G1 X123.75 Y120.31 E99.8707
G1 X120.31 Y123.75 E100.0325
G1 X120.88 Y123.75 E100.0515
G1 X123.75 Y120.88 E100.1865
G1 X123.75 Y121.45 E100.2054
G1 X121.45 Y123.75 E100.3136
G1 X122.02 Y123.75 E100.3326
G1 X123.75 Y122.02 E100.4140
G1 X123.75 Y122.60 E100.4333
G1 X122.60 Y123.75 E100.4873
G1 X123.17 Y123.75 E100.5063
G1 X123.75 Y123.17 E100.5336
G1 X123.74 Y123.75 E100.5529
;extrude_ratio:0.5014
G1 X124.14 Y123.05 F7200
G1 X124.14 Y121.85 E100.5729 F6000
;extrude_ratio:1
G1 E95.5729 F2400
G1 X118.36 Y124.14 F7200
G1 E100.5729 F2400
;extrude_ratio:0.5014
G1 X118.36 Y124.14 F7200
G1 X117.16 Y124.14 E100.5929 F6000
;extrude_ratio:1
G1 E95.5929 F2400
G1 X110.87 Y123.58 F7200
G1 E100.5929 F2400
;extrude_ratio:0.5014
G1 X110.87 Y123.58 F7200
G1 X110.87 Y122.38 E100.6129 F6000
;extrude_ratio:1
G1 E95.6129 F2400
G1 X110.87 Y115.58 F7200
G1 E100.6129 F2400
;extrude_ratio:0.5014
G1 X110.87 Y115.58 F7200
G1 X110.87 Y114.38 E100.6329 F6000
;extrude_ratio:1
G1 E95.6329 F2400
G1 X119.06 Y110.87 F7200
G1 E100.6329 F2400
;extrude_ratio:0.5014
G1 X119.06 Y110.87 F7200
G1 X120.26 Y110.87 E100.6530 F6000
;extrude_ratio:1
G1 E95.6530 F2400
G1 X124.14 Y113.85 F7200
G1 E100.6530 F2400
;extrude_ratio:0.5014
G1 X124.14 Y113.85 F7200
G1 X124.14 Y115.05 E100.6730 F6000
;percent
;extrude_ratio:1
;layer:0.20
;shell
G1 E95.6730 F2400
G1 X110.60 Y110.60 F7200
G1 Z1.100 F420
G1 E100.6730 F2400
G1 X110.60 Y110.60 F7200
G1 X120.60 Y110.60 E101.0056 F4800
G1 X124.40 Y110.60 E101.1320 F5040
G1 X124.40 Y116.80 E101.3382
G1 X124.40 Y124.40 E101.5910 F5280
G1 X122.00 Y124.40 E101.6708
G1 X112.00 Y124.40 E102.0034 F5520
G1 X110.60 Y124.40 E102.0499 F5760
G1 X110.60 Y115.80 E102.3360
G1 X110.60 Y110.60 E102.5089 F6000
G1 X110.20 Y110.20 F7200
G1 X124.80 Y110.20 E102.9945 F3000
G1 X124.80 Y124.80 E103.4801
G1 X110.20 Y124.80 E103.9657
G1 X110.20 Y110.20 E104.4514
;infill
;extrude_ratio:0.5014
G1 X111.06 Y110.87 F7200
G1 X112.26 Y110.87 E104.4714 F6000
;extrude_ratio:1
G1 E99.4714 F2400
G1 X110.87 Y114.38 F7200
G1 E104.4714 F2400
;extrude_ratio:0.5014
G1 X110.87 Y114.38 F7200
G1 X110.87 Y115.58 E104.4914 F6000
;extrude_ratio:1
G1 E99.4914 F2400
G1 X110.87 Y122.38 F7200
G1 E104.4914 F2400
;extrude_ratio:0.5014
G1 X110.87 Y122.38 F7200
G1 X110.87 Y123.58 E104.5114 F6000
;extrude_ratio:1
G1 X111.25 Y123.74 F7200
G1 X111.83 Y123.75 E104.5307 F4200
G1 X111.25 Y123.17 E104.5580
G1 X111.25 Y122.60 E104.5769
G1 X112.40 Y123.75 E104.6310
G1 X112.98 Y123.75 E104.6503
G1 X111.25 Y122.02 E104.7317
G1 X111.25 Y121.45 E104.7507
G1 X113.55 Y123.75 E104.8588
G1 X114.12 Y123.75 E104.8778
G1 X111.25 Y120.88 E105.0128
G1 X111.25 Y120.31 E105.0318
G1 X114.69 Y123.75 E105.1936
